; HOLY FUCK I HATE MY LIFE
; FLAVOR:Marlin
; Generated with Retardation 0.6.8
; PRINT SETTINGS
; offsets: X:10.0 Y:10.0 Z0.1
G28 ; HOME ALL AXIS
; LAYER HEIGHT: 0
G1 F1800 X10.0 Y10.0 Z0.1
G4 P500
G1 F1800 X0.0 Y10.0 Z0.1
G4 P500
G1 F1800 X0.0 Y20.0 Z0.1
G4 P500
G1 F1800 X10.0 Y20.0 Z0.1
G4 P500
G1 F1800 X10.0 Y10.0 Z0.1
G4 P500
; LAYER HEIGHT: 1
G1 F1800 X10.0 Y11.0 Z1.1
G4 P500
G1 F1800 X9.0 Y20.0 Z1.1
G4 P500
G1 F1800 X0.0 Y19.0 Z1.1
G4 P500
G1 F1800 X1.0 Y10.0 Z1.1
G4 P500
G1 F1800 X10.0 Y11.0 Z1.1
G4 P500
; LAYER HEIGHT: 2
G1 F1800 X10.0 Y12.0 Z2.1
G4 P500
G1 F1800 X8.0 Y20.0 Z2.1
G4 P500
G1 F1800 X0.0 Y18.0 Z2.1
G4 P500
G1 F1800 X2.0 Y10.0 Z2.1
G4 P500
G1 F1800 X10.0 Y12.0 Z2.1
G4 P500
; LAYER HEIGHT: 3
G1 F1800 X10.0 Y13.0 Z3.1
G4 P500
G1 F1800 X7.0 Y20.0 Z3.1
G4 P500
G1 F1800 X0.0 Y17.0 Z3.1
G4 P500
G1 F1800 X3.0 Y10.0 Z3.1
G4 P500
G1 F1800 X10.0 Y13.0 Z3.1
G4 P500
; LAYER HEIGHT: 4
G1 F1800 X10.0 Y14.0 Z4.1
G4 P500
G1 F1800 X6.0 Y20.0 Z4.1
G4 P500
G1 F1800 X0.0 Y16.0 Z4.1
G4 P500
G1 F1800 X4.0 Y10.0 Z4.1
G4 P500
G1 F1800 X10.0 Y14.0 Z4.1
G4 P500
; LAYER HEIGHT: 5
G1 F1800 X5.0 Y10.0 Z5.1
G4 P500
G1 F1800 X0.0 Y15.0 Z5.1
G4 P500
G1 F1800 X5.0 Y20.0 Z5.1
G4 P500
G1 F1800 X10.0 Y15.0 Z5.1
G4 P500
G1 F1800 X5.0 Y10.0 Z5.1
G4 P500
; LAYER HEIGHT: 6
G1 F1800 X6.0 Y10.0 Z6.1
G4 P500
G1 F1800 X0.0 Y14.0 Z6.1
G4 P500
G1 F1800 X4.0 Y20.0 Z6.1
G4 P500
G1 F1800 X10.0 Y16.0 Z6.1
G4 P500
G1 F1800 X6.0 Y10.0 Z6.1
G4 P500
; LAYER HEIGHT: 7
G1 F1800 X7.0 Y10.0 Z7.1
G4 P500
G1 F1800 X0.0 Y13.0 Z7.1
G4 P500
G1 F1800 X3.0 Y20.0 Z7.1
G4 P500
G1 F1800 X10.0 Y17.0 Z7.1
G4 P500
G1 F1800 X7.0 Y10.0 Z7.1
G4 P500
; LAYER HEIGHT: 8
G1 F1800 X8.0 Y10.0 Z8.1
G4 P500
G1 F1800 X0.0 Y12.0 Z8.1
G4 P500
G1 F1800 X2.0 Y20.0 Z8.1
G4 P500
G1 F1800 X10.0 Y18.0 Z8.1
G4 P500
G1 F1800 X8.0 Y10.0 Z8.1
G4 P500
; LAYER HEIGHT: 9
G1 F1800 X9.0 Y10.0 Z9.1
G4 P500
G1 F1800 X0.0 Y11.0 Z9.1
G4 P500
G1 F1800 X1.0 Y20.0 Z9.1
G4 P500
G1 F1800 X10.0 Y19.0 Z9.1
G4 P500
G1 F1800 X9.0 Y10.0 Z9.1
G4 P500
; LAYER HEIGHT: 10
G1 F1800 X10.0 Y10.0 Z10.1
G4 P500
G1 F1800 X0.0 Y10.0 Z10.1
G4 P500
G1 F1800 X0.0 Y20.0 Z10.1
G4 P500
G1 F1800 X10.0 Y20.0 Z10.1
G4 P500
G1 F1800 X10.0 Y10.0 Z10.1
G4 P500
; THANK GOD I'M DONE