; HOLY FUCK I HATE MY LIFE
; FLAVOR:Marlin
; Generated with Genuine Passion and a Good Grudge 0.6.8
; PRINT SETTINGS
; offsets: X:10.0 Y:10.0 Z0.1
G28 ; HOME ALL AXIS
; LAYER HEIGHT: 0
; LAYER HEIGHT: 1
G1 F1800 X7.157172441482544 Y12.932517528533936 Z1.1
G4 P500
G1 F1800 X7.1207475662231445 Y12.90045976638794 Z1.1
G4 P500
G1 F1800 X6.776737213134766 Y12.597692728042603 Z1.1
G4 P500
G1 F1800 X6.7354185581207275 Y12.572251796722412 Z1.1
G4 P500
G1 F1800 X6.345188617706299 Y12.331977605819702 Z1.1
G4 P500
G1 F1800 X6.300164699554443 Y12.31388545036316 Z1.1
G4 P500
G1 F1800 X5.874941349029541 Y12.143016815185547 Z1.1
G4 P500
G1 F1800 X5.827507495880127 Y12.13279390335083 Z1.1
G4 P500
G1 F1800 X5.379523754119873 Y12.036246061325073 Z1.1
G4 P500
G1 F1800 X5.331044673919678 Y12.034186601638794 Z1.1
G4 P500
G1 F1800 X4.87318754196167 Y12.014737129211426 Z1.1
G4 P500
G1 F1800 X4.825057506561279 Y12.02090048789978 Z1.1
G4 P500
G1 F1800 X4.370499610900879 Y12.079108715057373 Z1.1
G4 P500
G1 F1800 X4.324103832244873 Y12.09331750869751 Z1.1
G4 P500
G1 F1800 X3.8859214782714844 Y12.227509021759033 Z1.1
G4 P500
G1 F1800 X3.8425941467285156 Y12.249354362487793 Z1.1
G4 P500
G1 F1800 X3.4333934783935547 Y12.455669164657593 Z1.1
G4 P500
G1 F1800 X3.394381046295166 Y12.484522342681885 Z1.1
G4 P500
G1 F1800 X3.0259337425231934 Y12.757024765014648 Z1.1
G4 P500
G1 F1800 X2.992358684539795 Y12.7920560836792 Z1.1
G4 P500
G1 F1800 X2.675264358520508 Y13.122906684875488 Z1.1
G4 P500
G1 F1800 X2.648092746734619 Y13.163108348846436 Z1.1
G4 P500
G1 F1800 X2.3914732933044434 Y13.542789459228516 Z1.1
G4 P500
G1 F1800 X2.3714866638183594 Y13.587004899978638 Z1.1
G4 P500
G1 F1800 X2.1827244758605957 Y14.00459337234497 Z1.1
G4 P500
G1 F1800 X2.1704978942871094 Y14.051550388336182 Z1.1
G4 P500
G1 F1800 X2.0550241470336914 Y14.495032787322998 Z1.1
G4 P500
G1 F1800 X2.0509090423583984 Y14.543381214141846 Z1.1
G4 P500
G1 F1800 X2.0120444297790527 Y15.0 Z1.1
G4 P500
G1 F1800 X2.0161595344543457 Y15.04834794998169 Z1.1
G4 P500
G1 F1800 X2.0550241470336914 Y15.504967212677002 Z1.1
G4 P500
G1 F1800 X2.0672507286071777 Y15.551924228668213 Z1.1
G4 P500
G1 F1800 X2.1827244758605957 Y15.995407104492188 Z1.1
G4 P500
G1 F1800 X2.2027111053466797 Y16.03962230682373 Z1.1
G4 P500
G1 F1800 X2.3914732933044434 Y16.457210540771484 Z1.1
G4 P500
G1 F1800 X2.418644905090332 Y16.49741220474243 Z1.1
G4 P500
G1 F1800 X2.675264358520508 Y16.87709331512451 Z1.1
G4 P500
G1 F1800 X2.708838939666748 Y16.912124633789062 Z1.1
G4 P500
G1 F1800 X3.0259337425231934 Y17.24297523498535 Z1.1
G4 P500
G1 F1800 X3.064945697784424 Y17.271828174591064 Z1.1
G4 P500
G1 F1800 X3.4333934783935547 Y17.544330596923828 Z1.1
G4 P500
G1 F1800 X3.4767208099365234 Y17.566175937652588 Z1.1
G4 P500
G1 F1800 X3.8859214782714844 Y17.77249050140381 Z1.1
G4 P500
G1 F1800 X3.9323177337646484 Y17.786699295043945 Z1.1
G4 P500
G1 F1800 X4.370499610900879 Y17.920891284942627 Z1.1
G4 P500
G1 F1800 X4.4186296463012695 Y17.927054405212402 Z1.1
G4 P500
G1 F1800 X4.87318754196167 Y17.985262870788574 Z1.1
G4 P500
G1 F1800 X4.921666622161865 Y17.983203411102295 Z1.1
G4 P500
G1 F1800 X5.379523754119873 Y17.963754177093506 Z1.1
G4 P500
G1 F1800 X5.426957607269287 Y17.95353126525879 Z1.1
G4 P500
G1 F1800 X5.874941349029541 Y17.85698366165161 Z1.1
G4 P500
G1 F1800 X5.9199652671813965 Y17.83889150619507 Z1.1
G4 P500
G1 F1800 X6.345188617706299 Y17.66802215576172 Z1.1
G4 P500
G1 F1800 X6.386507272720337 Y17.64258098602295 Z1.1
G4 P500
G1 F1800 X6.776737213134766 Y17.40230703353882 Z1.1
G4 P500
G1 F1800 X6.813162088394165 Y17.370249271392822 Z1.1
G4 P500
G1 F1800 X7.157172441482544 Y17.067481994628906 Z1.1
G4 P500
G1 F1800 X7.187655448913574 Y17.02972936630249 Z1.1
G4 P500
G1 F1800 X7.475549697875977 Y16.673179149627686 Z1.1
G4 P500
G1 F1800 X7.499213933944702 Y16.630818367004395 Z1.1
G4 P500
G1 F1800 X7.722709894180298 Y16.23074245452881 Z1.1
G4 P500
G1 F1800 X7.738874912261963 Y16.184991359710693 Z1.1
G4 P500
G1 F1800 X7.891542673110962 Y15.752899169921875 Z1.1
G4 P500
G1 F1800 X7.89974308013916 Y15.705073833465576 Z1.1
G4 P500
G1 F1800 X7.977190971374512 Y15.253396034240723 Z1.1
G4 P500
G1 F1800 X7.978221654891968 Y15.229134559631348 Z1.1
G4 P500
G1 F1800 X7.987955093383789 Y15.0 Z1.1
G4 P500
G1 F1800 X7.986924409866333 Y14.975738525390625 Z1.1
G4 P500
G1 F1800 X7.977190971374512 Y14.746603965759277 Z1.1
G4 P500
G1 F1800 X7.9689905643463135 Y14.698779106140137 Z1.1
G4 P500
G1 F1800 X7.891542673110962 Y14.247100830078125 Z1.1
G4 P500
G1 F1800 X7.875377655029297 Y14.20134973526001 Z1.1
G4 P500
G1 F1800 X7.722709894180298 Y13.769257545471191 Z1.1
G4 P500
G1 F1800 X7.699045658111572 Y13.726896524429321 Z1.1
G4 P500
G1 F1800 X7.475549697875977 Y13.326820373535156 Z1.1
G4 P500
G1 F1800 X7.445066452026367 Y13.28906774520874 Z1.1
G4 P500
G1 F1800 X7.157172441482544 Y12.932517528533936 Z1.1
G4 P500
; LAYER HEIGHT: 2
G1 F1800 X7.872932434082031 Y12.246517181396484 Z2.1
G4 P500
G1 F1800 X7.6822826862335205 Y12.078724384307861 Z2.1
G4 P500
G1 F1800 X7.366267204284668 Y11.80059564113617 Z2.1
G4 P500
G1 F1800 X7.150002717971802 Y11.667436361312866 Z2.1
G4 P500
G1 F1800 X6.7915284633636475 Y11.446715116500854 Z2.1
G4 P500
G1 F1800 X6.555870532989502 Y11.352020025253296 Z2.1
G4 P500
G1 F1800 X6.165251016616821 Y11.195056080818176 Z2.1
G4 P500
G1 F1800 X5.9169793128967285 Y11.141549468040466 Z2.1
G4 P500
G1 F1800 X5.505451202392578 Y11.052858352661133 Z2.1
G4 P500
G1 F1800 X5.251708030700684 Y11.042079448699951 Z2.1
G4 P500
G1 F1800 X4.83111047744751 Y11.024212718009949 Z2.1
G4 P500
G1 F1800 X4.579195499420166 Y11.056471705436707 Z2.1
G4 P500
G1 F1800 X4.161628723144531 Y11.109943270683289 Z2.1
G4 P500
G1 F1800 X3.9187889099121094 Y11.184312105178833 Z2.1
G4 P500
G1 F1800 X3.5162649154663086 Y11.307583689689636 Z2.1
G4 P500
G1 F1800 X3.289486885070801 Y11.42192280292511 Z2.1
G4 P500
G1 F1800 X2.913585662841797 Y11.611448049545288 Z2.1
G4 P500
G1 F1800 X2.70939302444458 Y11.762468218803406 Z2.1
G4 P500
G1 F1800 X2.3709287643432617 Y12.012794971466064 Z2.1
G4 P500
G1 F1800 X2.1951956748962402 Y12.196151733398438 Z2.1
G4 P500
G1 F1800 X1.9039058685302734 Y12.500078439712524 Z2.1
G4 P500
G1 F1800 X1.761688232421875 Y12.710496664047241 Z2.1
G4 P500
G1 F1800 X1.5259513854980469 Y13.059279918670654 Z2.1
G4 P500
G1 F1800 X1.421339988708496 Y13.290706634521484 Z2.1
G4 P500
G1 F1800 X1.247939109802246 Y13.674312591552734 Z2.1
G4 P500
G1 F1800 X1.183943748474121 Y13.920089721679688 Z2.1
G4 P500
G1 F1800 X1.0778675079345703 Y14.3274827003479 Z2.1
G4 P500
G1 F1800 X1.0563287734985352 Y14.58053970336914 Z2.1
G4 P500
G1 F1800 X1.0206270217895508 Y15.0 Z2.1
G4 P500
G1 F1800 X1.042165756225586 Y15.25305700302124 Z2.1
G4 P500
G1 F1800 X1.0778675079345703 Y15.6725172996521 Z2.1
G4 P500
G1 F1800 X1.141861915588379 Y15.918293952941895 Z2.1
G4 P500
G1 F1800 X1.247939109802246 Y16.325687408447266 Z2.1
G4 P500
G1 F1800 X1.3525505065917969 Y16.557114124298096 Z2.1
G4 P500
G1 F1800 X1.5259513854980469 Y16.940720081329346 Z2.1
G4 P500
G1 F1800 X1.6681690216064453 Y17.151138305664062 Z2.1
G4 P500
G1 F1800 X1.9039058685302734 Y17.499921321868896 Z2.1
G4 P500
G1 F1800 X2.079638957977295 Y17.68327808380127 Z2.1
G4 P500
G1 F1800 X2.3709287643432617 Y17.987204551696777 Z2.1
G4 P500
G1 F1800 X2.5751214027404785 Y18.138224601745605 Z2.1
G4 P500
G1 F1800 X2.913585662841797 Y18.38855266571045 Z2.1
G4 P500
G1 F1800 X3.1403636932373047 Y18.502891540527344 Z2.1
G4 P500
G1 F1800 X3.5162649154663086 Y18.69241714477539 Z2.1
G4 P500
G1 F1800 X3.7591047286987305 Y18.766785621643066 Z2.1
G4 P500
G1 F1800 X4.161628723144531 Y18.890056610107422 Z2.1
G4 P500
G1 F1800 X4.413543701171875 Y18.92231559753418 Z2.1
G4 P500
G1 F1800 X4.83111047744751 Y18.975788116455078 Z2.1
G4 P500
G1 F1800 X5.084853649139404 Y18.96500873565674 Z2.1
G4 P500
G1 F1800 X5.505451202392578 Y18.947141647338867 Z2.1
G4 P500
G1 F1800 X5.75372314453125 Y18.893634796142578 Z2.1
G4 P500
G1 F1800 X6.165251016616821 Y18.804944038391113 Z2.1
G4 P500
G1 F1800 X6.400908946990967 Y18.710248947143555 Z2.1
G4 P500
G1 F1800 X6.7915284633636475 Y18.553284645080566 Z2.1
G4 P500
G1 F1800 X7.007792949676514 Y18.420125007629395 Z2.1
G4 P500
G1 F1800 X7.366267204284668 Y18.1994047164917 Z2.1
G4 P500
G1 F1800 X7.556916952133179 Y18.031611442565918 Z2.1
G4 P500
G1 F1800 X7.872932434082031 Y17.753482341766357 Z2.1
G4 P500
G1 F1800 X8.032482743263245 Y17.555883407592773 Z2.1
G4 P500
G1 F1800 X8.296948790550232 Y17.22834873199463 Z2.1
G4 P500
G1 F1800 X8.420809626579285 Y17.006627082824707 Z2.1
G4 P500
G1 F1800 X8.626117944717407 Y16.639108657836914 Z2.1
G4 P500
G1 F1800 X8.710726141929626 Y16.399644374847412 Z2.1
G4 P500
G1 F1800 X8.850970149040222 Y16.00271463394165 Z2.1
G4 P500
G1 F1800 X8.89389157295227 Y15.75239610671997 Z2.1
G4 P500
G1 F1800 X8.965037107467651 Y15.337474346160889 Z2.1
G4 P500
G1 F1800 X8.970431327819824 Y15.210488319396973 Z2.1
G4 P500
G1 F1800 X8.97937273979187 Y15.0 Z2.1
G4 P500
G1 F1800 X8.973978519439697 Y14.873013973236084 Z2.1
G4 P500
G1 F1800 X8.965037107467651 Y14.662525653839111 Z2.1
G4 P500
G1 F1800 X8.922115564346313 Y14.412206649780273 Z2.1
G4 P500
G1 F1800 X8.850970149040222 Y13.99728536605835 Z2.1
G4 P500
G1 F1800 X8.766361951828003 Y13.757820844650269 Z2.1
G4 P500
G1 F1800 X8.626117944717407 Y13.360891342163086 Z2.1
G4 P500
G1 F1800 X8.502257108688354 Y13.139170169830322 Z2.1
G4 P500
G1 F1800 X8.296948790550232 Y12.77165174484253 Z2.1
G4 P500
G1 F1800 X8.137398481369019 Y12.574052333831787 Z2.1
G4 P500
G1 F1800 X7.872932434082031 Y12.246517181396484 Z2.1
G4 P500
; LAYER HEIGHT: 3
G1 F1800 X8.307841777801514 Y11.82969057559967 Z3.1
G4 P500
G1 F1800 X8.31344723701477 Y11.83663284778595 Z3.1
G4 P500
G1 F1800 X8.796046257019043 Y12.434320449829102 Z3.1
G4 P500
G1 F1800 X8.800397872924805 Y12.442110061645508 Z3.1
G4 P500
G1 F1800 X9.175045609474182 Y13.112760305404663 Z3.1
G4 P500
G1 F1800 X9.178018152713776 Y13.121173620223999 Z3.1
G4 P500
G1 F1800 X9.433936417102814 Y13.845492601394653 Z3.1
G4 P500
G1 F1800 X9.435444414615631 Y13.854287147521973 Z3.1
G4 P500
G1 F1800 X9.565270960330963 Y14.611437797546387 Z3.1
G4 P500
G1 F1800 X9.565460503101349 Y14.615899562835693 Z3.1
G4 P500
G1 F1800 X9.581776857376099 Y15.0 Z3.1
G4 P500
G1 F1800 X9.581587344408035 Y15.004461288452148 Z3.1
G4 P500
G1 F1800 X9.565270960330963 Y15.388562202453613 Z3.1
G4 P500
G1 F1800 X9.563762992620468 Y15.397356510162354 Z3.1
G4 P500
G1 F1800 X9.433936417102814 Y16.154507160186768 Z3.1
G4 P500
G1 F1800 X9.43096387386322 Y16.162920475006104 Z3.1
G4 P500
G1 F1800 X9.175045609474182 Y16.887239456176758 Z3.1
G4 P500
G1 F1800 X9.17069399356842 Y16.895029067993164 Z3.1
G4 P500
G1 F1800 X8.796046257019043 Y17.5656795501709 Z3.1
G4 P500
G1 F1800 X8.790440797805786 Y17.572621822357178 Z3.1
G4 P500
G1 F1800 X8.307841777801514 Y18.170310020446777 Z3.1
G4 P500
G1 F1800 X8.301143646240234 Y18.176204681396484 Z3.1
G4 P500
G1 F1800 X7.724476337432861 Y18.683734893798828 Z3.1
G4 P500
G1 F1800 X7.716878414154053 Y18.688413619995117 Z3.1
G4 P500
G1 F1800 X7.062732934951782 Y19.091187477111816 Z3.1
G4 P500
G1 F1800 X7.054453611373901 Y19.09451389312744 Z3.1
G4 P500
G1 F1800 X6.341648578643799 Y19.380942344665527 Z3.1
G4 P500
G1 F1800 X6.332926034927368 Y19.382822036743164 Z3.1
G4 P500
G1 F1800 X5.581967353820801 Y19.544666290283203 Z3.1
G4 P500
G1 F1800 X5.573052406311035 Y19.545044898986816 Z3.1
G4 P500
G1 F1800 X4.805543899536133 Y19.577649116516113 Z3.1
G4 P500
G1 F1800 X4.796693325042725 Y19.576515197753906 Z3.1
G4 P500
G1 F1800 X4.034714698791504 Y19.4789400100708 Z3.1
G4 P500
G1 F1800 X4.026183128356934 Y19.476326942443848 Z3.1
G4 P500
G1 F1800 X3.291654586791992 Y19.251380920410156 Z3.1
G4 P500
G1 F1800 X3.283687114715576 Y19.247363090515137 Z3.1
G4 P500
G1 F1800 X2.59774112701416 Y18.901516914367676 Z3.1
G4 P500
G1 F1800 X2.590567111968994 Y18.89621067047119 Z3.1
G4 P500
G1 F1800 X1.972935676574707 Y18.43941307067871 Z3.1
G4 P500
G1 F1800 X1.966761589050293 Y18.432971000671387 Z3.1
G4 P500
G1 F1800 X1.4352140426635742 Y17.878363609313965 Z3.1
G4 P500
G1 F1800 X1.4302167892456055 Y17.870971202850342 Z3.1
G4 P500
G1 F1800 X1.0000438690185547 Y17.234509468078613 Z3.1
G4 P500
G1 F1800 X0.996368408203125 Y17.226378440856934 Z3.1
G4 P500
G1 F1800 X0.6799459457397461 Y16.526371955871582 Z3.1
G4 P500
G1 F1800 X0.6776971817016602 Y16.51773691177368 Z3.1
G4 P500
G1 F1800 X0.4841279983520508 Y15.7743239402771 Z3.1
G4 P500
G1 F1800 X0.4833717346191406 Y15.765433311462402 Z3.1
G4 P500
G1 F1800 X0.41822242736816406 Y15.0 Z3.1
G4 P500
G1 F1800 X0.4189796447753906 Y14.991109371185303 Z3.1
G4 P500
G1 F1800 X0.4841279983520508 Y14.2256760597229 Z3.1
G4 P500
G1 F1800 X0.4863767623901367 Y14.217041015625 Z3.1
G4 P500
G1 F1800 X0.6799459457397461 Y13.473627805709839 Z3.1
G4 P500
G1 F1800 X0.6836214065551758 Y13.465497016906738 Z3.1
G4 P500
G1 F1800 X1.0000438690185547 Y12.765490531921387 Z3.1
G4 P500
G1 F1800 X1.005040168762207 Y12.758097887039185 Z3.1
G4 P500
G1 F1800 X1.4352140426635742 Y12.121636152267456 Z3.1
G4 P500
G1 F1800 X1.4413881301879883 Y12.115194082260132 Z3.1
G4 P500
G1 F1800 X1.972935676574707 Y11.560587048530579 Z3.1
G4 P500
G1 F1800 X1.9801092147827148 Y11.555281281471252 Z3.1
G4 P500
G1 F1800 X2.59774112701416 Y11.098483562469482 Z3.1
G4 P500
G1 F1800 X2.605708599090576 Y11.0944664478302 Z3.1
G4 P500
G1 F1800 X3.291654586791992 Y10.748619496822357 Z3.1
G4 P500
G1 F1800 X3.3001866340637207 Y10.746006727218628 Z3.1
G4 P500
G1 F1800 X4.034714698791504 Y10.5210599899292 Z3.1
G4 P500
G1 F1800 X4.043565273284912 Y10.51992666721344 Z3.1
G4 P500
G1 F1800 X4.805543899536133 Y10.422351479530334 Z3.1
G4 P500
G1 F1800 X4.814458847045898 Y10.422730177640915 Z3.1
G4 P500
G1 F1800 X5.581967353820801 Y10.455333530902863 Z3.1
G4 P500
G1 F1800 X5.5906901359558105 Y10.457213371992111 Z3.1
G4 P500
G1 F1800 X6.341648578643799 Y10.619057416915894 Z3.1
G4 P500
G1 F1800 X6.349928140640259 Y10.622384309768677 Z3.1
G4 P500
G1 F1800 X7.062732934951782 Y10.908812940120697 Z3.1
G4 P500
G1 F1800 X7.07033109664917 Y10.913491308689117 Z3.1
G4 P500
G1 F1800 X7.724476337432861 Y11.316264510154724 Z3.1
G4 P500
G1 F1800 X7.731174468994141 Y11.32215964794159 Z3.1
G4 P500
G1 F1800 X8.307841777801514 Y11.82969057559967 Z3.1
G4 P500
; LAYER HEIGHT: 4
G1 F1800 X8.526721119880676 Y11.619911670684814 Z4.1
G4 P500
G1 F1800 X8.674968600273132 Y11.803512811660767 Z4.1
G4 P500
G1 F1800 X9.047230064868927 Y12.264549970626831 Z4.1
G4 P500
G1 F1800 X9.16231644153595 Y12.470564126968384 Z4.1
G4 P500
G1 F1800 X9.451307654380798 Y12.987882137298584 Z4.1
G4 P500
G1 F1800 X9.529922097921371 Y13.210382461547852 Z4.1
G4 P500
G1 F1800 X9.727329224348068 Y13.769099235534668 Z4.1
G4 P500
G1 F1800 X9.767210096120834 Y14.00168514251709 Z4.1
G4 P500
G1 F1800 X9.867354154586792 Y14.585727214813232 Z4.1
G4 P500
G1 F1800 X9.872366324067116 Y14.703717231750488 Z4.1
G4 P500
G1 F1800 X9.884952262043953 Y15.0 Z4.1
G4 P500
G1 F1800 X9.87994010001421 Y15.117990016937256 Z4.1
G4 P500
G1 F1800 X9.867354154586792 Y15.414272785186768 Z4.1
G4 P500
G1 F1800 X9.827473297715187 Y15.646859169006348 Z4.1
G4 P500
G1 F1800 X9.727329224348068 Y16.230900764465332 Z4.1
G4 P500
G1 F1800 X9.648714810609818 Y16.4534010887146 Z4.1
G4 P500
G1 F1800 X9.451307654380798 Y17.012117862701416 Z4.1
G4 P500
G1 F1800 X9.336221277713776 Y17.21813201904297 Z4.1
G4 P500
G1 F1800 X9.047230064868927 Y17.735450267791748 Z4.1
G4 P500
G1 F1800 X8.898982524871826 Y17.91905117034912 Z4.1
G4 P500
G1 F1800 X8.526721119880676 Y18.380087852478027 Z4.1
G4 P500
G1 F1800 X8.349577188491821 Y18.53599452972412 Z4.1
G4 P500
G1 F1800 X7.904754638671875 Y18.92748737335205 Z4.1
G4 P500
G1 F1800 X7.703810691833496 Y19.05121421813965 Z4.1
G4 P500
G1 F1800 X7.199223756790161 Y19.361899375915527 Z4.1
G4 P500
G1 F1800 X6.980260372161865 Y19.449886322021484 Z4.1
G4 P500
G1 F1800 X6.430425405502319 Y19.670828819274902 Z4.1
G4 P500
G1 F1800 X6.19974160194397 Y19.720544815063477 Z4.1
G4 P500
G1 F1800 X5.620475769042969 Y19.845386505126953 Z4.1
G4 P500
G1 F1800 X5.384708404541016 Y19.85540199279785 Z4.1
G4 P500
G1 F1800 X4.7926764488220215 Y19.8805513381958 Z4.1
G4 P500
G1 F1800 X4.558607578277588 Y19.850577354431152 Z4.1
G4 P500
G1 F1800 X3.970841884613037 Y19.775310516357422 Z4.1
G4 P500
G1 F1800 X3.7452054023742676 Y19.706210136413574 Z4.1
G4 P500
G1 F1800 X3.1786141395568848 Y19.53269386291504 Z4.1
G4 P500
G1 F1800 X2.9679012298583984 Y19.426454544067383 Z4.1
G4 P500
G1 F1800 X2.438784122467041 Y19.159679412841797 Z4.1
G4 P500
G1 F1800 X2.249056339263916 Y19.019357681274414 Z4.1
G4 P500
G1 F1800 X1.7726354598999023 Y18.6669979095459 Z4.1
G4 P500
G1 F1800 X1.6093511581420898 Y18.496630668640137 Z4.1
G4 P500
G1 F1800 X1.1993322372436523 Y18.068824768066406 Z4.1
G4 P500
G1 F1800 X1.0671892166137695 Y17.87331247329712 Z4.1
G4 P500
G1 F1800 X0.7353677749633789 Y17.38236665725708 Z4.1
G4 P500
G1 F1800 X0.6381673812866211 Y17.16733455657959 Z4.1
G4 P500
G1 F1800 X0.3940887451171875 Y16.627371788024902 Z4.1
G4 P500
G1 F1800 X0.3346271514892578 Y16.399005889892578 Z4.1
G4 P500
G1 F1800 X0.18531322479248047 Y15.825561046600342 Z4.1
G4 P500
G1 F1800 X0.1653003692626953 Y15.590430736541748 Z4.1
G4 P500
G1 F1800 X0.11504745483398438 Y15.0 Z4.1
G4 P500
G1 F1800 X0.13506031036376953 Y14.764869689941406 Z4.1
G4 P500
G1 F1800 X0.18531322479248047 Y14.174438953399658 Z4.1
G4 P500
G1 F1800 X0.24477481842041016 Y13.946073293685913 Z4.1
G4 P500
G1 F1800 X0.3940887451171875 Y13.372627973556519 Z4.1
G4 P500
G1 F1800 X0.4912891387939453 Y13.157596111297607 Z4.1
G4 P500
G1 F1800 X0.7353677749633789 Y12.617633581161499 Z4.1
G4 P500
G1 F1800 X0.8675107955932617 Y12.422121524810791 Z4.1
G4 P500
G1 F1800 X1.1993322372436523 Y11.931175351142883 Z4.1
G4 P500
G1 F1800 X1.3626165390014648 Y11.760807871818542 Z4.1
G4 P500
G1 F1800 X1.7726354598999023 Y11.333001613616943 Z4.1
G4 P500
G1 F1800 X1.9623632431030273 Y11.19267988204956 Z4.1
G4 P500
G1 F1800 X2.438784122467041 Y10.840320825576782 Z4.1
G4 P500
G1 F1800 X2.6494970321655273 Y10.734081625938416 Z4.1
G4 P500
G1 F1800 X3.1786141395568848 Y10.467306435108185 Z4.1
G4 P500
G1 F1800 X3.4042506217956543 Y10.398206025362015 Z4.1
G4 P500
G1 F1800 X3.970841884613037 Y10.224689334630966 Z4.1
G4 P500
G1 F1800 X4.204910755157471 Y10.19471561908722 Z4.1
G4 P500
G1 F1800 X4.7926764488220215 Y10.119449242949486 Z4.1
G4 P500
G1 F1800 X5.028444290161133 Y10.129464536905289 Z4.1
G4 P500
G1 F1800 X5.620475769042969 Y10.154613733291626 Z4.1
G4 P500
G1 F1800 X5.851159572601318 Y10.204329878091812 Z4.1
G4 P500
G1 F1800 X6.430425405502319 Y10.329171150922775 Z4.1
G4 P500
G1 F1800 X6.649388790130615 Y10.41715794801712 Z4.1
G4 P500
G1 F1800 X7.199223756790161 Y10.638099789619446 Z4.1
G4 P500
G1 F1800 X7.400167942047119 Y10.761825978755951 Z4.1
G4 P500
G1 F1800 X7.904754638671875 Y11.07251238822937 Z4.1
G4 P500
G1 F1800 X8.08189857006073 Y11.228418588638306 Z4.1
G4 P500
G1 F1800 X8.526721119880676 Y11.619911670684814 Z4.1
G4 P500
; LAYER HEIGHT: 5
G1 F1800 X8.597451210021973 Y11.552122235298157 Z5.1
G4 P500
G1 F1800 X8.28023111820221 Y11.27293348312378 Z5.1
G4 P500
G1 F1800 X7.963011026382446 Y10.993744611740112 Z5.1
G4 P500
G1 F1800 X7.60317063331604 Y10.77218210697174 Z5.1
G4 P500
G1 F1800 X7.243330240249634 Y10.550619661808014 Z5.1
G4 P500
G1 F1800 X6.851221561431885 Y10.393057465553284 Z5.1
G4 P500
G1 F1800 X6.459113121032715 Y10.235495299100876 Z5.1
G4 P500
G1 F1800 X6.046016454696655 Y10.146466165781021 Z5.1
G4 P500
G1 F1800 X5.632919788360596 Y10.057437039911747 Z5.1
G4 P500
G1 F1800 X5.210719108581543 Y10.039502181112766 Z5.1
G4 P500
G1 F1800 X4.788518905639648 Y10.02156731672585 Z5.1
G4 P500
G1 F1800 X4.369359970092773 Y10.075242675840855 Z5.1
G4 P500
G1 F1800 X3.9502015113830566 Y10.128918036818504 Z5.1
G4 P500
G1 F1800 X3.5461435317993164 Y10.25265946984291 Z5.1
G4 P500
G1 F1800 X3.142085075378418 Y10.376400917768478 Z5.1
G4 P500
G1 F1800 X2.764751434326172 Y10.566648602485657 Z5.1
G4 P500
G1 F1800 X2.3874173164367676 Y10.756896317005157 Z5.1
G4 P500
G1 F1800 X2.0476627349853516 Y11.008177161216736 Z5.1
G4 P500
G1 F1800 X1.7079086303710938 Y11.259458065032959 Z5.1
G4 P500
G1 F1800 X1.4155082702636719 Y11.5645432472229 Z5.1
G4 P500
G1 F1800 X1.12310791015625 Y11.869628429412842 Z5.1
G4 P500
G1 F1800 X0.8864727020263672 Y12.219741344451904 Z5.1
G4 P500
G1 F1800 X0.6498384475708008 Y12.569854021072388 Z5.1
G4 P500
G1 F1800 X0.47577667236328125 Y12.954922199249268 Z5.1
G4 P500
G1 F1800 X0.3017148971557617 Y13.339990139007568 Z5.1
G4 P500
G1 F1800 X0.1952342987060547 Y13.748936176300049 Z5.1
G4 P500
G1 F1800 X0.08875274658203125 Y14.15788221359253 Z5.1
G4 P500
G1 F1800 X0.05291557312011719 Y14.578941345214844 Z5.1
G4 P500
G1 F1800 X0.01707744598388672 Y15.0 Z5.1
G4 P500
G1 F1800 X0.05291557312011719 Y15.421058654785156 Z5.1
G4 P500
G1 F1800 X0.08875274658203125 Y15.84211778640747 Z5.1
G4 P500
G1 F1800 X0.1952342987060547 Y16.25106382369995 Z5.1
G4 P500
G1 F1800 X0.3017148971557617 Y16.66000986099243 Z5.1
G4 P500
G1 F1800 X0.47577667236328125 Y17.04507827758789 Z5.1
G4 P500
G1 F1800 X0.6498384475708008 Y17.43014621734619 Z5.1
G4 P500
G1 F1800 X0.8864727020263672 Y17.780258655548096 Z5.1
G4 P500
G1 F1800 X1.12310791015625 Y18.13037109375 Z5.1
G4 P500
G1 F1800 X1.4155082702636719 Y18.43545627593994 Z5.1
G4 P500
G1 F1800 X1.7079086303710938 Y18.740541458129883 Z5.1
G4 P500
G1 F1800 X2.0476627349853516 Y18.991823196411133 Z5.1
G4 P500
G1 F1800 X2.3874173164367676 Y19.243103981018066 Z5.1
G4 P500
G1 F1800 X2.764751434326172 Y19.433351516723633 Z5.1
G4 P500
G1 F1800 X3.142085075378418 Y19.6235990524292 Z5.1
G4 P500
G1 F1800 X3.5461435317993164 Y19.74734115600586 Z5.1
G4 P500
G1 F1800 X3.9502015113830566 Y19.871082305908203 Z5.1
G4 P500
G1 F1800 X4.369359970092773 Y19.92475700378418 Z5.1
G4 P500
G1 F1800 X4.788518905639648 Y19.978432655334473 Z5.1
G4 P500
G1 F1800 X5.210719108581543 Y19.960497856140137 Z5.1
G4 P500
G1 F1800 X5.632919788360596 Y19.9425630569458 Z5.1
G4 P500
G1 F1800 X6.046016454696655 Y19.85353374481201 Z5.1
G4 P500
G1 F1800 X6.459113121032715 Y19.764504432678223 Z5.1
G4 P500
G1 F1800 X6.851221561431885 Y19.606942176818848 Z5.1
G4 P500
G1 F1800 X7.243330240249634 Y19.449379920959473 Z5.1
G4 P500
G1 F1800 X7.60317063331604 Y19.22781753540039 Z5.1
G4 P500
G1 F1800 X7.963011026382446 Y19.00625514984131 Z5.1
G4 P500
G1 F1800 X8.28023111820221 Y18.727066040039062 Z5.1
G4 P500
G1 F1800 X8.597451210021973 Y18.447877883911133 Z5.1
G4 P500
G1 F1800 X8.862925291061401 Y18.119094848632812 Z5.1
G4 P500
G1 F1800 X9.12839937210083 Y17.790310859680176 Z5.1
G4 P500
G1 F1800 X9.334490180015564 Y17.421391487121582 Z5.1
G4 P500
G1 F1800 X9.540580928325653 Y17.05247211456299 Z5.1
G4 P500
G1 F1800 X9.681359589099884 Y16.654029846191406 Z5.1
G4 P500
G1 F1800 X9.822138234972954 Y16.255587100982666 Z5.1
G4 P500
G1 F1800 X9.893554829061031 Y15.839084148406982 Z5.1
G4 P500
G1 F1800 X9.96497143059969 Y15.422581195831299 Z5.1
G4 P500
G1 F1800 X9.973946947604418 Y15.21129035949707 Z5.1
G4 P500
G1 F1800 X9.982922464609146 Y15.0 Z5.1
G4 P500
G1 F1800 X9.973946947604418 Y14.78870964050293 Z5.1
G4 P500
G1 F1800 X9.96497143059969 Y14.577418804168701 Z5.1
G4 P500
G1 F1800 X9.893554836511612 Y14.160915851593018 Z5.1
G4 P500
G1 F1800 X9.822138234972954 Y13.744412899017334 Z5.1
G4 P500
G1 F1800 X9.681359589099884 Y13.345970630645752 Z5.1
G4 P500
G1 F1800 X9.540580928325653 Y12.94752812385559 Z5.1
G4 P500
G1 F1800 X9.334490180015564 Y12.578608512878418 Z5.1
G4 P500
G1 F1800 X9.12839937210083 Y12.209689140319824 Z5.1
G4 P500
G1 F1800 X8.862925291061401 Y11.880905628204346 Z5.1
G4 P500
G1 F1800 X8.597451210021973 Y11.552122235298157 Z5.1
G4 P500
; LAYER HEIGHT: 6
G1 F1800 X8.526721000671387 Y11.619911670684814 Z6.1
G4 P500
G1 F1800 X8.349577188491821 Y11.464005470275879 Z6.1
G4 P500
G1 F1800 X7.904754638671875 Y11.07251238822937 Z6.1
G4 P500
G1 F1800 X7.703810691833496 Y10.94878625869751 Z6.1
G4 P500
G1 F1800 X7.199223756790161 Y10.638099789619446 Z6.1
G4 P500
G1 F1800 X6.980260372161865 Y10.550113081932068 Z6.1
G4 P500
G1 F1800 X6.430425405502319 Y10.329171180725098 Z6.1
G4 P500
G1 F1800 X6.19974160194397 Y10.279455006122589 Z6.1
G4 P500
G1 F1800 X5.620475769042969 Y10.154613733291626 Z6.1
G4 P500
G1 F1800 X5.384708404541016 Y10.144598454236984 Z6.1
G4 P500
G1 F1800 X4.7926764488220215 Y10.119449250400066 Z6.1
G4 P500
G1 F1800 X4.558607578277588 Y10.149422943592072 Z6.1
G4 P500
G1 F1800 X3.970841884613037 Y10.224689334630966 Z6.1
G4 P500
G1 F1800 X3.7452054023742676 Y10.293789744377136 Z6.1
G4 P500
G1 F1800 X3.1786141395568848 Y10.467306435108185 Z6.1
G4 P500
G1 F1800 X2.9679012298583984 Y10.573545634746552 Z6.1
G4 P500
G1 F1800 X2.438784122467041 Y10.840320825576782 Z6.1
G4 P500
G1 F1800 X2.249056339263916 Y10.980642557144165 Z6.1
G4 P500
G1 F1800 X1.7726354598999023 Y11.333001613616943 Z6.1
G4 P500
G1 F1800 X1.6093511581420898 Y11.503369092941284 Z6.1
G4 P500
G1 F1800 X1.1993322372436523 Y11.931175351142883 Z6.1
G4 P500
G1 F1800 X1.067190170288086 Y12.126687288284302 Z6.1
G4 P500
G1 F1800 X0.7353677749633789 Y12.617633581161499 Z6.1
G4 P500
G1 F1800 X0.6381673812866211 Y12.83266544342041 Z6.1
G4 P500
G1 F1800 X0.3940887451171875 Y13.372627973556519 Z6.1
G4 P500
G1 F1800 X0.3346271514892578 Y13.600994110107422 Z6.1
G4 P500
G1 F1800 X0.18531322479248047 Y14.174438953399658 Z6.1
G4 P500
G1 F1800 X0.1653003692626953 Y14.409569263458252 Z6.1
G4 P500
G1 F1800 X0.11504745483398438 Y15.0 Z6.1
G4 P500
G1 F1800 X0.13506031036376953 Y15.235130310058594 Z6.1
G4 P500
G1 F1800 X0.18531322479248047 Y15.825561046600342 Z6.1
G4 P500
G1 F1800 X0.24477481842041016 Y16.053926944732666 Z6.1
G4 P500
G1 F1800 X0.3940887451171875 Y16.627371788024902 Z6.1
G4 P500
G1 F1800 X0.4912891387939453 Y16.842403888702393 Z6.1
G4 P500
G1 F1800 X0.7353677749633789 Y17.38236665725708 Z6.1
G4 P500
G1 F1800 X0.8675107955932617 Y17.57787847518921 Z6.1
G4 P500
G1 F1800 X1.1993322372436523 Y18.068824768066406 Z6.1
G4 P500
G1 F1800 X1.3626165390014648 Y18.239192008972168 Z6.1
G4 P500
G1 F1800 X1.7726354598999023 Y18.6669979095459 Z6.1
G4 P500
G1 F1800 X1.962362289428711 Y18.807320594787598 Z6.1
G4 P500
G1 F1800 X2.438784122467041 Y19.159679412841797 Z6.1
G4 P500
G1 F1800 X2.6494970321655273 Y19.265918731689453 Z6.1
G4 P500
G1 F1800 X3.1786141395568848 Y19.53269386291504 Z6.1
G4 P500
G1 F1800 X3.4042506217956543 Y19.601794242858887 Z6.1
G4 P500
G1 F1800 X3.970841884613037 Y19.775310516357422 Z6.1
G4 P500
G1 F1800 X4.204910755157471 Y19.80528450012207 Z6.1
G4 P500
G1 F1800 X4.7926764488220215 Y19.8805513381958 Z6.1
G4 P500
G1 F1800 X5.028444290161133 Y19.870535850524902 Z6.1
G4 P500
G1 F1800 X5.620475769042969 Y19.845386505126953 Z6.1
G4 P500
G1 F1800 X5.851159572601318 Y19.79567050933838 Z6.1
G4 P500
G1 F1800 X6.430425405502319 Y19.670828819274902 Z6.1
G4 P500
G1 F1800 X6.649388790130615 Y19.582841873168945 Z6.1
G4 P500
G1 F1800 X7.199223756790161 Y19.361899375915527 Z6.1
G4 P500
G1 F1800 X7.400167942047119 Y19.238173484802246 Z6.1
G4 P500
G1 F1800 X7.904754638671875 Y18.92748737335205 Z6.1
G4 P500
G1 F1800 X8.08189857006073 Y18.771581649780273 Z6.1
G4 P500
G1 F1800 X8.526721000671387 Y18.380087852478027 Z6.1
G4 P500
G1 F1800 X8.674968600273132 Y18.196487426757812 Z6.1
G4 P500
G1 F1800 X9.047230064868927 Y17.735450267791748 Z6.1
G4 P500
G1 F1800 X9.16231644153595 Y17.529436111450195 Z6.1
G4 P500
G1 F1800 X9.451307654380798 Y17.012117862701416 Z6.1
G4 P500
G1 F1800 X9.529922068119049 Y16.78961753845215 Z6.1
G4 P500
G1 F1800 X9.727329224348068 Y16.230900764465332 Z6.1
G4 P500
G1 F1800 X9.767210096120834 Y15.99831485748291 Z6.1
G4 P500
G1 F1800 X9.867354169487953 Y15.414272785186768 Z6.1
G4 P500
G1 F1800 X9.872366309165955 Y15.296282768249512 Z6.1
G4 P500
G1 F1800 X9.884952254593372 Y15.0 Z6.1
G4 P500
G1 F1800 X9.87994009256363 Y14.882009983062744 Z6.1
G4 P500
G1 F1800 X9.867354169487953 Y14.585727214813232 Z6.1
G4 P500
G1 F1800 X9.827473297715187 Y14.353140830993652 Z6.1
G4 P500
G1 F1800 X9.727329224348068 Y13.769099235534668 Z6.1
G4 P500
G1 F1800 X9.648714810609818 Y13.546598672866821 Z6.1
G4 P500
G1 F1800 X9.451307654380798 Y12.987882137298584 Z6.1
G4 P500
G1 F1800 X9.336221277713776 Y12.781867980957031 Z6.1
G4 P500
G1 F1800 X9.047230064868927 Y12.264549970626831 Z6.1
G4 P500
G1 F1800 X8.898982524871826 Y12.080948829650879 Z6.1
G4 P500
G1 F1800 X8.526721000671387 Y11.619911670684814 Z6.1
G4 P500
; LAYER HEIGHT: 7
G1 F1800 X8.307841777801514 Y11.82969057559967 Z7.1
G4 P500
G1 F1800 X8.301143646240234 Y11.823795557022095 Z7.1
G4 P500
G1 F1800 X7.724476337432861 Y11.316264510154724 Z7.1
G4 P500
G1 F1800 X7.716878414154053 Y11.311586260795593 Z7.1
G4 P500
G1 F1800 X7.062732934951782 Y10.908812999725342 Z7.1
G4 P500
G1 F1800 X7.054453611373901 Y10.905486106872559 Z7.1
G4 P500
G1 F1800 X6.341648578643799 Y10.619057416915894 Z7.1
G4 P500
G1 F1800 X6.332926034927368 Y10.617177546024323 Z7.1
G4 P500
G1 F1800 X5.581967353820801 Y10.455333530902863 Z7.1
G4 P500
G1 F1800 X5.573052406311035 Y10.454954832792282 Z7.1
G4 P500
G1 F1800 X4.805543899536133 Y10.422351479530334 Z7.1
G4 P500
G1 F1800 X4.796693325042725 Y10.423484861850739 Z7.1
G4 P500
G1 F1800 X4.034714698791504 Y10.5210599899292 Z7.1
G4 P500
G1 F1800 X4.026183128356934 Y10.523672819137573 Z7.1
G4 P500
G1 F1800 X3.291654586791992 Y10.748619556427002 Z7.1
G4 P500
G1 F1800 X3.2836875915527344 Y10.75263661146164 Z7.1
G4 P500
G1 F1800 X2.59774112701416 Y11.098483562469482 Z7.1
G4 P500
G1 F1800 X2.590567111968994 Y11.103789329528809 Z7.1
G4 P500
G1 F1800 X1.972935676574707 Y11.560587048530579 Z7.1
G4 P500
G1 F1800 X1.966761589050293 Y11.567028999328613 Z7.1
G4 P500
G1 F1800 X1.4352140426635742 Y12.121636152267456 Z7.1
G4 P500
G1 F1800 X1.4302177429199219 Y12.129028797149658 Z7.1
G4 P500
G1 F1800 X1.0000438690185547 Y12.765490531921387 Z7.1
G4 P500
G1 F1800 X0.996368408203125 Y12.773621320724487 Z7.1
G4 P500
G1 F1800 X0.6799459457397461 Y13.473627805709839 Z7.1
G4 P500
G1 F1800 X0.6776971817016602 Y13.48226261138916 Z7.1
G4 P500
G1 F1800 X0.4841279983520508 Y14.2256760597229 Z7.1
G4 P500
G1 F1800 X0.4833717346191406 Y14.234566688537598 Z7.1
G4 P500
G1 F1800 X0.41822242736816406 Y15.0 Z7.1
G4 P500
G1 F1800 X0.4189796447753906 Y15.008890628814697 Z7.1
G4 P500
G1 F1800 X0.4841279983520508 Y15.7743239402771 Z7.1
G4 P500
G1 F1800 X0.4863767623901367 Y15.782958984375 Z7.1
G4 P500
G1 F1800 X0.6799459457397461 Y16.526371955871582 Z7.1
G4 P500
G1 F1800 X0.6836214065551758 Y16.53450298309326 Z7.1
G4 P500
G1 F1800 X1.0000438690185547 Y17.234509468078613 Z7.1
G4 P500
G1 F1800 X1.005040168762207 Y17.241901874542236 Z7.1
G4 P500
G1 F1800 X1.4352140426635742 Y17.878363609313965 Z7.1
G4 P500
G1 F1800 X1.4413881301879883 Y17.88480567932129 Z7.1
G4 P500
G1 F1800 X1.972935676574707 Y18.43941307067871 Z7.1
G4 P500
G1 F1800 X1.9801092147827148 Y18.44471836090088 Z7.1
G4 P500
G1 F1800 X2.59774112701416 Y18.901516914367676 Z7.1
G4 P500
G1 F1800 X2.605708599090576 Y18.90553379058838 Z7.1
G4 P500
G1 F1800 X3.291654586791992 Y19.251380920410156 Z7.1
G4 P500
G1 F1800 X3.3001866340637207 Y19.253993034362793 Z7.1
G4 P500
G1 F1800 X4.034714698791504 Y19.4789400100708 Z7.1
G4 P500
G1 F1800 X4.043565273284912 Y19.480073928833008 Z7.1
G4 P500
G1 F1800 X4.805543899536133 Y19.577649116516113 Z7.1
G4 P500
G1 F1800 X4.814458847045898 Y19.5772705078125 Z7.1
G4 P500
G1 F1800 X5.581967353820801 Y19.544666290283203 Z7.1
G4 P500
G1 F1800 X5.5906901359558105 Y19.542786598205566 Z7.1
G4 P500
G1 F1800 X6.341648578643799 Y19.380942344665527 Z7.1
G4 P500
G1 F1800 X6.34992790222168 Y19.377614974975586 Z7.1
G4 P500
G1 F1800 X7.062732934951782 Y19.091187477111816 Z7.1
G4 P500
G1 F1800 X7.07033109664917 Y19.086508750915527 Z7.1
G4 P500
G1 F1800 X7.724476337432861 Y18.683734893798828 Z7.1
G4 P500
G1 F1800 X7.731174468994141 Y18.67784023284912 Z7.1
G4 P500
G1 F1800 X8.307841777801514 Y18.170310020446777 Z7.1
G4 P500
G1 F1800 X8.31344723701477 Y18.16336727142334 Z7.1
G4 P500
G1 F1800 X8.796046257019043 Y17.5656795501709 Z7.1
G4 P500
G1 F1800 X8.800397872924805 Y17.557889461517334 Z7.1
G4 P500
G1 F1800 X9.175045609474182 Y16.887239456176758 Z7.1
G4 P500
G1 F1800 X9.17801821231842 Y16.878826141357422 Z7.1
G4 P500
G1 F1800 X9.433936417102814 Y16.154507160186768 Z7.1
G4 P500
G1 F1800 X9.435444355010986 Y16.145712852478027 Z7.1
G4 P500
G1 F1800 X9.565270960330963 Y15.388562202453613 Z7.1
G4 P500
G1 F1800 X9.565460443496704 Y15.384100437164307 Z7.1
G4 P500
G1 F1800 X9.581776857376099 Y15.0 Z7.1
G4 P500
G1 F1800 X9.581587314605713 Y14.995538711547852 Z7.1
G4 P500
G1 F1800 X9.565270960330963 Y14.611437797546387 Z7.1
G4 P500
G1 F1800 X9.563762992620468 Y14.602643489837646 Z7.1
G4 P500
G1 F1800 X9.433936417102814 Y13.845492601394653 Z7.1
G4 P500
G1 F1800 X9.43096387386322 Y13.837079524993896 Z7.1
G4 P500
G1 F1800 X9.175045609474182 Y13.112760305404663 Z7.1
G4 P500
G1 F1800 X9.17069399356842 Y13.104970455169678 Z7.1
G4 P500
G1 F1800 X8.796046257019043 Y12.434320449829102 Z7.1
G4 P500
G1 F1800 X8.790440797805786 Y12.427378177642822 Z7.1
G4 P500
G1 F1800 X8.307841777801514 Y11.82969057559967 Z7.1
G4 P500
; LAYER HEIGHT: 8
G1 F1800 X7.872932434082031 Y12.246517181396484 Z8.1
G4 P500
G1 F1800 X8.032482743263245 Y12.444116592407227 Z8.1
G4 P500
G1 F1800 X8.296948790550232 Y12.77165150642395 Z8.1
G4 P500
G1 F1800 X8.420809626579285 Y12.993372678756714 Z8.1
G4 P500
G1 F1800 X8.626117944717407 Y13.360891342163086 Z8.1
G4 P500
G1 F1800 X8.710726141929626 Y13.600355863571167 Z8.1
G4 P500
G1 F1800 X8.850970268249512 Y13.99728536605835 Z8.1
G4 P500
G1 F1800 X8.89389169216156 Y14.24760389328003 Z8.1
G4 P500
G1 F1800 X8.965037107467651 Y14.662525653839111 Z8.1
G4 P500
G1 F1800 X8.970431327819824 Y14.789511680603027 Z8.1
G4 P500
G1 F1800 X8.97937285900116 Y15.0 Z8.1
G4 P500
G1 F1800 X8.973978519439697 Y15.126986026763916 Z8.1
G4 P500
G1 F1800 X8.965037107467651 Y15.337474346160889 Z8.1
G4 P500
G1 F1800 X8.922115683555603 Y15.587793350219727 Z8.1
G4 P500
G1 F1800 X8.850970268249512 Y16.00271463394165 Z8.1
G4 P500
G1 F1800 X8.766361951828003 Y16.242178916931152 Z8.1
G4 P500
G1 F1800 X8.626117944717407 Y16.639108657836914 Z8.1
G4 P500
G1 F1800 X8.502257108688354 Y16.860829830169678 Z8.1
G4 P500
G1 F1800 X8.296948790550232 Y17.22834873199463 Z8.1
G4 P500
G1 F1800 X8.137398481369019 Y17.425947666168213 Z8.1
G4 P500
G1 F1800 X7.872932434082031 Y17.753482341766357 Z8.1
G4 P500
G1 F1800 X7.6822826862335205 Y17.92127561569214 Z8.1
G4 P500
G1 F1800 X7.366267204284668 Y18.1994047164917 Z8.1
G4 P500
G1 F1800 X7.150002717971802 Y18.33256435394287 Z8.1
G4 P500
G1 F1800 X6.7915284633636475 Y18.553284645080566 Z8.1
G4 P500
G1 F1800 X6.555870771408081 Y18.647979736328125 Z8.1
G4 P500
G1 F1800 X6.165251016616821 Y18.804944038391113 Z8.1
G4 P500
G1 F1800 X5.9169793128967285 Y18.858450889587402 Z8.1
G4 P500
G1 F1800 X5.505451202392578 Y18.947141647338867 Z8.1
G4 P500
G1 F1800 X5.251708030700684 Y18.957921028137207 Z8.1
G4 P500
G1 F1800 X4.83111047744751 Y18.975788116455078 Z8.1
G4 P500
G1 F1800 X4.579195499420166 Y18.94352912902832 Z8.1
G4 P500
G1 F1800 X4.161628723144531 Y18.890056610107422 Z8.1
G4 P500
G1 F1800 X3.9187889099121094 Y18.815688133239746 Z8.1
G4 P500
G1 F1800 X3.5162649154663086 Y18.69241714477539 Z8.1
G4 P500
G1 F1800 X3.289486885070801 Y18.57807731628418 Z8.1
G4 P500
G1 F1800 X2.913585662841797 Y18.38855266571045 Z8.1
G4 P500
G1 F1800 X2.70939302444458 Y18.237531661987305 Z8.1
G4 P500
G1 F1800 X2.3709287643432617 Y17.987204551696777 Z8.1
G4 P500
G1 F1800 X2.1951956748962402 Y17.803848266601562 Z8.1
G4 P500
G1 F1800 X1.9039058685302734 Y17.499921321868896 Z8.1
G4 P500
G1 F1800 X1.761688232421875 Y17.28950309753418 Z8.1
G4 P500
G1 F1800 X1.5259513854980469 Y16.940720081329346 Z8.1
G4 P500
G1 F1800 X1.421339988708496 Y16.709293365478516 Z8.1
G4 P500
G1 F1800 X1.247939109802246 Y16.325687408447266 Z8.1
G4 P500
G1 F1800 X1.183943748474121 Y16.079910278320312 Z8.1
G4 P500
G1 F1800 X1.0778675079345703 Y15.6725172996521 Z8.1
G4 P500
G1 F1800 X1.0563287734985352 Y15.41946029663086 Z8.1
G4 P500
G1 F1800 X1.0206270217895508 Y15.0 Z8.1
G4 P500
G1 F1800 X1.042165756225586 Y14.74694299697876 Z8.1
G4 P500
G1 F1800 X1.0778675079345703 Y14.3274827003479 Z8.1
G4 P500
G1 F1800 X1.141861915588379 Y14.081705570220947 Z8.1
G4 P500
G1 F1800 X1.247939109802246 Y13.674312591552734 Z8.1
G4 P500
G1 F1800 X1.3525505065917969 Y13.442885875701904 Z8.1
G4 P500
G1 F1800 X1.5259513854980469 Y13.059279918670654 Z8.1
G4 P500
G1 F1800 X1.6681690216064453 Y12.848861694335938 Z8.1
G4 P500
G1 F1800 X1.9039058685302734 Y12.500078439712524 Z8.1
G4 P500
G1 F1800 X2.079638957977295 Y12.316721677780151 Z8.1
G4 P500
G1 F1800 X2.3709287643432617 Y12.012794971466064 Z8.1
G4 P500
G1 F1800 X2.5751214027404785 Y11.861774802207947 Z8.1
G4 P500
G1 F1800 X2.913585662841797 Y11.611448049545288 Z8.1
G4 P500
G1 F1800 X3.1403636932373047 Y11.497108936309814 Z8.1
G4 P500
G1 F1800 X3.5162649154663086 Y11.307583689689636 Z8.1
G4 P500
G1 F1800 X3.7591047286987305 Y11.233214855194092 Z8.1
G4 P500
G1 F1800 X4.161628723144531 Y11.109943151473999 Z8.1
G4 P500
G1 F1800 X4.413543701171875 Y11.07768428325653 Z8.1
G4 P500
G1 F1800 X4.83111047744751 Y11.024212718009949 Z8.1
G4 P500
G1 F1800 X5.084853649139404 Y11.03499162197113 Z8.1
G4 P500
G1 F1800 X5.505451202392578 Y11.052858352661133 Z8.1
G4 P500
G1 F1800 X5.753722667694092 Y11.106364965438843 Z8.1
G4 P500
G1 F1800 X6.165251016616821 Y11.195056080818176 Z8.1
G4 P500
G1 F1800 X6.400908946990967 Y11.289751172065735 Z8.1
G4 P500
G1 F1800 X6.7915284633636475 Y11.446715116500854 Z8.1
G4 P500
G1 F1800 X7.007792949676514 Y11.579874396324158 Z8.1
G4 P500
G1 F1800 X7.366267204284668 Y11.80059564113617 Z8.1
G4 P500
G1 F1800 X7.556916952133179 Y11.968388557434082 Z8.1
G4 P500
G1 F1800 X7.872932434082031 Y12.246517181396484 Z8.1
G4 P500
; LAYER HEIGHT: 9
G1 F1800 X7.157172441482544 Y12.932517766952515 Z9.1
G4 P500
G1 F1800 X7.187655448913574 Y12.970270156860352 Z9.1
G4 P500
G1 F1800 X7.4755494594573975 Y13.326820373535156 Z9.1
G4 P500
G1 F1800 X7.499213933944702 Y13.369181632995605 Z9.1
G4 P500
G1 F1800 X7.722709894180298 Y13.769257545471191 Z9.1
G4 P500
G1 F1800 X7.738874912261963 Y13.815008878707886 Z9.1
G4 P500
G1 F1800 X7.891542434692383 Y14.247101306915283 Z9.1
G4 P500
G1 F1800 X7.899742841720581 Y14.294926166534424 Z9.1
G4 P500
G1 F1800 X7.977190971374512 Y14.746603965759277 Z9.1
G4 P500
G1 F1800 X7.978221654891968 Y14.770865440368652 Z9.1
G4 P500
G1 F1800 X7.987955093383789 Y15.0 Z9.1
G4 P500
G1 F1800 X7.986924409866333 Y15.024261474609375 Z9.1
G4 P500
G1 F1800 X7.977190971374512 Y15.253396034240723 Z9.1
G4 P500
G1 F1800 X7.9689905643463135 Y15.301220893859863 Z9.1
G4 P500
G1 F1800 X7.891542434692383 Y15.752898693084717 Z9.1
G4 P500
G1 F1800 X7.875377655029297 Y15.79865026473999 Z9.1
G4 P500
G1 F1800 X7.722709894180298 Y16.23074245452881 Z9.1
G4 P500
G1 F1800 X7.699045419692993 Y16.273103713989258 Z9.1
G4 P500
G1 F1800 X7.4755494594573975 Y16.673179149627686 Z9.1
G4 P500
G1 F1800 X7.445066452026367 Y16.7109317779541 Z9.1
G4 P500
G1 F1800 X7.157172441482544 Y17.067481994628906 Z9.1
G4 P500
G1 F1800 X7.1207475662231445 Y17.099539756774902 Z9.1
G4 P500
G1 F1800 X6.776737213134766 Y17.40230703353882 Z9.1
G4 P500
G1 F1800 X6.7354185581207275 Y17.427748203277588 Z9.1
G4 P500
G1 F1800 X6.345188617706299 Y17.66802215576172 Z9.1
G4 P500
G1 F1800 X6.300164699554443 Y17.68611431121826 Z9.1
G4 P500
G1 F1800 X5.874941349029541 Y17.85698366165161 Z9.1
G4 P500
G1 F1800 X5.827507495880127 Y17.86720609664917 Z9.1
G4 P500
G1 F1800 X5.379523754119873 Y17.963754177093506 Z9.1
G4 P500
G1 F1800 X5.331044673919678 Y17.965813159942627 Z9.1
G4 P500
G1 F1800 X4.87318754196167 Y17.985262870788574 Z9.1
G4 P500
G1 F1800 X4.825057506561279 Y17.9790997505188 Z9.1
G4 P500
G1 F1800 X4.370499610900879 Y17.920891284942627 Z9.1
G4 P500
G1 F1800 X4.324103832244873 Y17.90668249130249 Z9.1
G4 P500
G1 F1800 X3.8859219551086426 Y17.77249050140381 Z9.1
G4 P500
G1 F1800 X3.8425941467285156 Y17.75064516067505 Z9.1
G4 P500
G1 F1800 X3.4333934783935547 Y17.544330596923828 Z9.1
G4 P500
G1 F1800 X3.394381046295166 Y17.515477180480957 Z9.1
G4 P500
G1 F1800 X3.0259337425231934 Y17.24297523498535 Z9.1
G4 P500
G1 F1800 X2.992358684539795 Y17.207943439483643 Z9.1
G4 P500
G1 F1800 X2.675264358520508 Y16.87709331512451 Z9.1
G4 P500
G1 F1800 X2.648092746734619 Y16.836891651153564 Z9.1
G4 P500
G1 F1800 X2.3914732933044434 Y16.457210540771484 Z9.1
G4 P500
G1 F1800 X2.3714866638183594 Y16.412994861602783 Z9.1
G4 P500
G1 F1800 X2.1827244758605957 Y15.995407104492188 Z9.1
G4 P500
G1 F1800 X2.1704978942871094 Y15.948449611663818 Z9.1
G4 P500
G1 F1800 X2.0550241470336914 Y15.504967212677002 Z9.1
G4 P500
G1 F1800 X2.0509090423583984 Y15.456618785858154 Z9.1
G4 P500
G1 F1800 X2.0120444297790527 Y15.0 Z9.1
G4 P500
G1 F1800 X2.0161595344543457 Y14.95165205001831 Z9.1
G4 P500
G1 F1800 X2.0550241470336914 Y14.495032787322998 Z9.1
G4 P500
G1 F1800 X2.0672507286071777 Y14.448075771331787 Z9.1
G4 P500
G1 F1800 X2.1827244758605957 Y14.00459337234497 Z9.1
G4 P500
G1 F1800 X2.2027111053466797 Y13.96037769317627 Z9.1
G4 P500
G1 F1800 X2.3914732933044434 Y13.542789459228516 Z9.1
G4 P500
G1 F1800 X2.418644905090332 Y13.50258755683899 Z9.1
G4 P500
G1 F1800 X2.675264358520508 Y13.122906684875488 Z9.1
G4 P500
G1 F1800 X2.708838939666748 Y13.087875366210938 Z9.1
G4 P500
G1 F1800 X3.0259337425231934 Y12.757024765014648 Z9.1
G4 P500
G1 F1800 X3.064945697784424 Y12.728171348571777 Z9.1
G4 P500
G1 F1800 X3.4333934783935547 Y12.455669164657593 Z9.1
G4 P500
G1 F1800 X3.4767208099365234 Y12.433824062347412 Z9.1
G4 P500
G1 F1800 X3.8859219551086426 Y12.227509260177612 Z9.1
G4 P500
G1 F1800 X3.9323177337646484 Y12.213300466537476 Z9.1
G4 P500
G1 F1800 X4.370499610900879 Y12.079108715057373 Z9.1
G4 P500
G1 F1800 X4.4186296463012695 Y12.072945594787598 Z9.1
G4 P500
G1 F1800 X4.87318754196167 Y12.014737129211426 Z9.1
G4 P500
G1 F1800 X4.921666622161865 Y12.016796588897705 Z9.1
G4 P500
G1 F1800 X5.379523754119873 Y12.036246061325073 Z9.1
G4 P500
G1 F1800 X5.426957607269287 Y12.046468734741211 Z9.1
G4 P500
G1 F1800 X5.874941349029541 Y12.143016815185547 Z9.1
G4 P500
G1 F1800 X5.9199652671813965 Y12.16110897064209 Z9.1
G4 P500
G1 F1800 X6.345188617706299 Y12.331977605819702 Z9.1
G4 P500
G1 F1800 X6.386507272720337 Y12.357418537139893 Z9.1
G4 P500
G1 F1800 X6.776737213134766 Y12.597692728042603 Z9.1
G4 P500
G1 F1800 X6.813162088394165 Y12.629750728607178 Z9.1
G4 P500
G1 F1800 X7.157172441482544 Y12.932517766952515 Z9.1
G4 P500
; LAYER HEIGHT: 10
; THANK GOD I'M DONE