; HOLY FUCK I HATE MY LIFE
; FLAVOR:Marlin
; Generated with Genuine Passion and a Good Grudge 0.6.8
; PRINT SETTINGS
; offsets: X:10.0 Y:10.0 Z0.1
G28 ; HOME ALL AXIS
; LAYER HEIGHT: 0
; LAYER HEIGHT: 1
G1 F1800 X3.147761344909668 Y17.04374885559082 Z1.1
G4 P500
G1 F1800 X3.2366185188293457 Y17.132606029510498 Z1.1
G4 P500
G1 F1800 X3.4811477661132812 Y17.444724082946777 Z1.1
G4 P500
G1 F1800 X3.5586466789245605 Y17.543643951416016 Z1.1
G4 P500
G1 F1800 X3.763770580291748 Y17.88296127319336 Z1.1
G4 P500
G1 F1800 X3.8287806510925293 Y17.990500926971436 Z1.1
G4 P500
G1 F1800 X3.991509437561035 Y18.35206890106201 Z1.1
G4 P500
G1 F1800 X4.043083190917969 Y18.466660499572754 Z1.1
G4 P500
G1 F1800 X4.161043167114258 Y18.845208168029785 Z1.1
G4 P500
G1 F1800 X4.198428153991699 Y18.96518039703369 Z1.1
G4 P500
G1 F1800 X4.269898891448975 Y19.355185508728027 Z1.1
G4 P500
G1 F1800 X4.292550086975098 Y19.478790283203125 Z1.1
G4 P500
G1 F1800 X4.316490173339844 Y19.874566078186035 Z1.1
G4 P500
G1 F1800 X4.324077606201172 Y20.0 Z1.1
G4 P500
G1 F1800 X4.300137519836426 Y20.39577579498291 Z1.1
G4 P500
G1 F1800 X4.292550086975098 Y20.521209716796875 Z1.1
G4 P500
G1 F1800 X4.221079349517822 Y20.91121482849121 Z1.1
G4 P500
G1 F1800 X4.198428153991699 Y21.03481960296631 Z1.1
G4 P500
G1 F1800 X4.08046817779541 Y21.413366317749023 Z1.1
G4 P500
G1 F1800 X4.043083190917969 Y21.533339500427246 Z1.1
G4 P500
G1 F1800 X3.880354404449463 Y21.894906997680664 Z1.1
G4 P500
G1 F1800 X3.8287806510925293 Y22.009499549865723 Z1.1
G4 P500
G1 F1800 X3.6236562728881836 Y22.348816871643066 Z1.1
G4 P500
G1 F1800 X3.5586466789245605 Y22.456356048583984 Z1.1
G4 P500
G1 F1800 X3.314117431640625 Y22.768474578857422 Z1.1
G4 P500
G1 F1800 X3.2366185188293457 Y22.86739444732666 Z1.1
G4 P500
G1 F1800 X2.9562511444091797 Y23.147762298583984 Z1.1
G4 P500
G1 F1800 X2.867393970489502 Y23.236618995666504 Z1.1
G4 P500
G1 F1800 X2.5552759170532227 Y23.48114776611328 Z1.1
G4 P500
G1 F1800 X2.4563560485839844 Y23.558646202087402 Z1.1
G4 P500
G1 F1800 X2.1170387268066406 Y23.763771057128906 Z1.1
G4 P500
G1 F1800 X2.0094990730285645 Y23.828781127929688 Z1.1
G4 P500
G1 F1800 X1.6479310989379883 Y23.991509437561035 Z1.1
G4 P500
G1 F1800 X1.533339500427246 Y24.04308319091797 Z1.1
G4 P500
G1 F1800 X1.1547918319702148 Y24.161043167114258 Z1.1
G4 P500
G1 F1800 X1.0348196029663086 Y24.1984281539917 Z1.1
G4 P500
G1 F1800 X0.6448144912719727 Y24.269899368286133 Z1.1
G4 P500
G1 F1800 X0.521209716796875 Y24.292550086975098 Z1.1
G4 P500
G1 F1800 X0.12543392181396484 Y24.31649112701416 Z1.1
G4 P500
G1 F1800 X0.0 Y24.32407855987549 Z1.1
G4 P500
G1 F1800 X-0.39577579498291016 Y24.300137519836426 Z1.1
G4 P500
G1 F1800 X-0.521209716796875 Y24.292550086975098 Z1.1
G4 P500
G1 F1800 X-0.9112148284912109 Y24.22107982635498 Z1.1
G4 P500
G1 F1800 X-1.0348196029663086 Y24.1984281539917 Z1.1
G4 P500
G1 F1800 X-1.4133663177490234 Y24.08046817779541 Z1.1
G4 P500
G1 F1800 X-1.533339500427246 Y24.04308319091797 Z1.1
G4 P500
G1 F1800 X-1.894906997680664 Y23.88035488128662 Z1.1
G4 P500
G1 F1800 X-2.0094995498657227 Y23.828781127929688 Z1.1
G4 P500
G1 F1800 X-2.3488168716430664 Y23.623656272888184 Z1.1
G4 P500
G1 F1800 X-2.4563560485839844 Y23.558646202087402 Z1.1
G4 P500
G1 F1800 X-2.768474578857422 Y23.314117431640625 Z1.1
G4 P500
G1 F1800 X-2.86739444732666 Y23.236618995666504 Z1.1
G4 P500
G1 F1800 X-3.1477622985839844 Y22.95625114440918 Z1.1
G4 P500
G1 F1800 X-3.236618995666504 Y22.86739444732666 Z1.1
G4 P500
G1 F1800 X-3.4811477661132812 Y22.555275917053223 Z1.1
G4 P500
G1 F1800 X-3.5586462020874023 Y22.456356048583984 Z1.1
G4 P500
G1 F1800 X-3.7637710571289062 Y22.117039680480957 Z1.1
G4 P500
G1 F1800 X-3.8287811279296875 Y22.009499549865723 Z1.1
G4 P500
G1 F1800 X-3.991509437561035 Y21.64793109893799 Z1.1
G4 P500
G1 F1800 X-4.043083190917969 Y21.533339500427246 Z1.1
G4 P500
G1 F1800 X-4.161043167114258 Y21.154791831970215 Z1.1
G4 P500
G1 F1800 X-4.198428153991699 Y21.03481960296631 Z1.1
G4 P500
G1 F1800 X-4.269899368286133 Y20.644814491271973 Z1.1
G4 P500
G1 F1800 X-4.292550086975098 Y20.521209716796875 Z1.1
G4 P500
G1 F1800 X-4.31649112701416 Y20.125433921813965 Z1.1
G4 P500
G1 F1800 X-4.324078559875488 Y20.0 Z1.1
G4 P500
G1 F1800 X-4.300137519836426 Y19.60422420501709 Z1.1
G4 P500
G1 F1800 X-4.292550086975098 Y19.478790283203125 Z1.1
G4 P500
G1 F1800 X-4.2210798263549805 Y19.08878517150879 Z1.1
G4 P500
G1 F1800 X-4.198428153991699 Y18.96518039703369 Z1.1
G4 P500
G1 F1800 X-4.08046817779541 Y18.586633682250977 Z1.1
G4 P500
G1 F1800 X-4.043083190917969 Y18.466660499572754 Z1.1
G4 P500
G1 F1800 X-3.880354881286621 Y18.105093002319336 Z1.1
G4 P500
G1 F1800 X-3.8287811279296875 Y17.990500926971436 Z1.1
G4 P500
G1 F1800 X-3.6236562728881836 Y17.65118408203125 Z1.1
G4 P500
G1 F1800 X-3.5586462020874023 Y17.543643951416016 Z1.1
G4 P500
G1 F1800 X-3.314117431640625 Y17.231525897979736 Z1.1
G4 P500
G1 F1800 X-3.236618995666504 Y17.132606029510498 Z1.1
G4 P500
G1 F1800 X-2.9562511444091797 Y16.852238655090332 Z1.1
G4 P500
G1 F1800 X-2.86739444732666 Y16.763381481170654 Z1.1
G4 P500
G1 F1800 X-2.5552759170532227 Y16.51885223388672 Z1.1
G4 P500
G1 F1800 X-2.4563560485839844 Y16.44135332107544 Z1.1
G4 P500
G1 F1800 X-2.117039680480957 Y16.236229419708252 Z1.1
G4 P500
G1 F1800 X-2.0094995498657227 Y16.17121934890747 Z1.1
G4 P500
G1 F1800 X-1.6479310989379883 Y16.008490562438965 Z1.1
G4 P500
G1 F1800 X-1.533339500427246 Y15.956916809082031 Z1.1
G4 P500
G1 F1800 X-1.1547918319702148 Y15.838956832885742 Z1.1
G4 P500
G1 F1800 X-1.0348196029663086 Y15.8015718460083 Z1.1
G4 P500
G1 F1800 X-0.6448144912719727 Y15.730101108551025 Z1.1
G4 P500
G1 F1800 X-0.521209716796875 Y15.707449913024902 Z1.1
G4 P500
G1 F1800 X-0.12543392181396484 Y15.683509826660156 Z1.1
G4 P500
G1 F1800 X0.0 Y15.675922393798828 Z1.1
G4 P500
G1 F1800 X0.39577579498291016 Y15.699862480163574 Z1.1
G4 P500
G1 F1800 X0.521209716796875 Y15.707449913024902 Z1.1
G4 P500
G1 F1800 X0.9112148284912109 Y15.778920650482178 Z1.1
G4 P500
G1 F1800 X1.0348196029663086 Y15.8015718460083 Z1.1
G4 P500
G1 F1800 X1.4133663177490234 Y15.91953182220459 Z1.1
G4 P500
G1 F1800 X1.533339500427246 Y15.956916809082031 Z1.1
G4 P500
G1 F1800 X1.894906997680664 Y16.119645595550537 Z1.1
G4 P500
G1 F1800 X2.0094990730285645 Y16.17121934890747 Z1.1
G4 P500
G1 F1800 X2.34881591796875 Y16.376343727111816 Z1.1
G4 P500
G1 F1800 X2.4563560485839844 Y16.44135332107544 Z1.1
G4 P500
G1 F1800 X2.7684741020202637 Y16.685882568359375 Z1.1
G4 P500
G1 F1800 X2.867393970489502 Y16.763381481170654 Z1.1
G4 P500
G1 F1800 X3.147761344909668 Y17.04374885559082 Z1.1
G4 P500
; LAYER HEIGHT: 2
G1 F1800 X4.136253356933594 Y15.703135013580322 Z2.1
G4 P500
G1 F1800 X3.9615044593811035 Y15.528385639190674 Z2.1
G4 P500
G1 F1800 X3.588165760040283 Y15.235893249511719 Z2.1
G4 P500
G1 F1800 X3.393627166748047 Y15.083482265472412 Z2.1
G4 P500
G1 F1800 X2.9877543449401855 Y14.838123321533203 Z2.1
G4 P500
G1 F1800 X2.7762627601623535 Y14.710272789001465 Z2.1
G4 P500
G1 F1800 X2.3437747955322266 Y14.515625476837158 Z2.1
G4 P500
G1 F1800 X2.118414878845215 Y14.414199352264404 Z2.1
G4 P500
G1 F1800 X1.6656169891357422 Y14.273101806640625 Z2.1
G4 P500
G1 F1800 X1.4296751022338867 Y14.199579238891602 Z2.1
G4 P500
G1 F1800 X0.9631719589233398 Y14.114089488983154 Z2.1
G4 P500
G1 F1800 X0.720088005065918 Y14.069542407989502 Z2.1
G4 P500
G1 F1800 X0.24668121337890625 Y14.04090690612793 Z2.1
G4 P500
G1 F1800 X0.0 Y14.02598524093628 Z2.1
G4 P500
G1 F1800 X-0.4734067916870117 Y14.054620742797852 Z2.1
G4 P500
G1 F1800 X-0.720088005065918 Y14.069542407989502 Z2.1
G4 P500
G1 F1800 X-1.1865911483764648 Y14.15503215789795 Z2.1
G4 P500
G1 F1800 X-1.4296751022338867 Y14.199579238891602 Z2.1
G4 P500
G1 F1800 X-1.882472038269043 Y14.340676307678223 Z2.1
G4 P500
G1 F1800 X-2.118414878845215 Y14.414199352264404 Z2.1
G4 P500
G1 F1800 X-2.5509033203125 Y14.608846187591553 Z2.1
G4 P500
G1 F1800 X-2.7762632369995117 Y14.710272789001465 Z2.1
G4 P500
G1 F1800 X-3.182135581970215 Y14.955631256103516 Z2.1
G4 P500
G1 F1800 X-3.393627166748047 Y15.083482265472412 Z2.1
G4 P500
G1 F1800 X-3.766965866088867 Y15.375974655151367 Z2.1
G4 P500
G1 F1800 X-3.9615049362182617 Y15.528385639190674 Z2.1
G4 P500
G1 F1800 X-4.296865463256836 Y15.863746643066406 Z2.1
G4 P500
G1 F1800 X-4.471614837646484 Y16.038495540618896 Z2.1
G4 P500
G1 F1800 X-4.764106750488281 Y16.411834239959717 Z2.1
G4 P500
G1 F1800 X-4.916518211364746 Y16.606372833251953 Z2.1
G4 P500
G1 F1800 X-5.161876678466797 Y17.012245655059814 Z2.1
G4 P500
G1 F1800 X-5.289727210998535 Y17.223737239837646 Z2.1
G4 P500
G1 F1800 X-5.484374046325684 Y17.656225204467773 Z2.1
G4 P500
G1 F1800 X-5.585801124572754 Y17.881585121154785 Z2.1
G4 P500
G1 F1800 X-5.726898193359375 Y18.334383010864258 Z2.1
G4 P500
G1 F1800 X-5.800420761108398 Y18.570324897766113 Z2.1
G4 P500
G1 F1800 X-5.885910987854004 Y19.03682804107666 Z2.1
G4 P500
G1 F1800 X-5.93045711517334 Y19.279911994934082 Z2.1
G4 P500
G1 F1800 X-5.959094047546387 Y19.753318786621094 Z2.1
G4 P500
G1 F1800 X-5.974015235900879 Y20.0 Z2.1
G4 P500
G1 F1800 X-5.945379257202148 Y20.47340679168701 Z2.1
G4 P500
G1 F1800 X-5.93045711517334 Y20.720088005065918 Z2.1
G4 P500
G1 F1800 X-5.844967842102051 Y21.186591148376465 Z2.1
G4 P500
G1 F1800 X-5.800420761108398 Y21.429675102233887 Z2.1
G4 P500
G1 F1800 X-5.659323692321777 Y21.882472038269043 Z2.1
G4 P500
G1 F1800 X-5.585801124572754 Y22.118414878845215 Z2.1
G4 P500
G1 F1800 X-5.391153335571289 Y22.5509033203125 Z2.1
G4 P500
G1 F1800 X-5.289727210998535 Y22.77626323699951 Z2.1
G4 P500
G1 F1800 X-5.044368743896484 Y23.182135581970215 Z2.1
G4 P500
G1 F1800 X-4.916518211364746 Y23.393627166748047 Z2.1
G4 P500
G1 F1800 X-4.624025344848633 Y23.766965866088867 Z2.1
G4 P500
G1 F1800 X-4.471614837646484 Y23.96150493621826 Z2.1
G4 P500
G1 F1800 X-4.136253356933594 Y24.296865463256836 Z2.1
G4 P500
G1 F1800 X-3.9615049362182617 Y24.471614837646484 Z2.1
G4 P500
G1 F1800 X-3.588165283203125 Y24.76410675048828 Z2.1
G4 P500
G1 F1800 X-3.393627166748047 Y24.916518211364746 Z2.1
G4 P500
G1 F1800 X-2.9877548217773438 Y25.161876678466797 Z2.1
G4 P500
G1 F1800 X-2.7762632369995117 Y25.289727210998535 Z2.1
G4 P500
G1 F1800 X-2.3437747955322266 Y25.484374046325684 Z2.1
G4 P500
G1 F1800 X-2.118414878845215 Y25.585801124572754 Z2.1
G4 P500
G1 F1800 X-1.6656169891357422 Y25.726898193359375 Z2.1
G4 P500
G1 F1800 X-1.4296751022338867 Y25.8004207611084 Z2.1
G4 P500
G1 F1800 X-0.9631719589233398 Y25.885910987854004 Z2.1
G4 P500
G1 F1800 X-0.720088005065918 Y25.93045711517334 Z2.1
G4 P500
G1 F1800 X-0.24668121337890625 Y25.959094047546387 Z2.1
G4 P500
G1 F1800 X0.0 Y25.97401523590088 Z2.1
G4 P500
G1 F1800 X0.4734067916870117 Y25.94537925720215 Z2.1
G4 P500
G1 F1800 X0.720088005065918 Y25.93045711517334 Z2.1
G4 P500
G1 F1800 X1.1865911483764648 Y25.84496784210205 Z2.1
G4 P500
G1 F1800 X1.4296751022338867 Y25.8004207611084 Z2.1
G4 P500
G1 F1800 X1.882472038269043 Y25.659323692321777 Z2.1
G4 P500
G1 F1800 X2.118414878845215 Y25.585801124572754 Z2.1
G4 P500
G1 F1800 X2.550902843475342 Y25.39115333557129 Z2.1
G4 P500
G1 F1800 X2.7762627601623535 Y25.289727210998535 Z2.1
G4 P500
G1 F1800 X3.182136058807373 Y25.044368743896484 Z2.1
G4 P500
G1 F1800 X3.393627166748047 Y24.916518211364746 Z2.1
G4 P500
G1 F1800 X3.766965866088867 Y24.624025344848633 Z2.1
G4 P500
G1 F1800 X3.9615044593811035 Y24.471614837646484 Z2.1
G4 P500
G1 F1800 X4.296864986419678 Y24.136253356933594 Z2.1
G4 P500
G1 F1800 X4.471614360809326 Y23.96150493621826 Z2.1
G4 P500
G1 F1800 X4.764106750488281 Y23.588165283203125 Z2.1
G4 P500
G1 F1800 X4.916517734527588 Y23.393627166748047 Z2.1
G4 P500
G1 F1800 X5.161876678466797 Y22.987754821777344 Z2.1
G4 P500
G1 F1800 X5.289727210998535 Y22.77626323699951 Z2.1
G4 P500
G1 F1800 X5.484374523162842 Y22.343774795532227 Z2.1
G4 P500
G1 F1800 X5.585800647735596 Y22.118414878845215 Z2.1
G4 P500
G1 F1800 X5.726898193359375 Y21.665616989135742 Z2.1
G4 P500
G1 F1800 X5.800420761108398 Y21.429675102233887 Z2.1
G4 P500
G1 F1800 X5.885910511016846 Y20.96317195892334 Z2.1
G4 P500
G1 F1800 X5.930457592010498 Y20.720088005065918 Z2.1
G4 P500
G1 F1800 X5.95909309387207 Y20.246681213378906 Z2.1
G4 P500
G1 F1800 X5.974014759063721 Y20.0 Z2.1
G4 P500
G1 F1800 X5.945379257202148 Y19.52659320831299 Z2.1
G4 P500
G1 F1800 X5.930457592010498 Y19.279911994934082 Z2.1
G4 P500
G1 F1800 X5.844967842102051 Y18.813408851623535 Z2.1
G4 P500
G1 F1800 X5.800420761108398 Y18.570324897766113 Z2.1
G4 P500
G1 F1800 X5.659323692321777 Y18.117527961730957 Z2.1
G4 P500
G1 F1800 X5.585800647735596 Y17.881585121154785 Z2.1
G4 P500
G1 F1800 X5.391153812408447 Y17.449097156524658 Z2.1
G4 P500
G1 F1800 X5.289727210998535 Y17.223737239837646 Z2.1
G4 P500
G1 F1800 X5.044368743896484 Y16.817863941192627 Z2.1
G4 P500
G1 F1800 X4.916517734527588 Y16.606372833251953 Z2.1
G4 P500
G1 F1800 X4.624025344848633 Y16.233034133911133 Z2.1
G4 P500
G1 F1800 X4.471614360809326 Y16.038495540618896 Z2.1
G4 P500
G1 F1800 X4.136253356933594 Y15.703135013580322 Z2.1
G4 P500
; LAYER HEIGHT: 3
G1 F1800 X5.082110404968262 Y15.036455631256104 Z3.1
G4 P500
G1 F1800 X5.326652526855469 Y15.28099775314331 Z3.1
G4 P500
G1 F1800 X5.643345355987549 Y15.685226440429688 Z3.1
G4 P500
G1 F1800 X5.856627941131592 Y15.957461833953857 Z3.1
G4 P500
G1 F1800 X6.1222875118255615 Y16.396915912628174 Z3.1
G4 P500
G1 F1800 X6.301200866699219 Y16.692874908447266 Z3.1
G4 P500
G1 F1800 X6.511952877044678 Y17.161146640777588 Z3.1
G4 P500
G1 F1800 X6.653887748718262 Y17.476512908935547 Z3.1
G4 P500
G1 F1800 X6.806659460067749 Y17.966773986816406 Z3.1
G4 P500
G1 F1800 X6.909546375274658 Y18.29694938659668 Z3.1
G4 P500
G1 F1800 X7.002109527587891 Y18.802050590515137 Z3.1
G4 P500
G1 F1800 X7.06444787979126 Y19.142220497131348 Z3.1
G4 P500
G1 F1800 X7.0954530239105225 Y19.654796600341797 Z3.1
G4 P500
G1 F1800 X7.116333961486816 Y20.0 Z3.1
G4 P500
G1 F1800 X7.085329055786133 Y20.51257610321045 Z3.1
G4 P500
G1 F1800 X7.06444787979126 Y20.857779502868652 Z3.1
G4 P500
G1 F1800 X6.971884727478027 Y21.36288070678711 Z3.1
G4 P500
G1 F1800 X6.909546375274658 Y21.70305061340332 Z3.1
G4 P500
G1 F1800 X6.756774663925171 Y22.193310737609863 Z3.1
G4 P500
G1 F1800 X6.653887748718262 Y22.523487091064453 Z3.1
G4 P500
G1 F1800 X6.443135738372803 Y22.991759300231934 Z3.1
G4 P500
G1 F1800 X6.301200866699219 Y23.30712604522705 Z3.1
G4 P500
G1 F1800 X6.035541534423828 Y23.746580123901367 Z3.1
G4 P500
G1 F1800 X5.856627941131592 Y24.0425386428833 Z3.1
G4 P500
G1 F1800 X5.53993558883667 Y24.44676685333252 Z3.1
G4 P500
G1 F1800 X5.326652526855469 Y24.719002723693848 Z3.1
G4 P500
G1 F1800 X4.9635443687438965 Y25.08211040496826 Z3.1
G4 P500
G1 F1800 X4.7190022468566895 Y25.32665252685547 Z3.1
G4 P500
G1 F1800 X4.3147735595703125 Y25.64334487915039 Z3.1
G4 P500
G1 F1800 X4.042538166046143 Y25.856627464294434 Z3.1
G4 P500
G1 F1800 X3.603084087371826 Y26.12228775024414 Z3.1
G4 P500
G1 F1800 X3.3071250915527344 Y26.30120086669922 Z3.1
G4 P500
G1 F1800 X2.838853359222412 Y26.511953353881836 Z3.1
G4 P500
G1 F1800 X2.523487091064453 Y26.653888702392578 Z3.1
G4 P500
G1 F1800 X2.0332260131835938 Y26.806657791137695 Z3.1
G4 P500
G1 F1800 X1.7030506134033203 Y26.9095458984375 Z3.1
G4 P500
G1 F1800 X1.1979494094848633 Y27.00210952758789 Z3.1
G4 P500
G1 F1800 X0.8577795028686523 Y27.0644474029541 Z3.1
G4 P500
G1 F1800 X0.3452033996582031 Y27.0954532623291 Z3.1
G4 P500
G1 F1800 X0.0 Y27.116334915161133 Z3.1
G4 P500
G1 F1800 X-0.5125761032104492 Y27.085329055786133 Z3.1
G4 P500
G1 F1800 X-0.8577795028686523 Y27.0644474029541 Z3.1
G4 P500
G1 F1800 X-1.3628807067871094 Y26.97188377380371 Z3.1
G4 P500
G1 F1800 X-1.7030506134033203 Y26.9095458984375 Z3.1
G4 P500
G1 F1800 X-2.1933107376098633 Y26.75677490234375 Z3.1
G4 P500
G1 F1800 X-2.523487091064453 Y26.653888702392578 Z3.1
G4 P500
G1 F1800 X-2.9917593002319336 Y26.44313621520996 Z3.1
G4 P500
G1 F1800 X-3.307126045227051 Y26.30120086669922 Z3.1
G4 P500
G1 F1800 X-3.746580123901367 Y26.035541534423828 Z3.1
G4 P500
G1 F1800 X-4.042538642883301 Y25.856627464294434 Z3.1
G4 P500
G1 F1800 X-4.4467668533325195 Y25.53993511199951 Z3.1
G4 P500
G1 F1800 X-4.719002723693848 Y25.32665252685547 Z3.1
G4 P500
G1 F1800 X-5.082110404968262 Y24.963544845581055 Z3.1
G4 P500
G1 F1800 X-5.326652526855469 Y24.719002723693848 Z3.1
G4 P500
G1 F1800 X-5.643344879150391 Y24.314773559570312 Z3.1
G4 P500
G1 F1800 X-5.856627464294434 Y24.0425386428833 Z3.1
G4 P500
G1 F1800 X-6.122287750244141 Y23.603084564208984 Z3.1
G4 P500
G1 F1800 X-6.301200866699219 Y23.30712604522705 Z3.1
G4 P500
G1 F1800 X-6.511953353881836 Y22.83885383605957 Z3.1
G4 P500
G1 F1800 X-6.653888702392578 Y22.523487091064453 Z3.1
G4 P500
G1 F1800 X-6.806657791137695 Y22.033226013183594 Z3.1
G4 P500
G1 F1800 X-6.9095458984375 Y21.70305061340332 Z3.1
G4 P500
G1 F1800 X-7.002109527587891 Y21.197949409484863 Z3.1
G4 P500
G1 F1800 X-7.064447402954102 Y20.857779502868652 Z3.1
G4 P500
G1 F1800 X-7.095453262329102 Y20.345203399658203 Z3.1
G4 P500
G1 F1800 X-7.116334915161133 Y20.0 Z3.1
G4 P500
G1 F1800 X-7.085329055786133 Y19.48742389678955 Z3.1
G4 P500
G1 F1800 X-7.064447402954102 Y19.142220497131348 Z3.1
G4 P500
G1 F1800 X-6.971883773803711 Y18.63711929321289 Z3.1
G4 P500
G1 F1800 X-6.9095458984375 Y18.29694938659668 Z3.1
G4 P500
G1 F1800 X-6.75677490234375 Y17.80668878555298 Z3.1
G4 P500
G1 F1800 X-6.653888702392578 Y17.476512908935547 Z3.1
G4 P500
G1 F1800 X-6.443136215209961 Y17.008241653442383 Z3.1
G4 P500
G1 F1800 X-6.301200866699219 Y16.692874908447266 Z3.1
G4 P500
G1 F1800 X-6.035541534423828 Y16.25342035293579 Z3.1
G4 P500
G1 F1800 X-5.856627464294434 Y15.957461833953857 Z3.1
G4 P500
G1 F1800 X-5.539935111999512 Y15.55323314666748 Z3.1
G4 P500
G1 F1800 X-5.326652526855469 Y15.28099775314331 Z3.1
G4 P500
G1 F1800 X-4.963544845581055 Y14.917889595031738 Z3.1
G4 P500
G1 F1800 X-4.719002723693848 Y14.673347473144531 Z3.1
G4 P500
G1 F1800 X-4.3147735595703125 Y14.356654644012451 Z3.1
G4 P500
G1 F1800 X-4.042538642883301 Y14.143372058868408 Z3.1
G4 P500
G1 F1800 X-3.6030845642089844 Y13.877712488174438 Z3.1
G4 P500
G1 F1800 X-3.307126045227051 Y13.698799133300781 Z3.1
G4 P500
G1 F1800 X-2.8388538360595703 Y13.488047122955322 Z3.1
G4 P500
G1 F1800 X-2.523487091064453 Y13.346112251281738 Z3.1
G4 P500
G1 F1800 X-2.0332260131835938 Y13.193340539932251 Z3.1
G4 P500
G1 F1800 X-1.7030506134033203 Y13.090453624725342 Z3.1
G4 P500
G1 F1800 X-1.1979494094848633 Y12.99789047241211 Z3.1
G4 P500
G1 F1800 X-0.8577795028686523 Y12.93555212020874 Z3.1
G4 P500
G1 F1800 X-0.3452033996582031 Y12.904546976089478 Z3.1
G4 P500
G1 F1800 X0.0 Y12.883666038513184 Z3.1
G4 P500
G1 F1800 X0.5125761032104492 Y12.914670944213867 Z3.1
G4 P500
G1 F1800 X0.8577795028686523 Y12.93555212020874 Z3.1
G4 P500
G1 F1800 X1.3628807067871094 Y13.028115272521973 Z3.1
G4 P500
G1 F1800 X1.7030506134033203 Y13.090453624725342 Z3.1
G4 P500
G1 F1800 X2.1933112144470215 Y13.243225336074829 Z3.1
G4 P500
G1 F1800 X2.523487091064453 Y13.346112251281738 Z3.1
G4 P500
G1 F1800 X2.991758346557617 Y13.556864261627197 Z3.1
G4 P500
G1 F1800 X3.3071250915527344 Y13.698799133300781 Z3.1
G4 P500
G1 F1800 X3.746579647064209 Y13.964458465576172 Z3.1
G4 P500
G1 F1800 X4.042538166046143 Y14.143372058868408 Z3.1
G4 P500
G1 F1800 X4.4467668533325195 Y14.46006441116333 Z3.1
G4 P500
G1 F1800 X4.7190022468566895 Y14.673347473144531 Z3.1
G4 P500
G1 F1800 X5.082110404968262 Y15.036455631256104 Z3.1
G4 P500
; LAYER HEIGHT: 4
G1 F1800 X5.758125305175781 Y14.49379587173462 Z4.1
G4 P500
G1 F1800 X5.972847938537598 Y14.708518505096436 Z4.1
G4 P500
G1 F1800 X6.379841566085815 Y15.228007793426514 Z4.1
G4 P500
G1 F1800 X6.5671164989471436 Y15.467046737670898 Z4.1
G4 P500
G1 F1800 X6.908525228500366 Y16.031805992126465 Z4.1
G4 P500
G1 F1800 X7.065621852874756 Y16.291675567626953 Z4.1
G4 P500
G1 F1800 X7.336467266082764 Y16.89346933364868 Z4.1
G4 P500
G1 F1800 X7.461094856262207 Y17.170379638671875 Z4.1
G4 P500
G1 F1800 X7.657427072525024 Y17.800432682037354 Z4.1
G4 P500
G1 F1800 X7.747767925262451 Y18.090346336364746 Z4.1
G4 P500
G1 F1800 X7.866724491119385 Y18.73947048187256 Z4.1
G4 P500
G1 F1800 X7.921461343765259 Y19.03816032409668 Z4.1
G4 P500
G1 F1800 X7.961307048797607 Y19.696890830993652 Z4.1
G4 P500
G1 F1800 X7.979641914367676 Y20.0 Z4.1
G4 P500
G1 F1800 X7.939795970916748 Y20.658730506896973 Z4.1
G4 P500
G1 F1800 X7.921461343765259 Y20.96183967590332 Z4.1
G4 P500
G1 F1800 X7.802504777908325 Y21.610963821411133 Z4.1
G4 P500
G1 F1800 X7.747767925262451 Y21.909653663635254 Z4.1
G4 P500
G1 F1800 X7.551435470581055 Y22.539706230163574 Z4.1
G4 P500
G1 F1800 X7.461094856262207 Y22.82961940765381 Z4.1
G4 P500
G1 F1800 X7.19024920463562 Y23.431413650512695 Z4.1
G4 P500
G1 F1800 X7.065621852874756 Y23.708324432373047 Z4.1
G4 P500
G1 F1800 X6.724213123321533 Y24.273083686828613 Z4.1
G4 P500
G1 F1800 X6.5671164989471436 Y24.5329532623291 Z4.1
G4 P500
G1 F1800 X6.160122632980347 Y25.05244255065918 Z4.1
G4 P500
G1 F1800 X5.972847938537598 Y25.291481971740723 Z4.1
G4 P500
G1 F1800 X5.506204128265381 Y25.75812530517578 Z4.1
G4 P500
G1 F1800 X5.2914814949035645 Y25.97284698486328 Z4.1
G4 P500
G1 F1800 X4.771992206573486 Y26.379840850830078 Z4.1
G4 P500
G1 F1800 X4.532953262329102 Y26.567115783691406 Z4.1
G4 P500
G1 F1800 X3.968194007873535 Y26.908525466918945 Z4.1
G4 P500
G1 F1800 X3.708324432373047 Y27.065622329711914 Z4.1
G4 P500
G1 F1800 X3.1065306663513184 Y27.336467742919922 Z4.1
G4 P500
G1 F1800 X2.829620361328125 Y27.46109390258789 Z4.1
G4 P500
G1 F1800 X2.1995673179626465 Y27.657426834106445 Z4.1
G4 P500
G1 F1800 X1.909653663635254 Y27.747766494750977 Z4.1
G4 P500
G1 F1800 X1.2605295181274414 Y27.866724014282227 Z4.1
G4 P500
G1 F1800 X0.9618396759033203 Y27.92146110534668 Z4.1
G4 P500
G1 F1800 X0.30310916900634766 Y27.961307525634766 Z4.1
G4 P500
G1 F1800 X0.0 Y27.979642868041992 Z4.1
G4 P500
G1 F1800 X-0.6587305068969727 Y27.939796447753906 Z4.1
G4 P500
G1 F1800 X-0.9618396759033203 Y27.92146110534668 Z4.1
G4 P500
G1 F1800 X-1.6109638214111328 Y27.80250358581543 Z4.1
G4 P500
G1 F1800 X-1.909653663635254 Y27.747766494750977 Z4.1
G4 P500
G1 F1800 X-2.539706230163574 Y27.551435470581055 Z4.1
G4 P500
G1 F1800 X-2.8296194076538086 Y27.46109390258789 Z4.1
G4 P500
G1 F1800 X-3.4314136505126953 Y27.190250396728516 Z4.1
G4 P500
G1 F1800 X-3.708324432373047 Y27.065622329711914 Z4.1
G4 P500
G1 F1800 X-4.273083686828613 Y26.724212646484375 Z4.1
G4 P500
G1 F1800 X-4.532953262329102 Y26.567115783691406 Z4.1
G4 P500
G1 F1800 X-5.05244255065918 Y26.16012191772461 Z4.1
G4 P500
G1 F1800 X-5.291481971740723 Y25.97284698486328 Z4.1
G4 P500
G1 F1800 X-5.758125305175781 Y25.506203651428223 Z4.1
G4 P500
G1 F1800 X-5.972846984863281 Y25.291481971740723 Z4.1
G4 P500
G1 F1800 X-6.379840850830078 Y24.771992683410645 Z4.1
G4 P500
G1 F1800 X-6.567115783691406 Y24.5329532623291 Z4.1
G4 P500
G1 F1800 X-6.908525466918945 Y23.968194007873535 Z4.1
G4 P500
G1 F1800 X-7.065622329711914 Y23.708324432373047 Z4.1
G4 P500
G1 F1800 X-7.336467742919922 Y23.10653018951416 Z4.1
G4 P500
G1 F1800 X-7.461093902587891 Y22.82961940765381 Z4.1
G4 P500
G1 F1800 X-7.657426834106445 Y22.19956684112549 Z4.1
G4 P500
G1 F1800 X-7.747766494750977 Y21.909653663635254 Z4.1
G4 P500
G1 F1800 X-7.866724014282227 Y21.26052951812744 Z4.1
G4 P500
G1 F1800 X-7.92146110534668 Y20.96183967590332 Z4.1
G4 P500
G1 F1800 X-7.961307525634766 Y20.303109169006348 Z4.1
G4 P500
G1 F1800 X-7.979642868041992 Y20.0 Z4.1
G4 P500
G1 F1800 X-7.939796447753906 Y19.341269493103027 Z4.1
G4 P500
G1 F1800 X-7.92146110534668 Y19.03816032409668 Z4.1
G4 P500
G1 F1800 X-7.80250358581543 Y18.389036178588867 Z4.1
G4 P500
G1 F1800 X-7.747766494750977 Y18.090346336364746 Z4.1
G4 P500
G1 F1800 X-7.551435470581055 Y17.460293769836426 Z4.1
G4 P500
G1 F1800 X-7.461093902587891 Y17.170379638671875 Z4.1
G4 P500
G1 F1800 X-7.190250396728516 Y16.568585872650146 Z4.1
G4 P500
G1 F1800 X-7.065622329711914 Y16.291675567626953 Z4.1
G4 P500
G1 F1800 X-6.724212646484375 Y15.726916313171387 Z4.1
G4 P500
G1 F1800 X-6.567115783691406 Y15.467046737670898 Z4.1
G4 P500
G1 F1800 X-6.160121917724609 Y14.94755744934082 Z4.1
G4 P500
G1 F1800 X-5.972846984863281 Y14.708518505096436 Z4.1
G4 P500
G1 F1800 X-5.506203651428223 Y14.241874694824219 Z4.1
G4 P500
G1 F1800 X-5.291481971740723 Y14.027152061462402 Z4.1
G4 P500
G1 F1800 X-4.7719926834106445 Y13.620158433914185 Z4.1
G4 P500
G1 F1800 X-4.532953262329102 Y13.432883501052856 Z4.1
G4 P500
G1 F1800 X-3.968194007873535 Y13.091474771499634 Z4.1
G4 P500
G1 F1800 X-3.708324432373047 Y12.934378147125244 Z4.1
G4 P500
G1 F1800 X-3.10653018951416 Y12.663532733917236 Z4.1
G4 P500
G1 F1800 X-2.8296194076538086 Y12.538905143737793 Z4.1
G4 P500
G1 F1800 X-2.1995668411254883 Y12.342572927474976 Z4.1
G4 P500
G1 F1800 X-1.909653663635254 Y12.252232074737549 Z4.1
G4 P500
G1 F1800 X-1.2605295181274414 Y12.133275508880615 Z4.1
G4 P500
G1 F1800 X-0.9618396759033203 Y12.078538656234741 Z4.1
G4 P500
G1 F1800 X-0.30310916900634766 Y12.038692951202393 Z4.1
G4 P500
G1 F1800 X0.0 Y12.020358085632324 Z4.1
G4 P500
G1 F1800 X0.6587305068969727 Y12.060204029083252 Z4.1
G4 P500
G1 F1800 X0.9618396759033203 Y12.078538656234741 Z4.1
G4 P500
G1 F1800 X1.6109638214111328 Y12.197495222091675 Z4.1
G4 P500
G1 F1800 X1.909653663635254 Y12.252232074737549 Z4.1
G4 P500
G1 F1800 X2.539706230163574 Y12.448564529418945 Z4.1
G4 P500
G1 F1800 X2.829620361328125 Y12.538905143737793 Z4.1
G4 P500
G1 F1800 X3.4314141273498535 Y12.80975079536438 Z4.1
G4 P500
G1 F1800 X3.708324432373047 Y12.934378147125244 Z4.1
G4 P500
G1 F1800 X4.273083686828613 Y13.275786876678467 Z4.1
G4 P500
G1 F1800 X4.532953262329102 Y13.432883501052856 Z4.1
G4 P500
G1 F1800 X5.05244255065918 Y13.839877367019653 Z4.1
G4 P500
G1 F1800 X5.2914814949035645 Y14.027152061462402 Z4.1
G4 P500
G1 F1800 X5.758125305175781 Y14.49379587173462 Z4.1
G4 P500
; LAYER HEIGHT: 5
G1 F1800 X6.228224039077759 Y14.02987003326416 Z5.1
G4 P500
G1 F1800 X6.468109130859375 Y14.269754886627197 Z5.1
G4 P500
G1 F1800 X6.902432918548584 Y14.8241286277771 Z5.1
G4 P500
G1 F1800 X7.111653804779053 Y15.091179847717285 Z5.1
G4 P500
G1 F1800 X7.4759886264801025 Y15.693862915039062 Z5.1
G4 P500
G1 F1800 X7.651494979858398 Y15.984185695648193 Z5.1
G4 P500
G1 F1800 X7.94052791595459 Y16.62639045715332 Z5.1
G4 P500
G1 F1800 X8.0797598361969 Y16.93575143814087 Z5.1
G4 P500
G1 F1800 X8.289276123046875 Y17.608112812042236 Z5.1
G4 P500
G1 F1800 X8.390203714370728 Y17.932000637054443 Z5.1
G4 P500
G1 F1800 X8.51714825630188 Y18.624713897705078 Z5.1
G4 P500
G1 F1800 X8.578299522399902 Y18.958406448364258 Z5.1
G4 P500
G1 F1800 X8.620820999145508 Y19.661370277404785 Z5.1
G4 P500
G1 F1800 X8.64130425453186 Y20.0 Z5.1
G4 P500
G1 F1800 X8.598782777786255 Y20.702963829040527 Z5.1
G4 P500
G1 F1800 X8.578299522399902 Y21.041593551635742 Z5.1
G4 P500
G1 F1800 X8.45135498046875 Y21.734307289123535 Z5.1
G4 P500
G1 F1800 X8.390203714370728 Y22.0679988861084 Z5.1
G4 P500
G1 F1800 X8.180687427520752 Y22.740361213684082 Z5.1
G4 P500
G1 F1800 X8.0797598361969 Y23.06424903869629 Z5.1
G4 P500
G1 F1800 X7.790726900100708 Y23.706453323364258 Z5.1
G4 P500
G1 F1800 X7.651494979858398 Y24.015814781188965 Z5.1
G4 P500
G1 F1800 X7.287160158157349 Y24.618497848510742 Z5.1
G4 P500
G1 F1800 X7.111653804779053 Y24.908820152282715 Z5.1
G4 P500
G1 F1800 X6.677330255508423 Y25.463193893432617 Z5.1
G4 P500
G1 F1800 X6.468109130859375 Y25.730244636535645 Z5.1
G4 P500
G1 F1800 X5.97012996673584 Y26.22822380065918 Z5.1
G4 P500
G1 F1800 X5.730245113372803 Y26.468109130859375 Z5.1
G4 P500
G1 F1800 X5.1758713722229 Y26.902433395385742 Z5.1
G4 P500
G1 F1800 X4.908820152282715 Y27.11165428161621 Z5.1
G4 P500
G1 F1800 X4.3061370849609375 Y27.475988388061523 Z5.1
G4 P500
G1 F1800 X4.015814304351807 Y27.6514949798584 Z5.1
G4 P500
G1 F1800 X3.3736095428466797 Y27.940528869628906 Z5.1
G4 P500
G1 F1800 X3.064248561859131 Y28.07975959777832 Z5.1
G4 P500
G1 F1800 X2.3918871879577637 Y28.289276123046875 Z5.1
G4 P500
G1 F1800 X2.0679993629455566 Y28.39020347595215 Z5.1
G4 P500
G1 F1800 X1.3752861022949219 Y28.517148971557617 Z5.1
G4 P500
G1 F1800 X1.0415935516357422 Y28.57830047607422 Z5.1
G4 P500
G1 F1800 X0.33862972259521484 Y28.620820999145508 Z5.1
G4 P500
G1 F1800 X0.0 Y28.64130401611328 Z5.1
G4 P500
G1 F1800 X-0.7029638290405273 Y28.598783493041992 Z5.1
G4 P500
G1 F1800 X-1.0415935516357422 Y28.57830047607422 Z5.1
G4 P500
G1 F1800 X-1.7343072891235352 Y28.45135498046875 Z5.1
G4 P500
G1 F1800 X-2.0679988861083984 Y28.39020347595215 Z5.1
G4 P500
G1 F1800 X-2.740361213684082 Y28.180686950683594 Z5.1
G4 P500
G1 F1800 X-3.064249038696289 Y28.07975959777832 Z5.1
G4 P500
G1 F1800 X-3.706453323364258 Y27.790727615356445 Z5.1
G4 P500
G1 F1800 X-4.015814781188965 Y27.6514949798584 Z5.1
G4 P500
G1 F1800 X-4.618497848510742 Y27.287160873413086 Z5.1
G4 P500
G1 F1800 X-4.908820152282715 Y27.11165428161621 Z5.1
G4 P500
G1 F1800 X-5.463193893432617 Y26.677330017089844 Z5.1
G4 P500
G1 F1800 X-5.7302446365356445 Y26.468109130859375 Z5.1
G4 P500
G1 F1800 X-6.22822380065918 Y25.970129013061523 Z5.1
G4 P500
G1 F1800 X-6.468109130859375 Y25.730244636535645 Z5.1
G4 P500
G1 F1800 X-6.902433395385742 Y25.17587184906006 Z5.1
G4 P500
G1 F1800 X-7.111654281616211 Y24.908820152282715 Z5.1
G4 P500
G1 F1800 X-7.475988388061523 Y24.306137084960938 Z5.1
G4 P500
G1 F1800 X-7.651494979858398 Y24.015814781188965 Z5.1
G4 P500
G1 F1800 X-7.940528869628906 Y23.37360954284668 Z5.1
G4 P500
G1 F1800 X-8.07975959777832 Y23.06424903869629 Z5.1
G4 P500
G1 F1800 X-8.289276123046875 Y22.391886711120605 Z5.1
G4 P500
G1 F1800 X-8.390203475952148 Y22.0679988861084 Z5.1
G4 P500
G1 F1800 X-8.517148971557617 Y21.375286102294922 Z5.1
G4 P500
G1 F1800 X-8.578300476074219 Y21.041593551635742 Z5.1
G4 P500
G1 F1800 X-8.620820999145508 Y20.338629722595215 Z5.1
G4 P500
G1 F1800 X-8.641304016113281 Y20.0 Z5.1
G4 P500
G1 F1800 X-8.598783493041992 Y19.297036170959473 Z5.1
G4 P500
G1 F1800 X-8.578300476074219 Y18.958406448364258 Z5.1
G4 P500
G1 F1800 X-8.45135498046875 Y18.265692710876465 Z5.1
G4 P500
G1 F1800 X-8.390203475952148 Y17.932000637054443 Z5.1
G4 P500
G1 F1800 X-8.180686950683594 Y17.259639263153076 Z5.1
G4 P500
G1 F1800 X-8.07975959777832 Y16.93575143814087 Z5.1
G4 P500
G1 F1800 X-7.790727615356445 Y16.293546676635742 Z5.1
G4 P500
G1 F1800 X-7.651494979858398 Y15.984185695648193 Z5.1
G4 P500
G1 F1800 X-7.287160873413086 Y15.381502151489258 Z5.1
G4 P500
G1 F1800 X-7.111654281616211 Y15.091179847717285 Z5.1
G4 P500
G1 F1800 X-6.677330017089844 Y14.536806106567383 Z5.1
G4 P500
G1 F1800 X-6.468109130859375 Y14.269754886627197 Z5.1
G4 P500
G1 F1800 X-5.970129013061523 Y13.771775960922241 Z5.1
G4 P500
G1 F1800 X-5.7302446365356445 Y13.531890869140625 Z5.1
G4 P500
G1 F1800 X-5.175871849060059 Y13.097567081451416 Z5.1
G4 P500
G1 F1800 X-4.908820152282715 Y12.888346195220947 Z5.1
G4 P500
G1 F1800 X-4.3061370849609375 Y12.524011373519897 Z5.1
G4 P500
G1 F1800 X-4.015814781188965 Y12.348505020141602 Z5.1
G4 P500
G1 F1800 X-3.3736095428466797 Y12.05947208404541 Z5.1
G4 P500
G1 F1800 X-3.064249038696289 Y11.9202401638031 Z5.1
G4 P500
G1 F1800 X-2.3918867111206055 Y11.710723876953125 Z5.1
G4 P500
G1 F1800 X-2.0679988861083984 Y11.609796285629272 Z5.1
G4 P500
G1 F1800 X-1.3752861022949219 Y11.48285174369812 Z5.1
G4 P500
G1 F1800 X-1.0415935516357422 Y11.421700477600098 Z5.1
G4 P500
G1 F1800 X-0.33862972259521484 Y11.379179000854492 Z5.1
G4 P500
G1 F1800 X0.0 Y11.35869574546814 Z5.1
G4 P500
G1 F1800 X0.7029638290405273 Y11.401217222213745 Z5.1
G4 P500
G1 F1800 X1.0415935516357422 Y11.421700477600098 Z5.1
G4 P500
G1 F1800 X1.7343072891235352 Y11.54864501953125 Z5.1
G4 P500
G1 F1800 X2.0679993629455566 Y11.609796285629272 Z5.1
G4 P500
G1 F1800 X2.740360736846924 Y11.819312572479248 Z5.1
G4 P500
G1 F1800 X3.064248561859131 Y11.9202401638031 Z5.1
G4 P500
G1 F1800 X3.706453323364258 Y12.209273099899292 Z5.1
G4 P500
G1 F1800 X4.015814304351807 Y12.348505020141602 Z5.1
G4 P500
G1 F1800 X4.618497848510742 Y12.712839841842651 Z5.1
G4 P500
G1 F1800 X4.908820152282715 Y12.888346195220947 Z5.1
G4 P500
G1 F1800 X5.463193893432617 Y13.322669744491577 Z5.1
G4 P500
G1 F1800 X5.730245113372803 Y13.531890869140625 Z5.1
G4 P500
G1 F1800 X6.228224039077759 Y14.02987003326416 Z5.1
G4 P500
; LAYER HEIGHT: 6
G1 F1800 X6.534087419509888 Y13.623492240905762 Z6.1
G4 P500
G1 F1800 X6.845771074295044 Y13.935175895690918 Z6.1
G4 P500
G1 F1800 X7.255049705505371 Y14.457581043243408 Z6.1
G4 P500
G1 F1800 X7.526891469955444 Y14.804562091827393 Z6.1
G4 P500
G1 F1800 X7.8702168464660645 Y15.372491359710693 Z6.1
G4 P500
G1 F1800 X8.098252892494202 Y15.749709129333496 Z6.1
G4 P500
G1 F1800 X8.37061858177185 Y16.354881286621094 Z6.1
G4 P500
G1 F1800 X8.551523447036743 Y16.756834983825684 Z6.1
G4 P500
G1 F1800 X8.748957991600037 Y17.390424728393555 Z6.1
G4 P500
G1 F1800 X8.880093574523926 Y17.811253547668457 Z6.1
G4 P500
G1 F1800 X8.999717831611633 Y18.464021682739258 Z6.1
G4 P500
G1 F1800 X9.07917195558548 Y18.8975887298584 Z6.1
G4 P500
G1 F1800 X9.11924147605896 Y19.560016632080078 Z6.1
G4 P500
G1 F1800 X9.14585554599762 Y20.0 Z6.1
G4 P500
G1 F1800 X9.10578602552414 Y20.66242790222168 Z6.1
G4 P500
G1 F1800 X9.07917195558548 Y21.1024112701416 Z6.1
G4 P500
G1 F1800 X8.959547758102417 Y21.755179405212402 Z6.1
G4 P500
G1 F1800 X8.880093574523926 Y22.188746452331543 Z6.1
G4 P500
G1 F1800 X8.682659029960632 Y22.822336196899414 Z6.1
G4 P500
G1 F1800 X8.551523447036743 Y23.243165016174316 Z6.1
G4 P500
G1 F1800 X8.279157638549805 Y23.848337173461914 Z6.1
G4 P500
G1 F1800 X8.098252892494202 Y24.250290870666504 Z6.1
G4 P500
G1 F1800 X7.754927396774292 Y24.81822109222412 Z6.1
G4 P500
G1 F1800 X7.526891469955444 Y25.195438385009766 Z6.1
G4 P500
G1 F1800 X7.117613077163696 Y25.717843055725098 Z6.1
G4 P500
G1 F1800 X6.845771074295044 Y26.064823150634766 Z6.1
G4 P500
G1 F1800 X6.376507759094238 Y26.534088134765625 Z6.1
G4 P500
G1 F1800 X6.064824104309082 Y26.84577178955078 Z6.1
G4 P500
G1 F1800 X5.542418956756592 Y27.255048751831055 Z6.1
G4 P500
G1 F1800 X5.195437908172607 Y27.526891708374023 Z6.1
G4 P500
G1 F1800 X4.627508640289307 Y27.870216369628906 Z6.1
G4 P500
G1 F1800 X4.250290870666504 Y28.09825325012207 Z6.1
G4 P500
G1 F1800 X3.6451187133789062 Y28.37061882019043 Z6.1
G4 P500
G1 F1800 X3.2431650161743164 Y28.551523208618164 Z6.1
G4 P500
G1 F1800 X2.6095752716064453 Y28.748958587646484 Z6.1
G4 P500
G1 F1800 X2.188746452331543 Y28.880094528198242 Z6.1
G4 P500
G1 F1800 X1.5359783172607422 Y28.999717712402344 Z6.1
G4 P500
G1 F1800 X1.1024112701416016 Y29.079172134399414 Z6.1
G4 P500
G1 F1800 X0.4399833679199219 Y29.11924171447754 Z6.1
G4 P500
G1 F1800 X0.0 Y29.145854949951172 Z6.1
G4 P500
G1 F1800 X-0.6624279022216797 Y29.10578727722168 Z6.1
G4 P500
G1 F1800 X-1.1024112701416016 Y29.079172134399414 Z6.1
G4 P500
G1 F1800 X-1.7551794052124023 Y28.959548950195312 Z6.1
G4 P500
G1 F1800 X-2.188746452331543 Y28.880094528198242 Z6.1
G4 P500
G1 F1800 X-2.822336196899414 Y28.682659149169922 Z6.1
G4 P500
G1 F1800 X-3.2431650161743164 Y28.551523208618164 Z6.1
G4 P500
G1 F1800 X-3.848337173461914 Y28.279157638549805 Z6.1
G4 P500
G1 F1800 X-4.250290870666504 Y28.09825325012207 Z6.1
G4 P500
G1 F1800 X-4.818221092224121 Y27.754926681518555 Z6.1
G4 P500
G1 F1800 X-5.195438385009766 Y27.526891708374023 Z6.1
G4 P500
G1 F1800 X-5.717843055725098 Y27.117612838745117 Z6.1
G4 P500
G1 F1800 X-6.064823150634766 Y26.84577178955078 Z6.1
G4 P500
G1 F1800 X-6.534088134765625 Y26.376506805419922 Z6.1
G4 P500
G1 F1800 X-6.845771789550781 Y26.064823150634766 Z6.1
G4 P500
G1 F1800 X-7.255048751831055 Y25.542418479919434 Z6.1
G4 P500
G1 F1800 X-7.526891708374023 Y25.195438385009766 Z6.1
G4 P500
G1 F1800 X-7.870216369628906 Y24.62750816345215 Z6.1
G4 P500
G1 F1800 X-8.09825325012207 Y24.250290870666504 Z6.1
G4 P500
G1 F1800 X-8.37061882019043 Y23.645119667053223 Z6.1
G4 P500
G1 F1800 X-8.551523208618164 Y23.243165016174316 Z6.1
G4 P500
G1 F1800 X-8.748958587646484 Y22.609575271606445 Z6.1
G4 P500
G1 F1800 X-8.880094528198242 Y22.188746452331543 Z6.1
G4 P500
G1 F1800 X-8.999717712402344 Y21.535978317260742 Z6.1
G4 P500
G1 F1800 X-9.079172134399414 Y21.1024112701416 Z6.1
G4 P500
G1 F1800 X-9.119241714477539 Y20.439983367919922 Z6.1
G4 P500
G1 F1800 X-9.145854949951172 Y20.0 Z6.1
G4 P500
G1 F1800 X-9.10578727722168 Y19.33757209777832 Z6.1
G4 P500
G1 F1800 X-9.079172134399414 Y18.8975887298584 Z6.1
G4 P500
G1 F1800 X-8.959548950195312 Y18.244820594787598 Z6.1
G4 P500
G1 F1800 X-8.880094528198242 Y17.811253547668457 Z6.1
G4 P500
G1 F1800 X-8.682659149169922 Y17.177663803100586 Z6.1
G4 P500
G1 F1800 X-8.551523208618164 Y16.756834983825684 Z6.1
G4 P500
G1 F1800 X-8.279157638549805 Y16.151662826538086 Z6.1
G4 P500
G1 F1800 X-8.09825325012207 Y15.749709129333496 Z6.1
G4 P500
G1 F1800 X-7.754926681518555 Y15.181779384613037 Z6.1
G4 P500
G1 F1800 X-7.526891708374023 Y14.804562091827393 Z6.1
G4 P500
G1 F1800 X-7.117612838745117 Y14.282156467437744 Z6.1
G4 P500
G1 F1800 X-6.845771789550781 Y13.935175895690918 Z6.1
G4 P500
G1 F1800 X-6.376506805419922 Y13.465912580490112 Z6.1
G4 P500
G1 F1800 X-6.064823150634766 Y13.154228925704956 Z6.1
G4 P500
G1 F1800 X-5.542418479919434 Y12.744950294494629 Z6.1
G4 P500
G1 F1800 X-5.195438385009766 Y12.473108530044556 Z6.1
G4 P500
G1 F1800 X-4.627508163452148 Y12.129783153533936 Z6.1
G4 P500
G1 F1800 X-4.250290870666504 Y11.901747107505798 Z6.1
G4 P500
G1 F1800 X-3.6451196670532227 Y11.62938141822815 Z6.1
G4 P500
G1 F1800 X-3.2431650161743164 Y11.448476552963257 Z6.1
G4 P500
G1 F1800 X-2.6095752716064453 Y11.251042008399963 Z6.1
G4 P500
G1 F1800 X-2.188746452331543 Y11.119906425476074 Z6.1
G4 P500
G1 F1800 X-1.5359783172607422 Y11.000282168388367 Z6.1
G4 P500
G1 F1800 X-1.1024112701416016 Y10.92082804441452 Z6.1
G4 P500
G1 F1800 X-0.4399833679199219 Y10.88075852394104 Z6.1
G4 P500
G1 F1800 X0.0 Y10.85414445400238 Z6.1
G4 P500
G1 F1800 X0.6624279022216797 Y10.89421397447586 Z6.1
G4 P500
G1 F1800 X1.1024112701416016 Y10.92082804441452 Z6.1
G4 P500
G1 F1800 X1.7551794052124023 Y11.040452241897583 Z6.1
G4 P500
G1 F1800 X2.188746452331543 Y11.119906425476074 Z6.1
G4 P500
G1 F1800 X2.822336196899414 Y11.317340970039368 Z6.1
G4 P500
G1 F1800 X3.2431650161743164 Y11.448476552963257 Z6.1
G4 P500
G1 F1800 X3.848337173461914 Y11.720842361450195 Z6.1
G4 P500
G1 F1800 X4.250290870666504 Y11.901747107505798 Z6.1
G4 P500
G1 F1800 X4.818220615386963 Y12.245072603225708 Z6.1
G4 P500
G1 F1800 X5.195437908172607 Y12.473108530044556 Z6.1
G4 P500
G1 F1800 X5.717843532562256 Y12.882386922836304 Z6.1
G4 P500
G1 F1800 X6.064824104309082 Y13.154228925704956 Z6.1
G4 P500
G1 F1800 X6.534087419509888 Y13.623492240905762 Z6.1
G4 P500
; LAYER HEIGHT: 7
G1 F1800 X6.705813407897949 Y13.266614437103271 Z7.1
G4 P500
G1 F1800 X6.313138723373413 Y12.873939514160156 Z7.1
G4 P500
G1 F1800 X5.845300674438477 Y12.50741195678711 Z7.1
G4 P500
G1 F1800 X5.4081573486328125 Y12.164931774139404 Z7.1
G4 P500
G1 F1800 X4.899550437927246 Y11.857468247413635 Z7.1
G4 P500
G1 F1800 X4.424312591552734 Y11.57017695903778 Z7.1
G4 P500
G1 F1800 X3.8823533058166504 Y11.326260924339294 Z7.1
G4 P500
G1 F1800 X3.3759512901306152 Y11.098348021507263 Z7.1
G4 P500
G1 F1800 X2.8085427284240723 Y10.921536326408386 Z7.1
G4 P500
G1 F1800 X2.2783613204956055 Y10.75632506608963 Z7.1
G4 P500
G1 F1800 X1.6937780380249023 Y10.649196088314056 Z7.1
G4 P500
G1 F1800 X1.147547721862793 Y10.549095749855042 Z7.1
G4 P500
G1 F1800 X0.5543136596679688 Y10.51321166753769 Z7.1
G4 P500
G1 F1800 X0.0 Y10.47968190908432 Z7.1
G4 P500
G1 F1800 X-0.5932350158691406 Y10.515565991401672 Z7.1
G4 P500
G1 F1800 X-1.147547721862793 Y10.549095749855042 Z7.1
G4 P500
G1 F1800 X-1.7321319580078125 Y10.656224727630615 Z7.1
G4 P500
G1 F1800 X-2.2783613204956055 Y10.75632506608963 Z7.1
G4 P500
G1 F1800 X-2.8457698822021484 Y10.933136701583862 Z7.1
G4 P500
G1 F1800 X-3.3759517669677734 Y11.098348021507263 Z7.1
G4 P500
G1 F1800 X-3.917910575866699 Y11.34226405620575 Z7.1
G4 P500
G1 F1800 X-4.424312591552734 Y11.57017695903778 Z7.1
G4 P500
G1 F1800 X-4.932919502258301 Y11.87764060497284 Z7.1
G4 P500
G1 F1800 X-5.4081573486328125 Y12.164931774139404 Z7.1
G4 P500
G1 F1800 X-5.875994682312012 Y12.531459331512451 Z7.1
G4 P500
G1 F1800 X-6.313138961791992 Y12.873939514160156 Z7.1
G4 P500
G1 F1800 X-6.73338508605957 Y13.29418659210205 Z7.1
G4 P500
G1 F1800 X-7.126060485839844 Y13.686861276626587 Z7.1
G4 P500
G1 F1800 X-7.492588043212891 Y14.154699325561523 Z7.1
G4 P500
G1 F1800 X-7.8350677490234375 Y14.591842651367188 Z7.1
G4 P500
G1 F1800 X-8.142532348632812 Y15.100449562072754 Z7.1
G4 P500
G1 F1800 X-8.42982292175293 Y15.575687408447266 Z7.1
G4 P500
G1 F1800 X-8.673738479614258 Y16.11764669418335 Z7.1
G4 P500
G1 F1800 X-8.901653289794922 Y16.624048709869385 Z7.1
G4 P500
G1 F1800 X-9.07846450805664 Y17.191457271575928 Z7.1
G4 P500
G1 F1800 X-9.243675231933594 Y17.721638679504395 Z7.1
G4 P500
G1 F1800 X-9.350805282592773 Y18.306221961975098 Z7.1
G4 P500
G1 F1800 X-9.450904846191406 Y18.852452278137207 Z7.1
G4 P500
G1 F1800 X-9.486787796020508 Y19.44568634033203 Z7.1
G4 P500
G1 F1800 X-9.520317077636719 Y20.0 Z7.1
G4 P500
G1 F1800 X-9.484434127807617 Y20.59323501586914 Z7.1
G4 P500
G1 F1800 X-9.450904846191406 Y21.147547721862793 Z7.1
G4 P500
G1 F1800 X-9.34377670288086 Y21.732131958007812 Z7.1
G4 P500
G1 F1800 X-9.243675231933594 Y22.278361320495605 Z7.1
G4 P500
G1 F1800 X-9.066864013671875 Y22.84576988220215 Z7.1
G4 P500
G1 F1800 X-8.901653289794922 Y23.375951766967773 Z7.1
G4 P500
G1 F1800 X-8.657735824584961 Y23.9179105758667 Z7.1
G4 P500
G1 F1800 X-8.42982292175293 Y24.424312591552734 Z7.1
G4 P500
G1 F1800 X-8.122360229492188 Y24.9329195022583 Z7.1
G4 P500
G1 F1800 X-7.8350677490234375 Y25.408157348632812 Z7.1
G4 P500
G1 F1800 X-7.468540191650391 Y25.87599468231201 Z7.1
G4 P500
G1 F1800 X-7.126060485839844 Y26.313138961791992 Z7.1
G4 P500
G1 F1800 X-6.705812454223633 Y26.73338508605957 Z7.1
G4 P500
G1 F1800 X-6.313138961791992 Y27.126060485839844 Z7.1
G4 P500
G1 F1800 X-5.845300674438477 Y27.49258804321289 Z7.1
G4 P500
G1 F1800 X-5.4081573486328125 Y27.835067749023438 Z7.1
G4 P500
G1 F1800 X-4.899550437927246 Y28.142532348632812 Z7.1
G4 P500
G1 F1800 X-4.424312591552734 Y28.42982292175293 Z7.1
G4 P500
G1 F1800 X-3.8823537826538086 Y28.673738479614258 Z7.1
G4 P500
G1 F1800 X-3.3759517669677734 Y28.901653289794922 Z7.1
G4 P500
G1 F1800 X-2.8085432052612305 Y29.07846450805664 Z7.1
G4 P500
G1 F1800 X-2.2783613204956055 Y29.243675231933594 Z7.1
G4 P500
G1 F1800 X-1.6937780380249023 Y29.350805282592773 Z7.1
G4 P500
G1 F1800 X-1.147547721862793 Y29.450904846191406 Z7.1
G4 P500
G1 F1800 X-0.5543136596679688 Y29.486787796020508 Z7.1
G4 P500
G1 F1800 X0.0 Y29.52031707763672 Z7.1
G4 P500
G1 F1800 X0.5932350158691406 Y29.484434127807617 Z7.1
G4 P500
G1 F1800 X1.147547721862793 Y29.450904846191406 Z7.1
G4 P500
G1 F1800 X1.7321319580078125 Y29.34377670288086 Z7.1
G4 P500
G1 F1800 X2.2783613204956055 Y29.243675231933594 Z7.1
G4 P500
G1 F1800 X2.8457698822021484 Y29.066864013671875 Z7.1
G4 P500
G1 F1800 X3.3759512901306152 Y28.901653289794922 Z7.1
G4 P500
G1 F1800 X3.917910575866699 Y28.65773582458496 Z7.1
G4 P500
G1 F1800 X4.424312591552734 Y28.42982292175293 Z7.1
G4 P500
G1 F1800 X4.932919502258301 Y28.122360229492188 Z7.1
G4 P500
G1 F1800 X5.4081573486328125 Y27.835067749023438 Z7.1
G4 P500
G1 F1800 X5.87599515914917 Y27.46854019165039 Z7.1
G4 P500
G1 F1800 X6.313138723373413 Y27.126060485839844 Z7.1
G4 P500
G1 F1800 X6.7333855628967285 Y26.705812454223633 Z7.1
G4 P500
G1 F1800 X7.126060485839844 Y26.313138961791992 Z7.1
G4 P500
G1 F1800 X7.492588043212891 Y25.845300674438477 Z7.1
G4 P500
G1 F1800 X7.835068225860596 Y25.408157348632812 Z7.1
G4 P500
G1 F1800 X8.142531752586365 Y24.899550437927246 Z7.1
G4 P500
G1 F1800 X8.42982304096222 Y24.424312591552734 Z7.1
G4 P500
G1 F1800 X8.673739075660706 Y23.88235378265381 Z7.1
G4 P500
G1 F1800 X8.901651978492737 Y23.375951766967773 Z7.1
G4 P500
G1 F1800 X9.078463673591614 Y22.80854320526123 Z7.1
G4 P500
G1 F1800 X9.24367493391037 Y22.278361320495605 Z7.1
G4 P500
G1 F1800 X9.350803911685944 Y21.693778038024902 Z7.1
G4 P500
G1 F1800 X9.450904250144958 Y21.147547721862793 Z7.1
G4 P500
G1 F1800 X9.48678833246231 Y20.55431365966797 Z7.1
G4 P500
G1 F1800 X9.52031809091568 Y20.0 Z7.1
G4 P500
G1 F1800 X9.484434008598328 Y19.40676498413086 Z7.1
G4 P500
G1 F1800 X9.450904250144958 Y18.852452278137207 Z7.1
G4 P500
G1 F1800 X9.343775272369385 Y18.267868041992188 Z7.1
G4 P500
G1 F1800 X9.24367493391037 Y17.721638679504395 Z7.1
G4 P500
G1 F1800 X9.066863298416138 Y17.15423011779785 Z7.1
G4 P500
G1 F1800 X8.901651978492737 Y16.624048709869385 Z7.1
G4 P500
G1 F1800 X8.65773594379425 Y16.0820894241333 Z7.1
G4 P500
G1 F1800 X8.42982304096222 Y15.575687408447266 Z7.1
G4 P500
G1 F1800 X8.12235939502716 Y15.0670804977417 Z7.1
G4 P500
G1 F1800 X7.835068225860596 Y14.591842651367188 Z7.1
G4 P500
G1 F1800 X7.468540668487549 Y14.12400484085083 Z7.1
G4 P500
G1 F1800 X7.126060485839844 Y13.686861276626587 Z7.1
G4 P500
G1 F1800 X6.705813407897949 Y13.266614437103271 Z7.1
G4 P500
; LAYER HEIGHT: 8
G1 F1800 X6.766884803771973 Y12.959039688110352 Z8.1
G4 P500
G1 F1800 X6.4863121509552 Y12.678467035293579 Z8.1
G4 P500
G1 F1800 X5.868852615356445 Y12.1947181224823 Z8.1
G4 P500
G1 F1800 X5.556506633758545 Y11.950010657310486 Z8.1
G4 P500
G1 F1800 X4.885239601135254 Y11.544215440750122 Z8.1
G4 P500
G1 F1800 X4.5456743240356445 Y11.338941216468811 Z8.1
G4 P500
G1 F1800 X3.830388069152832 Y11.017017126083374 Z8.1
G4 P500
G1 F1800 X3.4685559272766113 Y10.85416966676712 Z8.1
G4 P500
G1 F1800 X2.719681739807129 Y10.62081092596054 Z8.1
G4 P500
G1 F1800 X2.3408584594726562 Y10.502764821052551 Z8.1
G4 P500
G1 F1800 X1.5693159103393555 Y10.361374408006668 Z8.1
G4 P500
G1 F1800 X1.179025650024414 Y10.2898510992527 Z8.1
G4 P500
G1 F1800 X0.39606571197509766 Y10.242490738630295 Z8.1
G4 P500
G1 F1800 X0.0 Y10.21853318810463 Z8.1
G4 P500
G1 F1800 X-0.7829599380493164 Y10.265893518924713 Z8.1
G4 P500
G1 F1800 X-1.179025650024414 Y10.2898510992527 Z8.1
G4 P500
G1 F1800 X-1.9505681991577148 Y10.431241512298584 Z8.1
G4 P500
G1 F1800 X-2.3408584594726562 Y10.502764821052551 Z8.1
G4 P500
G1 F1800 X-3.089733123779297 Y10.73612356185913 Z8.1
G4 P500
G1 F1800 X-3.4685564041137695 Y10.85416966676712 Z8.1
G4 P500
G1 F1800 X-4.183841705322266 Y11.176093697547913 Z8.1
G4 P500
G1 F1800 X-4.5456743240356445 Y11.338941216468811 Z8.1
G4 P500
G1 F1800 X-5.216941833496094 Y11.744736433029175 Z8.1
G4 P500
G1 F1800 X-5.556506156921387 Y11.950010657310486 Z8.1
G4 P500
G1 F1800 X-6.1739654541015625 Y12.433759212493896 Z8.1
G4 P500
G1 F1800 X-6.4863128662109375 Y12.678467035293579 Z8.1
G4 P500
G1 F1800 X-7.040960311889648 Y13.233115196228027 Z8.1
G4 P500
G1 F1800 X-7.321533203125 Y13.5136878490448 Z8.1
G4 P500
G1 F1800 X-7.805280685424805 Y14.131147384643555 Z8.1
G4 P500
G1 F1800 X-8.049989700317383 Y14.443493366241455 Z8.1
G4 P500
G1 F1800 X-8.455785751342773 Y15.114760398864746 Z8.1
G4 P500
G1 F1800 X-8.66105842590332 Y15.454325675964355 Z8.1
G4 P500
G1 F1800 X-8.982982635498047 Y16.169611930847168 Z8.1
G4 P500
G1 F1800 X-9.145832061767578 Y16.53144407272339 Z8.1
G4 P500
G1 F1800 X-9.379190444946289 Y17.28031826019287 Z8.1
G4 P500
G1 F1800 X-9.497236251831055 Y17.659141540527344 Z8.1
G4 P500
G1 F1800 X-9.638626098632812 Y18.430684089660645 Z8.1
G4 P500
G1 F1800 X-9.710149765014648 Y18.820974349975586 Z8.1
G4 P500
G1 F1800 X-9.757509231567383 Y19.603934288024902 Z8.1
G4 P500
G1 F1800 X-9.78146743774414 Y20.0 Z8.1
G4 P500
G1 F1800 X-9.734107971191406 Y20.782959938049316 Z8.1
G4 P500
G1 F1800 X-9.710149765014648 Y21.179025650024414 Z8.1
G4 P500
G1 F1800 X-9.568758010864258 Y21.950568199157715 Z8.1
G4 P500
G1 F1800 X-9.497236251831055 Y22.340858459472656 Z8.1
G4 P500
G1 F1800 X-9.263877868652344 Y23.089733123779297 Z8.1
G4 P500
G1 F1800 X-9.145832061767578 Y23.46855640411377 Z8.1
G4 P500
G1 F1800 X-8.823905944824219 Y24.183841705322266 Z8.1
G4 P500
G1 F1800 X-8.66105842590332 Y24.545674324035645 Z8.1
G4 P500
G1 F1800 X-8.255264282226562 Y25.216941833496094 Z8.1
G4 P500
G1 F1800 X-8.049989700317383 Y25.556506156921387 Z8.1
G4 P500
G1 F1800 X-7.566240310668945 Y26.173965454101562 Z8.1
G4 P500
G1 F1800 X-7.321533203125 Y26.486312866210938 Z8.1
G4 P500
G1 F1800 X-6.766885757446289 Y27.04096031188965 Z8.1
G4 P500
G1 F1800 X-6.4863128662109375 Y27.321533203125 Z8.1
G4 P500
G1 F1800 X-5.868852615356445 Y27.805280685424805 Z8.1
G4 P500
G1 F1800 X-5.556506156921387 Y28.049989700317383 Z8.1
G4 P500
G1 F1800 X-4.885239601135254 Y28.455785751342773 Z8.1
G4 P500
G1 F1800 X-4.5456743240356445 Y28.66105842590332 Z8.1
G4 P500
G1 F1800 X-3.830388069152832 Y28.982982635498047 Z8.1
G4 P500
G1 F1800 X-3.4685564041137695 Y29.145832061767578 Z8.1
G4 P500
G1 F1800 X-2.719681739807129 Y29.37919044494629 Z8.1
G4 P500
G1 F1800 X-2.3408584594726562 Y29.497236251831055 Z8.1
G4 P500
G1 F1800 X-1.5693159103393555 Y29.638626098632812 Z8.1
G4 P500
G1 F1800 X-1.179025650024414 Y29.71014976501465 Z8.1
G4 P500
G1 F1800 X-0.39606571197509766 Y29.757509231567383 Z8.1
G4 P500
G1 F1800 X0.0 Y29.78146743774414 Z8.1
G4 P500
G1 F1800 X0.7829599380493164 Y29.734107971191406 Z8.1
G4 P500
G1 F1800 X1.179025650024414 Y29.71014976501465 Z8.1
G4 P500
G1 F1800 X1.9505681991577148 Y29.568758010864258 Z8.1
G4 P500
G1 F1800 X2.3408584594726562 Y29.497236251831055 Z8.1
G4 P500
G1 F1800 X3.0897326469421387 Y29.263877868652344 Z8.1
G4 P500
G1 F1800 X3.4685559272766113 Y29.145832061767578 Z8.1
G4 P500
G1 F1800 X4.183842182159424 Y28.82390594482422 Z8.1
G4 P500
G1 F1800 X4.5456743240356445 Y28.66105842590332 Z8.1
G4 P500
G1 F1800 X5.2169413566589355 Y28.255264282226562 Z8.1
G4 P500
G1 F1800 X5.556506633758545 Y28.049989700317383 Z8.1
G4 P500
G1 F1800 X6.1739661693573 Y27.566240310668945 Z8.1
G4 P500
G1 F1800 X6.4863121509552 Y27.321533203125 Z8.1
G4 P500
G1 F1800 X7.040960311889648 Y26.76688575744629 Z8.1
G4 P500
G1 F1800 X7.321532964706421 Y26.486312866210938 Z8.1
G4 P500
G1 F1800 X7.8052818775177 Y25.868852615356445 Z8.1
G4 P500
G1 F1800 X8.049989342689514 Y25.556506156921387 Z8.1
G4 P500
G1 F1800 X8.455784559249878 Y24.885239601135254 Z8.1
G4 P500
G1 F1800 X8.661058783531189 Y24.545674324035645 Z8.1
G4 P500
G1 F1800 X8.982982873916626 Y23.830388069152832 Z8.1
G4 P500
G1 F1800 X9.14583033323288 Y23.46855640411377 Z8.1
G4 P500
G1 F1800 X9.37918907403946 Y22.71968173980713 Z8.1
G4 P500
G1 F1800 X9.497235178947449 Y22.340858459472656 Z8.1
G4 P500
G1 F1800 X9.638625591993332 Y21.569315910339355 Z8.1
G4 P500
G1 F1800 X9.7101489007473 Y21.179025650024414 Z8.1
G4 P500
G1 F1800 X9.757509261369705 Y20.396065711975098 Z8.1
G4 P500
G1 F1800 X9.78146681189537 Y20.0 Z8.1
G4 P500
G1 F1800 X9.734106481075287 Y19.217040061950684 Z8.1
G4 P500
G1 F1800 X9.7101489007473 Y18.820974349975586 Z8.1
G4 P500
G1 F1800 X9.568758487701416 Y18.049431800842285 Z8.1
G4 P500
G1 F1800 X9.497235178947449 Y17.659141540527344 Z8.1
G4 P500
G1 F1800 X9.26387643814087 Y16.91026735305786 Z8.1
G4 P500
G1 F1800 X9.14583033323288 Y16.53144407272339 Z8.1
G4 P500
G1 F1800 X8.823906302452087 Y15.816157817840576 Z8.1
G4 P500
G1 F1800 X8.661058783531189 Y15.454325675964355 Z8.1
G4 P500
G1 F1800 X8.255263566970825 Y14.783058643341064 Z8.1
G4 P500
G1 F1800 X8.049989342689514 Y14.443493366241455 Z8.1
G4 P500
G1 F1800 X7.5662407875061035 Y13.8260338306427 Z8.1
G4 P500
G1 F1800 X7.321532964706421 Y13.5136878490448 Z8.1
G4 P500
G1 F1800 X6.766884803771973 Y12.959039688110352 Z8.1
G4 P500
; LAYER HEIGHT: 9
G1 F1800 X6.7365968227386475 Y12.705650806427002 Z9.1
G4 P500
G1 F1800 X6.5911149978637695 Y12.560168981552124 Z9.1
G4 P500
G1 F1800 X5.8082427978515625 Y11.94682788848877 Z9.1
G4 P500
G1 F1800 X5.6462860107421875 Y11.819942712783813 Z9.1
G4 P500
G1 F1800 X4.795191287994385 Y11.30543828010559 Z9.1
G4 P500
G1 F1800 X4.619121074676514 Y11.198999881744385 Z9.1
G4 P500
G1 F1800 X3.7122154235839844 Y10.790834903717041 Z9.1
G4 P500
G1 F1800 X3.524599075317383 Y10.706395626068115 Z9.1
G4 P500
G1 F1800 X2.5751070976257324 Y10.41052195429802 Z9.1
G4 P500
G1 F1800 X2.37868070602417 Y10.349312961101532 Z9.1
G4 P500
G1 F1800 X1.4004478454589844 Y10.170045167207718 Z9.1
G4 P500
G1 F1800 X1.198075294494629 Y10.132959067821503 Z9.1
G4 P500
G1 F1800 X0.2053670883178711 Y10.072911262512207 Z9.1
G4 P500
G1 F1800 X0.0 Y10.06048884615302 Z9.1
G4 P500
G1 F1800 X-0.9927082061767578 Y10.120536655187607 Z9.1
G4 P500
G1 F1800 X-1.198075294494629 Y10.132959067821503 Z9.1
G4 P500
G1 F1800 X-2.1763086318969727 Y10.312226861715317 Z9.1
G4 P500
G1 F1800 X-2.3786802291870117 Y10.349312961101532 Z9.1
G4 P500
G1 F1800 X-3.3281726837158203 Y10.64518666267395 Z9.1
G4 P500
G1 F1800 X-3.524599075317383 Y10.706395626068115 Z9.1
G4 P500
G1 F1800 X-4.431504249572754 Y11.114560604095459 Z9.1
G4 P500
G1 F1800 X-4.619121551513672 Y11.198999881744385 Z9.1
G4 P500
G1 F1800 X-5.47021484375 Y11.713504314422607 Z9.1
G4 P500
G1 F1800 X-5.6462860107421875 Y11.819942712783813 Z9.1
G4 P500
G1 F1800 X-6.429159164428711 Y12.433283805847168 Z9.1
G4 P500
G1 F1800 X-6.591115951538086 Y12.560168981552124 Z9.1
G4 P500
G1 F1800 X-7.294349670410156 Y13.263403177261353 Z9.1
G4 P500
G1 F1800 X-7.439830780029297 Y13.40888500213623 Z9.1
G4 P500
G1 F1800 X-8.053173065185547 Y14.191757202148438 Z9.1
G4 P500
G1 F1800 X-8.180057525634766 Y14.353713989257812 Z9.1
G4 P500
G1 F1800 X-8.694562911987305 Y15.204808712005615 Z9.1
G4 P500
G1 F1800 X-8.801000595092773 Y15.380878925323486 Z9.1
G4 P500
G1 F1800 X-9.209165573120117 Y16.287784576416016 Z9.1
G4 P500
G1 F1800 X-9.29360580444336 Y16.475400924682617 Z9.1
G4 P500
G1 F1800 X-9.5894775390625 Y17.424892902374268 Z9.1
G4 P500
G1 F1800 X-9.650688171386719 Y17.62131929397583 Z9.1
G4 P500
G1 F1800 X-9.8299560546875 Y18.599552154541016 Z9.1
G4 P500
G1 F1800 X-9.867040634155273 Y18.80192470550537 Z9.1
G4 P500
G1 F1800 X-9.92708969116211 Y19.79463291168213 Z9.1
G4 P500
G1 F1800 X-9.939512252807617 Y20.0 Z9.1
G4 P500
G1 F1800 X-9.879463195800781 Y20.992708206176758 Z9.1
G4 P500
G1 F1800 X-9.867040634155273 Y21.19807529449463 Z9.1
G4 P500
G1 F1800 X-9.687774658203125 Y22.176308631896973 Z9.1
G4 P500
G1 F1800 X-9.650688171386719 Y22.37868022918701 Z9.1
G4 P500
G1 F1800 X-9.354814529418945 Y23.32817268371582 Z9.1
G4 P500
G1 F1800 X-9.29360580444336 Y23.524599075317383 Z9.1
G4 P500
G1 F1800 X-8.885438919067383 Y24.431504249572754 Z9.1
G4 P500
G1 F1800 X-8.801000595092773 Y24.619121551513672 Z9.1
G4 P500
G1 F1800 X-8.286495208740234 Y25.47021484375 Z9.1
G4 P500
G1 F1800 X-8.180057525634766 Y25.646286010742188 Z9.1
G4 P500
G1 F1800 X-7.566715240478516 Y26.42915916442871 Z9.1
G4 P500
G1 F1800 X-7.439830780029297 Y26.591115951538086 Z9.1
G4 P500
G1 F1800 X-6.736597061157227 Y27.294349670410156 Z9.1
G4 P500
G1 F1800 X-6.591115951538086 Y27.439830780029297 Z9.1
G4 P500
G1 F1800 X-5.8082427978515625 Y28.053173065185547 Z9.1
G4 P500
G1 F1800 X-5.6462860107421875 Y28.180057525634766 Z9.1
G4 P500
G1 F1800 X-4.795191764831543 Y28.694562911987305 Z9.1
G4 P500
G1 F1800 X-4.619121551513672 Y28.801000595092773 Z9.1
G4 P500
G1 F1800 X-3.7122154235839844 Y29.209165573120117 Z9.1
G4 P500
G1 F1800 X-3.524599075317383 Y29.29360580444336 Z9.1
G4 P500
G1 F1800 X-2.5751075744628906 Y29.5894775390625 Z9.1
G4 P500
G1 F1800 X-2.3786802291870117 Y29.65068817138672 Z9.1
G4 P500
G1 F1800 X-1.4004478454589844 Y29.8299560546875 Z9.1
G4 P500
G1 F1800 X-1.198075294494629 Y29.867040634155273 Z9.1
G4 P500
G1 F1800 X-0.2053670883178711 Y29.92708969116211 Z9.1
G4 P500
G1 F1800 X0.0 Y29.939512252807617 Z9.1
G4 P500
G1 F1800 X0.9927082061767578 Y29.87946319580078 Z9.1
G4 P500
G1 F1800 X1.198075294494629 Y29.867040634155273 Z9.1
G4 P500
G1 F1800 X2.1763081550598145 Y29.687774658203125 Z9.1
G4 P500
G1 F1800 X2.37868070602417 Y29.65068817138672 Z9.1
G4 P500
G1 F1800 X3.3281726837158203 Y29.354814529418945 Z9.1
G4 P500
G1 F1800 X3.524599075317383 Y29.29360580444336 Z9.1
G4 P500
G1 F1800 X4.431504726409912 Y28.885438919067383 Z9.1
G4 P500
G1 F1800 X4.619121074676514 Y28.801000595092773 Z9.1
G4 P500
G1 F1800 X5.470215320587158 Y28.286495208740234 Z9.1
G4 P500
G1 F1800 X5.6462860107421875 Y28.180057525634766 Z9.1
G4 P500
G1 F1800 X6.429157972335815 Y27.566715240478516 Z9.1
G4 P500
G1 F1800 X6.5911149978637695 Y27.439830780029297 Z9.1
G4 P500
G1 F1800 X7.294349193572998 Y26.736597061157227 Z9.1
G4 P500
G1 F1800 X7.439831018447876 Y26.591115951538086 Z9.1
G4 P500
G1 F1800 X8.05317211151123 Y25.808242797851562 Z9.1
G4 P500
G1 F1800 X8.180057287216187 Y25.646286010742188 Z9.1
G4 P500
G1 F1800 X8.69456171989441 Y24.795191764831543 Z9.1
G4 P500
G1 F1800 X8.801000118255615 Y24.619121551513672 Z9.1
G4 P500
G1 F1800 X9.209165096282959 Y23.712215423583984 Z9.1
G4 P500
G1 F1800 X9.293604373931885 Y23.524599075317383 Z9.1
G4 P500
G1 F1800 X9.58947804570198 Y22.57510757446289 Z9.1
G4 P500
G1 F1800 X9.650687038898468 Y22.37868022918701 Z9.1
G4 P500
G1 F1800 X9.829954832792282 Y21.400447845458984 Z9.1
G4 P500
G1 F1800 X9.867040932178497 Y21.19807529449463 Z9.1
G4 P500
G1 F1800 X9.927088737487793 Y20.20536708831787 Z9.1
G4 P500
G1 F1800 X9.93951115384698 Y20.0 Z9.1
G4 P500
G1 F1800 X9.879463344812393 Y19.007291793823242 Z9.1
G4 P500
G1 F1800 X9.867040932178497 Y18.80192470550537 Z9.1
G4 P500
G1 F1800 X9.687773138284683 Y17.823691844940186 Z9.1
G4 P500
G1 F1800 X9.650687038898468 Y17.62131929397583 Z9.1
G4 P500
G1 F1800 X9.35481333732605 Y16.67182731628418 Z9.1
G4 P500
G1 F1800 X9.293604373931885 Y16.475400924682617 Z9.1
G4 P500
G1 F1800 X8.885439395904541 Y15.568495273590088 Z9.1
G4 P500
G1 F1800 X8.801000118255615 Y15.380878925323486 Z9.1
G4 P500
G1 F1800 X8.286495685577393 Y14.529784679412842 Z9.1
G4 P500
G1 F1800 X8.180057287216187 Y14.353713989257812 Z9.1
G4 P500
G1 F1800 X7.566716194152832 Y13.570842027664185 Z9.1
G4 P500
G1 F1800 X7.439831018447876 Y13.40888500213623 Z9.1
G4 P500
G1 F1800 X6.7365968227386475 Y12.705650806427002 Z9.1
G4 P500
; LAYER HEIGHT: 10
G1 F1800 X6.631226539611816 Y12.514892578125 Z10.1
G4 P500
G1 F1800 X7.485107421875 Y13.368773460388184 Z10.1
G4 P500
G1 F1800 X8.229838609695435 Y14.319352626800537 Z10.1
G4 P500
G1 F1800 X8.854560256004333 Y15.352768421173096 Z10.1
G4 P500
G1 F1800 X9.35016244649887 Y16.453951358795166 Z10.1
G4 P500
G1 F1800 X9.709418177604675 Y17.6068434715271 Z10.1
G4 P500
G1 F1800 X9.927088737487793 Y18.79463291168213 Z10.1
G4 P500
G1 F1800 X10.0 Y20.0 Z10.1
G4 P500
G1 F1800 X9.927088737487793 Y21.20536708831787 Z10.1
G4 P500
G1 F1800 X9.709418177604675 Y22.39315700531006 Z10.1
G4 P500
G1 F1800 X9.35016244649887 Y23.546049118041992 Z10.1
G4 P500
G1 F1800 X8.854560256004333 Y24.647232055664062 Z10.1
G4 P500
G1 F1800 X8.229838609695435 Y25.68064785003662 Z10.1
G4 P500
G1 F1800 X7.485107421875 Y26.631227493286133 Z10.1
G4 P500
G1 F1800 X6.631226539611816 Y27.485107421875 Z10.1
G4 P500
G1 F1800 X5.680647373199463 Y28.229839324951172 Z10.1
G4 P500
G1 F1800 X4.647231578826904 Y28.85456085205078 Z10.1
G4 P500
G1 F1800 X3.546048641204834 Y29.350162506103516 Z10.1
G4 P500
G1 F1800 X2.3931565284729004 Y29.70941734313965 Z10.1
G4 P500
G1 F1800 X1.205367088317871 Y29.92708969116211 Z10.1
G4 P500
G1 F1800 X0.0 Y30.0 Z10.1
G4 P500
G1 F1800 X-1.205367088317871 Y29.92708969116211 Z10.1
G4 P500
G1 F1800 X-2.3931570053100586 Y29.70941734313965 Z10.1
G4 P500
G1 F1800 X-3.546049118041992 Y29.350162506103516 Z10.1
G4 P500
G1 F1800 X-4.6472320556640625 Y28.85456085205078 Z10.1
G4 P500
G1 F1800 X-5.680647850036621 Y28.229839324951172 Z10.1
G4 P500
G1 F1800 X-6.631227493286133 Y27.485107421875 Z10.1
G4 P500
G1 F1800 X-7.485107421875 Y26.631227493286133 Z10.1
G4 P500
G1 F1800 X-8.229839324951172 Y25.68064785003662 Z10.1
G4 P500
G1 F1800 X-8.854560852050781 Y24.647232055664062 Z10.1
G4 P500
G1 F1800 X-9.350162506103516 Y23.546049118041992 Z10.1
G4 P500
G1 F1800 X-9.709417343139648 Y22.39315700531006 Z10.1
G4 P500
G1 F1800 X-9.92708969116211 Y21.20536708831787 Z10.1
G4 P500
G1 F1800 X-10.0 Y20.0 Z10.1
G4 P500
G1 F1800 X-9.92708969116211 Y18.79463291168213 Z10.1
G4 P500
G1 F1800 X-9.709417343139648 Y17.6068434715271 Z10.1
G4 P500
G1 F1800 X-9.350162506103516 Y16.453951358795166 Z10.1
G4 P500
G1 F1800 X-8.854560852050781 Y15.352768421173096 Z10.1
G4 P500
G1 F1800 X-8.229839324951172 Y14.319352626800537 Z10.1
G4 P500
G1 F1800 X-7.485107421875 Y13.368773460388184 Z10.1
G4 P500
G1 F1800 X-6.631227493286133 Y12.514892578125 Z10.1
G4 P500
G1 F1800 X-5.680647850036621 Y11.770161390304565 Z10.1
G4 P500
G1 F1800 X-4.6472320556640625 Y11.145439743995667 Z10.1
G4 P500
G1 F1800 X-3.546049118041992 Y10.64983755350113 Z10.1
G4 P500
G1 F1800 X-2.3931570053100586 Y10.290581822395325 Z10.1
G4 P500
G1 F1800 X-1.205367088317871 Y10.072911262512207 Z10.1
G4 P500
G1 F1800 X0.0 Y10.0 Z10.1
G4 P500
G1 F1800 X1.205367088317871 Y10.072911262512207 Z10.1
G4 P500
G1 F1800 X2.3931565284729004 Y10.290581822395325 Z10.1
G4 P500
G1 F1800 X3.546048641204834 Y10.64983755350113 Z10.1
G4 P500
G1 F1800 X4.647231578826904 Y11.145439743995667 Z10.1
G4 P500
G1 F1800 X5.680647373199463 Y11.770161390304565 Z10.1
G4 P500
G1 F1800 X6.631226539611816 Y12.514892578125 Z10.1
G4 P500
; THANK GOD I'M DONE