; HOLY FUCK I HATE MY LIFE
; FLAVOR:Marlin
; Generated with Genuine Passion and a Good Grudge 0.6.8
; PRINT SETTINGS
; offsets: X:10.0 Y:10.0 Z0.1
G28 ; HOME ALL AXIS
; LAYER HEIGHT: 0
G1 F1800 X9.992999999783933 Y9.976999999955297 Z0.1
G4 P500
G1 F1800 X10.06700000166893 Y10.11200000345707 Z0.1
G4 P500
G1 F1800 X10.120999999344349 Y10.205000013113022 Z0.1
G4 P500
G1 F1800 X10.172000005841255 Y10.284000009298325 Z0.1
G4 P500
G1 F1800 X10.275999993085861 Y10.432000011205673 Z0.1
G4 P500
G1 F1800 X10.328000009059906 Y10.512000024318695 Z0.1
G4 P500
G1 F1800 X10.361000001430511 Y10.566999971866608 Z0.1
G4 P500
G1 F1800 X10.384999990463257 Y10.61599999666214 Z0.1
G4 P500
G1 F1800 X10.402999997138977 Y10.662000060081482 Z0.1
G4 P500
G1 F1800 X10.408000022172928 Y10.67799997329712 Z0.1
G4 P500
G1 F1800 X10.418000042438507 Y10.717999994754791 Z0.1
G4 P500
G1 F1800 X10.421999990940094 Y10.757000088691711 Z0.1
G4 P500
G1 F1800 X10.421000003814697 Y10.796999990940094 Z0.1
G4 P500
G1 F1800 X10.416000008583069 Y10.834000051021576 Z0.1
G4 P500
G1 F1800 X10.404000014066696 Y10.873000025749207 Z0.1
G4 P500
G1 F1800 X10.386999994516373 Y10.916000008583069 Z0.1
G4 P500
G1 F1800 X10.363000005483627 Y10.962999999523163 Z0.1
G4 P500
G1 F1800 X10.330000042915344 Y11.016000032424927 Z0.1
G4 P500
G1 F1800 X10.28600001335144 Y11.077999949455261 Z0.1
G4 P500
G1 F1800 X10.26800000667572 Y11.101999998092651 Z0.1
G4 P500
G1 F1800 X10.193000003695488 Y11.197999954223633 Z0.1
G4 P500
G1 F1800 X10.130999997258186 Y11.279000043869019 Z0.1
G4 P500
G1 F1800 X10.076999999582767 Y11.355999946594238 Z0.1
G4 P500
G1 F1800 X10.025000002235174 Y11.440000057220459 Z0.1
G4 P500
G1 F1800 X9.964999999850988 Y11.542999982833862 Z0.1
G4 P500
G1 F1800 X9.87100000679493 Y11.715999960899353 Z0.1
G4 P500
G1 F1800 X9.797000005841255 Y11.844000101089478 Z0.1
G4 P500
G1 F1800 X9.659999966621399 Y12.065000057220459 Z0.1
G4 P500
G1 F1800 X9.592999994754791 Y12.180999994277954 Z0.1
G4 P500
G1 F1800 X9.546999961137772 Y12.266000032424927 Z0.1
G4 P500
G1 F1800 X9.509999990463257 Y12.342999935150146 Z0.1
G4 P500
G1 F1800 X9.480000019073486 Y12.413000106811523 Z0.1
G4 P500
G1 F1800 X9.457000017166138 Y12.476999998092651 Z0.1
G4 P500
G1 F1800 X9.439999997615814 Y12.536999940872192 Z0.1
G4 P500
G1 F1800 X9.42900002002716 Y12.591000080108643 Z0.1
G4 P500
G1 F1800 X9.424000024795532 Y12.641999959945679 Z0.1
G4 P500
G1 F1800 X9.42299997806549 Y12.689000129699707 Z0.1
G4 P500
G1 F1800 X9.426999986171722 Y12.7330002784729 Z0.1
G4 P500
G1 F1800 X9.435999989509583 Y12.7739999294281 Z0.1
G4 P500
G1 F1800 X9.449000000953674 Y12.813000202178955 Z0.1
G4 P500
G1 F1800 X9.467999994754791 Y12.8510000705719 Z0.1
G4 P500
G1 F1800 X9.494000017642975 Y12.890000104904175 Z0.1
G4 P500
G1 F1800 X9.525999993085861 Y12.92799997329712 Z0.1
G4 P500
G1 F1800 X9.564000010490417 Y12.964000225067139 Z0.1
G4 P500
G1 F1800 X9.606000006198883 Y12.996000051498413 Z0.1
G4 P500
G1 F1800 X9.65200001001358 Y13.0239999294281 Z0.1
G4 P500
G1 F1800 X9.696999996900558 Y13.046000003814697 Z0.1
G4 P500
G1 F1800 X9.743999987840652 Y13.063000202178955 Z0.1
G4 P500
G1 F1800 X9.790999978780746 Y13.075000047683716 Z0.1
G4 P500
G1 F1800 X9.835999995470047 Y13.082000017166138 Z0.1
G4 P500
G1 F1800 X9.877999991178513 Y13.08299994468689 Z0.1
G4 P500
G1 F1800 X9.917999997735023 Y13.079999923706055 Z0.1
G4 P500
G1 F1800 X9.924999997019768 Y13.07800030708313 Z0.1
G4 P500
G1 F1800 X9.965999998152256 Y13.068000078201294 Z0.1
G4 P500
G1 F1800 X10.002000000094995 Y13.05299997329712 Z0.1
G4 P500
G1 F1800 X10.039000000804663 Y13.032999992370605 Z0.1
G4 P500
G1 F1800 X10.076999999582767 Y13.006999969482422 Z0.1
G4 P500
G1 F1800 X10.116999998688698 Y12.973999977111816 Z0.1
G4 P500
G1 F1800 X10.158000007271767 Y12.933000087738037 Z0.1
G4 P500
G1 F1800 X10.202000007033348 Y12.883000135421753 Z0.1
G4 P500
G1 F1800 X10.249000012874603 Y12.82200002670288 Z0.1
G4 P500
G1 F1800 X10.310000002384186 Y12.734000205993652 Z0.1
G4 P500
G1 F1800 X10.392000019550323 Y12.614000082015991 Z0.1
G4 P500
G1 F1800 X10.465000003576279 Y12.5 Z0.1
G4 P500
G1 F1800 X10.523000001907349 Y12.401000022888184 Z0.1
G4 P500
G1 F1800 X10.574000000953674 Y12.303999900817871 Z0.1
G4 P500
G1 F1800 X10.621999979019165 Y12.20300006866455 Z0.1
G4 P500
G1 F1800 X10.680999994277954 Y12.065999984741211 Z0.1
G4 P500
G1 F1800 X10.736000001430511 Y11.940000057220459 Z0.1
G4 P500
G1 F1800 X10.776000022888184 Y11.858999967575073 Z0.1
G4 P500
G1 F1800 X10.808000028133392 Y11.80400002002716 Z0.1
G4 P500
G1 F1800 X10.833000004291534 Y11.76800000667572 Z0.1
G4 P500
G1 F1800 X10.855000019073486 Y11.743000030517578 Z0.1
G4 P500
G1 F1800 X10.875 Y11.725000023841858 Z0.1
G4 P500
G1 F1800 X10.89300000667572 Y11.71500015258789 Z0.1
G4 P500
G1 F1800 X10.91100001335144 Y11.708999991416931 Z0.1
G4 P500
G1 F1800 X10.917999982833862 Y11.70799994468689 Z0.1
G4 P500
G1 F1800 X10.935999989509583 Y11.710000038146973 Z0.1
G4 P500
G1 F1800 X10.9549999833107 Y11.717000007629395 Z0.1
G4 P500
G1 F1800 X10.978000044822693 Y11.73199999332428 Z0.1
G4 P500
G1 F1800 X11.001000046730042 Y11.754000067710876 Z0.1
G4 P500
G1 F1800 X11.029000043869019 Y11.78600001335144 Z0.1
G4 P500
G1 F1800 X11.059000015258789 Y11.830000162124634 Z0.1
G4 P500
G1 F1800 X11.095999956130981 Y11.889999985694885 Z0.1
G4 P500
G1 F1800 X11.14300000667572 Y11.978000164031982 Z0.1
G4 P500
G1 F1800 X11.205000042915344 Y12.099999904632568 Z0.1
G4 P500
G1 F1800 X11.279000043869019 Y12.242000102996826 Z0.1
G4 P500
G1 F1800 X11.352000117301941 Y12.371999979019165 Z0.1
G4 P500
G1 F1800 X11.373000025749207 Y12.408999919891357 Z0.1
G4 P500
G1 F1800 X11.46399998664856 Y12.563999891281128 Z0.1
G4 P500
G1 F1800 X11.567000031471252 Y12.746000051498413 Z0.1
G4 P500
G1 F1800 X11.616999983787537 Y12.827000141143799 Z0.1
G4 P500
G1 F1800 X11.65499997138977 Y12.883000135421753 Z0.1
G4 P500
G1 F1800 X11.692000031471252 Y12.930000066757202 Z0.1
G4 P500
G1 F1800 X11.729000091552734 Y12.970000267028809 Z0.1
G4 P500
G1 F1800 X11.765000104904175 Y13.003000020980835 Z0.1
G4 P500
G1 F1800 X11.80299997329712 Y13.030999898910522 Z0.1
G4 P500
G1 F1800 X11.841000080108643 Y13.053999900817871 Z0.1
G4 P500
G1 F1800 X11.881999969482422 Y13.07200002670288 Z0.1
G4 P500
G1 F1800 X11.92900002002716 Y13.086999893188477 Z0.1
G4 P500
G1 F1800 X11.978999972343445 Y13.095999956130981 Z0.1
G4 P500
G1 F1800 X12.009999990463257 Y13.099000215530396 Z0.1
G4 P500
G1 F1800 X12.032999992370605 Y13.101000308990479 Z0.1
G4 P500
G1 F1800 X12.088000059127808 Y13.099000215530396 Z0.1
G4 P500
G1 F1800 X12.091000080108643 Y13.099000215530396 Z0.1
G4 P500
G1 F1800 X12.14299988746643 Y13.092000246047974 Z0.1
G4 P500
G1 F1800 X12.19700002670288 Y13.079999923706055 Z0.1
G4 P500
G1 F1800 X12.246999979019165 Y13.064000129699707 Z0.1
G4 P500
G1 F1800 X12.293999910354614 Y13.043000221252441 Z0.1
G4 P500
G1 F1800 X12.335999965667725 Y13.019000053405762 Z0.1
G4 P500
G1 F1800 X12.372999906539917 Y12.993000030517578 Z0.1
G4 P500
G1 F1800 X12.40499997138977 Y12.963000297546387 Z0.1
G4 P500
G1 F1800 X12.434000015258789 Y12.930000066757202 Z0.1
G4 P500
G1 F1800 X12.45900011062622 Y12.892000198364258 Z0.1
G4 P500
G1 F1800 X12.480999946594238 Y12.848999977111816 Z0.1
G4 P500
G1 F1800 X12.497999906539917 Y12.802000045776367 Z0.1
G4 P500
G1 F1800 X12.510000228881836 Y12.749000072479248 Z0.1
G4 P500
G1 F1800 X12.517000198364258 Y12.691999912261963 Z0.1
G4 P500
G1 F1800 X12.519000053405762 Y12.632999897003174 Z0.1
G4 P500
G1 F1800 X12.515000104904175 Y12.569000244140625 Z0.1
G4 P500
G1 F1800 X12.50600004196167 Y12.504000186920166 Z0.1
G4 P500
G1 F1800 X12.490000009536743 Y12.438999891281128 Z0.1
G4 P500
G1 F1800 X12.470999956130981 Y12.378999948501587 Z0.1
G4 P500
G1 F1800 X12.444000005722046 Y12.312000036239624 Z0.1
G4 P500
G1 F1800 X12.411999940872192 Y12.246999979019165 Z0.1
G4 P500
G1 F1800 X12.371999979019165 Y12.176000118255615 Z0.1
G4 P500
G1 F1800 X12.313999891281128 Y12.085000038146973 Z0.1
G4 P500
G1 F1800 X12.2260000705719 Y11.950999975204468 Z0.1
G4 P500
G1 F1800 X12.16599988937378 Y11.853000044822693 Z0.1
G4 P500
G1 F1800 X12.101999998092651 Y11.738999962806702 Z0.1
G4 P500
G1 F1800 X12.029000043869019 Y11.605000019073486 Z0.1
G4 P500
G1 F1800 X11.956000089645386 Y11.474000096321106 Z0.1
G4 P500
G1 F1800 X11.891999959945679 Y11.367000102996826 Z0.1
G4 P500
G1 F1800 X11.776000142097473 Y11.189000010490417 Z0.1
G4 P500
G1 F1800 X11.720999956130981 Y11.098000049591064 Z0.1
G4 P500
G1 F1800 X11.686000108718872 Y11.034000039100647 Z0.1
G4 P500
G1 F1800 X11.659000039100647 Y10.975000023841858 Z0.1
G4 P500
G1 F1800 X11.63699996471405 Y10.9200000166893 Z0.1
G4 P500
G1 F1800 X11.621999979019165 Y10.864000022411346 Z0.1
G4 P500
G1 F1800 X11.611000061035156 Y10.807000041007996 Z0.1
G4 P500
G1 F1800 X11.605999946594238 Y10.748000085353851 Z0.1
G4 P500
G1 F1800 X11.60700011253357 Y10.68800002336502 Z0.1
G4 P500
G1 F1800 X11.611999988555908 Y10.635999977588654 Z0.1
G4 P500
G1 F1800 X11.623999953269958 Y10.569999992847443 Z0.1
G4 P500
G1 F1800 X11.640000104904175 Y10.508000016212463 Z0.1
G4 P500
G1 F1800 X11.661999940872192 Y10.44300001859665 Z0.1
G4 P500
G1 F1800 X11.690999984741211 Y10.375 Z0.1
G4 P500
G1 F1800 X11.726999998092651 Y10.300999999046326 Z0.1
G4 P500
G1 F1800 X11.773000001907349 Y10.21899999678135 Z0.1
G4 P500
G1 F1800 X11.827999949455261 Y10.128000006079674 Z0.1
G4 P500
G1 F1800 X11.925999999046326 Y9.975999999791384 Z0.1
G4 P500
G1 F1800 X12.01799988746643 Y9.828999996185303 Z0.1
G4 P500
G1 F1800 X12.109999895095825 Y9.67399999499321 Z0.1
G4 P500
G1 F1800 X12.22000002861023 Y9.482999980449677 Z0.1
G4 P500
G1 F1800 X12.328999996185303 Y9.29799997806549 Z0.1
G4 P500
G1 F1800 X12.375999927520752 Y9.212999999523163 Z0.1
G4 P500
G1 F1800 X12.405999898910522 Y9.15200001001358 Z0.1
G4 P500
G1 F1800 X12.42799997329712 Y9.095999956130981 Z0.1
G4 P500
G1 F1800 X12.444999933242798 Y9.0450000166893 Z0.1
G4 P500
G1 F1800 X12.454999923706055 Y8.996000051498413 Z0.1
G4 P500
G1 F1800 X12.460999965667725 Y8.950000047683716 Z0.1
G4 P500
G1 F1800 X12.461999893188477 Y8.929999947547913 Z0.1
G4 P500
G1 F1800 X12.460000038146973 Y8.886000037193298 Z0.1
G4 P500
G1 F1800 X12.45300006866455 Y8.840999960899353 Z0.1
G4 P500
G1 F1800 X12.438999891281128 Y8.794000029563904 Z0.1
G4 P500
G1 F1800 X12.418999910354614 Y8.746999979019165 Z0.1
G4 P500
G1 F1800 X12.39299988746643 Y8.700999975204468 Z0.1
G4 P500
G1 F1800 X12.361999988555908 Y8.656000018119812 Z0.1
G4 P500
G1 F1800 X12.348000049591064 Y8.639000058174133 Z0.1
G4 P500
G1 F1800 X12.312000036239624 Y8.600000023841858 Z0.1
G4 P500
G1 F1800 X12.273000001907349 Y8.565999984741211 Z0.1
G4 P500
G1 F1800 X12.233999967575073 Y8.537999987602234 Z0.1
G4 P500
G1 F1800 X12.194000005722046 Y8.516000032424927 Z0.1
G4 P500
G1 F1800 X12.154000043869019 Y8.498999953269958 Z0.1
G4 P500
G1 F1800 X12.115000009536743 Y8.48800003528595 Z0.1
G4 P500
G1 F1800 X12.07699990272522 Y8.48199987411499 Z0.1
G4 P500
G1 F1800 X12.035000085830688 Y8.48199987411499 Z0.1
G4 P500
G1 F1800 X11.996000051498413 Y8.485999822616577 Z0.1
G4 P500
G1 F1800 X11.956000089645386 Y8.496000051498413 Z0.1
G4 P500
G1 F1800 X11.913000106811523 Y8.51199996471405 Z0.1
G4 P500
G1 F1800 X11.86900007724762 Y8.532999873161316 Z0.1
G4 P500
G1 F1800 X11.82200002670288 Y8.560999870300293 Z0.1
G4 P500
G1 F1800 X11.773000001907349 Y8.595999956130981 Z0.1
G4 P500
G1 F1800 X11.722000122070312 Y8.638000011444092 Z0.1
G4 P500
G1 F1800 X11.674000024795532 Y8.6839998960495 Z0.1
G4 P500
G1 F1800 X11.621000051498413 Y8.740000009536743 Z0.1
G4 P500
G1 F1800 X11.565999984741211 Y8.805999994277954 Z0.1
G4 P500
G1 F1800 X11.514999985694885 Y8.876000046730042 Z0.1
G4 P500
G1 F1800 X11.472000002861023 Y8.945000052452087 Z0.1
G4 P500
G1 F1800 X11.424999952316284 Y9.028999924659729 Z0.1
G4 P500
G1 F1800 X11.379999995231628 Y9.120000004768372 Z0.1
G4 P500
G1 F1800 X11.325000047683716 Y9.244999945163727 Z0.1
G4 P500
G1 F1800 X11.259999990463257 Y9.402999997138977 Z0.1
G4 P500
G1 F1800 X11.258000016212463 Y9.406000018119812 Z0.1
G4 P500
G1 F1800 X11.210000038146973 Y9.514999985694885 Z0.1
G4 P500
G1 F1800 X11.172000050544739 Y9.590999960899353 Z0.1
G4 P500
G1 F1800 X11.139999985694885 Y9.644999980926514 Z0.1
G4 P500
G1 F1800 X11.115000009536743 Y9.680999994277954 Z0.1
G4 P500
G1 F1800 X11.093000054359436 Y9.706000000238419 Z0.1
G4 P500
G1 F1800 X11.07200002670288 Y9.72299998998642 Z0.1
G4 P500
G1 F1800 X11.05299997329712 Y9.733999997377396 Z0.1
G4 P500
G1 F1800 X11.034000039100647 Y9.738999992609024 Z0.1
G4 P500
G1 F1800 X11.019000053405762 Y9.740000009536743 Z0.1
G4 P500
G1 F1800 X11.0 Y9.736000001430511 Z0.1
G4 P500
G1 F1800 X10.980000019073486 Y9.726000010967255 Z0.1
G4 P500
G1 F1800 X10.956000030040741 Y9.708000004291534 Z0.1
G4 P500
G1 F1800 X10.930000007152557 Y9.682000011205673 Z0.1
G4 P500
G1 F1800 X10.89900004863739 Y9.64300000667572 Z0.1
G4 P500
G1 F1800 X10.865000009536743 Y9.591999977827072 Z0.1
G4 P500
G1 F1800 X10.827000081539154 Y9.523999989032745 Z0.1
G4 P500
G1 F1800 X10.777000069618225 Y9.426999986171722 Z0.1
G4 P500
G1 F1800 X10.701000034809113 Y9.271000027656555 Z0.1
G4 P500
G1 F1800 X10.625 Y9.120000004768372 Z0.1
G4 P500
G1 F1800 X10.564000010490417 Y9.007000029087067 Z0.1
G4 P500
G1 F1800 X10.50900000333786 Y8.916000008583069 Z0.1
G4 P500
G1 F1800 X10.453999996185303 Y8.833999991416931 Z0.1
G4 P500
G1 F1800 X10.405000001192093 Y8.766000032424927 Z0.1
G4 P500
G1 F1800 X10.35699999332428 Y8.707000017166138 Z0.1
G4 P500
G1 F1800 X10.310999989509583 Y8.656999945640564 Z0.1
G4 P500
G1 F1800 X10.266999989748001 Y8.613999962806702 Z0.1
G4 P500
G1 F1800 X10.223000019788742 Y8.57700002193451 Z0.1
G4 P500
G1 F1800 X10.180000007152557 Y8.54699993133545 Z0.1
G4 P500
G1 F1800 X10.136999994516373 Y8.523000001907349 Z0.1
G4 P500
G1 F1800 X10.094999998807907 Y8.504999995231628 Z0.1
G4 P500
G1 F1800 X10.052000001072884 Y8.491999983787537 Z0.1
G4 P500
G1 F1800 X10.00800000037998 Y8.482999920845032 Z0.1
G4 P500
G1 F1800 X9.964999999850988 Y8.480000019073486 Z0.1
G4 P500
G1 F1800 X9.91499999165535 Y8.48199987411499 Z0.1
G4 P500
G1 F1800 X9.86200000345707 Y8.489999890327454 Z0.1
G4 P500
G1 F1800 X9.810000002384186 Y8.503000020980835 Z0.1
G4 P500
G1 F1800 X9.758000001311302 Y8.521999835968018 Z0.1
G4 P500
G1 F1800 X9.71000000834465 Y8.546000003814697 Z0.1
G4 P500
G1 F1800 X9.664000004529953 Y8.572999954223633 Z0.1
G4 P500
G1 F1800 X9.624000012874603 Y8.603000044822693 Z0.1
G4 P500
G1 F1800 X9.589999973773956 Y8.636000037193298 Z0.1
G4 P500
G1 F1800 X9.562000006437302 Y8.668999910354614 Z0.1
G4 P500
G1 F1800 X9.537999957799911 Y8.703999996185303 Z0.1
G4 P500
G1 F1800 X9.518999993801117 Y8.740999937057495 Z0.1
G4 P500
G1 F1800 X9.504999995231628 Y8.782999992370605 Z0.1
G4 P500
G1 F1800 X9.496999979019165 Y8.820000052452087 Z0.1
G4 P500
G1 F1800 X9.492999970912933 Y8.863999962806702 Z0.1
G4 P500
G1 F1800 X9.492999970912933 Y8.911999940872192 Z0.1
G4 P500
G1 F1800 X9.498000025749207 Y8.96399998664856 Z0.1
G4 P500
G1 F1800 X9.507999986410141 Y9.021000027656555 Z0.1
G4 P500
G1 F1800 X9.525000005960464 Y9.083999991416931 Z0.1
G4 P500
G1 F1800 X9.54799997806549 Y9.15200001001358 Z0.1
G4 P500
G1 F1800 X9.578000009059906 Y9.227999985218048 Z0.1
G4 P500
G1 F1800 X9.616999983787537 Y9.310999989509583 Z0.1
G4 P500
G1 F1800 X9.664000004529953 Y9.40200001001358 Z0.1
G4 P500
G1 F1800 X9.726000010967255 Y9.510999977588654 Z0.1
G4 P500
G1 F1800 X9.841999992728233 Y9.703999996185303 Z0.1
G4 P500
G1 F1800 X9.91499999165535 Y9.832000002264977 Z0.1
G4 P500
G1 F1800 X8.985999941825867 Y7.724999904632568 Z0.1
G4 P500
G1 F1800 X8.985999941825867 Y6.924999952316284 Z0.1
G4 P500
G1 F1800 X6.519999742507935 Y6.924999952316284 Z0.1
G4 P500
G1 F1800 X6.519999742507935 Y7.724999904632568 Z0.1
G4 P500
G1 F1800 X5.964000225067139 Y8.029000043869019 Z0.1
G4 P500
G1 F1800 X5.901000022888184 Y7.937000036239624 Z0.1
G4 P500
G1 F1800 X5.835999965667725 Y7.849999904632568 Z0.1
G4 P500
G1 F1800 X5.76800012588501 Y7.769000053405762 Z0.1
G4 P500
G1 F1800 X5.7270002365112305 Y7.724999904632568 Z0.1
G4 P500
G1 F1800 X5.697000026702881 Y7.690999984741211 Z0.1
G4 P500
G1 F1800 X5.656000137329102 Y7.651000022888184 Z0.1
G4 P500
G1 F1800 X5.581999778747559 Y7.581000089645386 Z0.1
G4 P500
G1 F1800 X5.505000114440918 Y7.516999959945679 Z0.1
G4 P500
G1 F1800 X5.427000045776367 Y7.45799994468689 Z0.1
G4 P500
G1 F1800 X5.3480000495910645 Y7.4049999713897705 Z0.1
G4 P500
G1 F1800 X5.267000198364258 Y7.357000112533569 Z0.1
G4 P500
G1 F1800 X5.181000232696533 Y7.312000036239624 Z0.1
G4 P500
G1 F1800 X5.098999977111816 Y7.2749998569488525 Z0.1
G4 P500
G1 F1800 X5.010000228881836 Y7.240000009536743 Z0.1
G4 P500
G1 F1800 X4.914999485015869 Y7.2079997062683105 Z0.1
G4 P500
G1 F1800 X4.810999870300293 Y7.177999973297119 Z0.1
G4 P500
G1 F1800 X4.697999954223633 Y7.151000022888184 Z0.1
G4 P500
G1 F1800 X4.572999954223633 Y7.125999927520752 Z0.1
G4 P500
G1 F1800 X4.440000057220459 Y7.104000091552734 Z0.1
G4 P500
G1 F1800 X4.297999858856201 Y7.085000038146973 Z0.1
G4 P500
G1 F1800 X4.144999980926514 Y7.069999933242798 Z0.1
G4 P500
G1 F1800 X3.9650001525878906 Y7.058000087738037 Z0.1
G4 P500
G1 F1800 X3.7849998474121094 Y7.049999713897705 Z0.1
G4 P500
G1 F1800 X3.5920000076293945 Y7.046999931335449 Z0.1
G4 P500
G1 F1800 X3.3509998321533203 Y7.049000024795532 Z0.1
G4 P500
G1 F1800 X3.125 Y7.051000118255615 Z0.1
G4 P500
G1 F1800 X2.9670000076293945 Y7.04800009727478 Z0.1
G4 P500
G1 F1800 X2.8000001907348633 Y7.039999961853027 Z0.1
G4 P500
G1 F1800 X2.6539998054504395 Y7.033999919891357 Z0.1
G4 P500
G1 F1800 X2.560999870300293 Y7.033999919891357 Z0.1
G4 P500
G1 F1800 X2.477999687194824 Y7.036999702453613 Z0.1
G4 P500
G1 F1800 X2.4009995460510254 Y7.043999671936035 Z0.1
G4 P500
G1 F1800 X2.372999668121338 Y7.04800009727478 Z0.1
G4 P500
G1 F1800 X2.304999828338623 Y7.061000108718872 Z0.1
G4 P500
G1 F1800 X2.242000102996826 Y7.07699990272522 Z0.1
G4 P500
G1 F1800 X2.185999870300293 Y7.096999883651733 Z0.1
G4 P500
G1 F1800 X2.1359996795654297 Y7.11899995803833 Z0.1
G4 P500
G1 F1800 X2.0900001525878906 Y7.144000053405762 Z0.1
G4 P500
G1 F1800 X2.052000045776367 Y7.171000003814697 Z0.1
G4 P500
G1 F1800 X2.0190000534057617 Y7.198999881744385 Z0.1
G4 P500
G1 F1800 X1.9910001754760742 Y7.230000019073486 Z0.1
G4 P500
G1 F1800 X1.9689998626708984 Y7.26200008392334 Z0.1
G4 P500
G1 F1800 X1.9499998092651367 Y7.296999931335449 Z0.1
G4 P500
G1 F1800 X1.944000244140625 Y7.312000036239624 Z0.1
G4 P500
G1 F1800 X1.9320001602172852 Y7.349999904632568 Z0.1
G4 P500
G1 F1800 X1.9230003356933594 Y7.394999980926514 Z0.1
G4 P500
G1 F1800 X1.9180002212524414 Y7.446000099182129 Z0.1
G4 P500
G1 F1800 X1.9169998168945312 Y7.506999969482422 Z0.1
G4 P500
G1 F1800 X1.9200000762939453 Y7.579999923706055 Z0.1
G4 P500
G1 F1800 X1.928999900817871 Y7.680000066757202 Z0.1
G4 P500
G1 F1800 X1.9350004196166992 Y7.724999904632568 Z0.1
G4 P500
G1 F1800 X1.946000099182129 Y7.828999996185303 Z0.1
G4 P500
G1 F1800 X1.9549999237060547 Y7.936000108718872 Z0.1
G4 P500
G1 F1800 X1.9589996337890625 Y8.042999982833862 Z0.1
G4 P500
G1 F1800 X1.9589996337890625 Y8.157999992370605 Z0.1
G4 P500
G1 F1800 X1.954000473022461 Y8.320000052452087 Z0.1
G4 P500
G1 F1800 X1.949000358581543 Y8.521999835968018 Z0.1
G4 P500
G1 F1800 X1.9479999542236328 Y8.771999955177307 Z0.1
G4 P500
G1 F1800 X1.9499998092651367 Y9.078999996185303 Z0.1
G4 P500
G1 F1800 X1.9499998092651367 Y9.550999999046326 Z0.1
G4 P500
G1 F1800 X1.9499998092651367 Y10.236000001430511 Z0.1
G4 P500
G1 F1800 X1.949000358581543 Y11.088000059127808 Z0.1
G4 P500
G1 F1800 X1.9519996643066406 Y11.424999952316284 Z0.1
G4 P500
G1 F1800 X1.954000473022461 Y11.668000102043152 Z0.1
G4 P500
G1 F1800 X1.9510002136230469 Y11.850000023841858 Z0.1
G4 P500
G1 F1800 X1.944000244140625 Y12.01200008392334 Z0.1
G4 P500
G1 F1800 X1.9379997253417969 Y12.164999961853027 Z0.1
G4 P500
G1 F1800 X1.9370002746582031 Y12.260999917984009 Z0.1
G4 P500
G1 F1800 X1.9399995803833008 Y12.345999956130981 Z0.1
G4 P500
G1 F1800 X1.9469995498657227 Y12.424000024795532 Z0.1
G4 P500
G1 F1800 X1.9580001831054688 Y12.5 Z0.1
G4 P500
G1 F1800 X1.9729995727539062 Y12.565999984741211 Z0.1
G4 P500
G1 F1800 X1.9910001754760742 Y12.625999927520752 Z0.1
G4 P500
G1 F1800 X2.0109996795654297 Y12.678999900817871 Z0.1
G4 P500
G1 F1800 X2.033999443054199 Y12.725000143051147 Z0.1
G4 P500
G1 F1800 X2.059000015258789 Y12.766000032424927 Z0.1
G4 P500
G1 F1800 X2.0859999656677246 Y12.802000045776367 Z0.1
G4 P500
G1 F1800 X2.111999988555908 Y12.828999996185303 Z0.1
G4 P500
G1 F1800 X2.1429996490478516 Y12.854000091552734 Z0.1
G4 P500
G1 F1800 X2.175999641418457 Y12.875 Z0.1
G4 P500
G1 F1800 X2.2140002250671387 Y12.892000198364258 Z0.1
G4 P500
G1 F1800 X2.2529993057250977 Y12.904000043869019 Z0.1
G4 P500
G1 F1800 X2.297999858856201 Y12.912000179290771 Z0.1
G4 P500
G1 F1800 X2.34999942779541 Y12.91700005531311 Z0.1
G4 P500
G1 F1800 X2.410999298095703 Y12.91700005531311 Z0.1
G4 P500
G1 F1800 X2.48799991607666 Y12.913000345230103 Z0.1
G4 P500
G1 F1800 X2.5889997482299805 Y12.903000116348267 Z0.1
G4 P500
G1 F1800 X2.743000030517578 Y12.885000228881836 Z0.1
G4 P500
G1 F1800 X2.8480000495910645 Y12.876000165939331 Z0.1
G4 P500
G1 F1800 X2.9549999237060547 Y12.872999906539917 Z0.1
G4 P500
G1 F1800 X3.0679993629455566 Y12.872999906539917 Z0.1
G4 P500
G1 F1800 X3.2719998359680176 Y12.878999948501587 Z0.1
G4 P500
G1 F1800 X3.4739999771118164 Y12.884000301361084 Z0.1
G4 P500
G1 F1800 X3.6700000762939453 Y12.884000301361084 Z0.1
G4 P500
G1 F1800 X3.8550000190734863 Y12.878999948501587 Z0.1
G4 P500
G1 F1800 X4.020999908447266 Y12.869999885559082 Z0.1
G4 P500
G1 F1800 X4.173999309539795 Y12.858000040054321 Z0.1
G4 P500
G1 F1800 X4.315999984741211 Y12.842999935150146 Z0.1
G4 P500
G1 F1800 X4.447999477386475 Y12.822999954223633 Z0.1
G4 P500
G1 F1800 X4.570000171661377 Y12.801000118255615 Z0.1
G4 P500
G1 F1800 X4.682999610900879 Y12.776000261306763 Z0.1
G4 P500
G1 F1800 X4.789000034332275 Y12.748000144958496 Z0.1
G4 P500
G1 F1800 X4.888000011444092 Y12.718000173568726 Z0.1
G4 P500
G1 F1800 X4.980999946594238 Y12.683000326156616 Z0.1
G4 P500
G1 F1800 X5.073999881744385 Y12.644000053405762 Z0.1
G4 P500
G1 F1800 X5.165999889373779 Y12.598000049591064 Z0.1
G4 P500
G1 F1800 X5.25600004196167 Y12.54699993133545 Z0.1
G4 P500
G1 F1800 X5.3460001945495605 Y12.490999937057495 Z0.1
G4 P500
G1 F1800 X5.433000087738037 Y12.428999900817871 Z0.1
G4 P500
G1 F1800 X5.517000198364258 Y12.361999988555908 Z0.1
G4 P500
G1 F1800 X5.526000022888184 Y12.354000091552734 Z0.1
G4 P500
G1 F1800 X5.603000164031982 Y12.28600001335144 Z0.1
G4 P500
G1 F1800 X5.682000160217285 Y12.210000038146973 Z0.1
G4 P500
G1 F1800 X5.756999969482422 Y12.128999948501587 Z0.1
G4 P500
G1 F1800 X5.828999996185303 Y12.043999910354614 Z0.1
G4 P500
G1 F1800 X5.895999908447266 Y11.956000089645386 Z0.1
G4 P500
G1 F1800 X5.960999965667725 Y11.862000107765198 Z0.1
G4 P500
G1 F1800 X6.022000074386597 Y11.763000011444092 Z0.1
G4 P500
G1 F1800 X6.079999923706055 Y11.659000039100647 Z0.1
G4 P500
G1 F1800 X6.134000062942505 Y11.549000024795532 Z0.1
G4 P500
G1 F1800 X6.184000015258789 Y11.434999942779541 Z0.1
G4 P500
G1 F1800 X6.230000019073486 Y11.315000057220459 Z0.1
G4 P500
G1 F1800 X6.272000074386597 Y11.190000057220459 Z0.1
G4 P500
G1 F1800 X6.309999942779541 Y11.059000015258789 Z0.1
G4 P500
G1 F1800 X6.3440001010894775 Y10.922000050544739 Z0.1
G4 P500
G1 F1800 X6.371999979019165 Y10.782999992370605 Z0.1
G4 P500
G1 F1800 X6.396999835968018 Y10.63400000333786 Z0.1
G4 P500
G1 F1800 X6.41700005531311 Y10.47800001502037 Z0.1
G4 P500
G1 F1800 X6.431999683380127 Y10.314999997615814 Z0.1
G4 P500
G1 F1800 X6.440999746322632 Y10.149000003933907 Z0.1
G4 P500
G1 F1800 X6.444999933242798 Y9.97999999858439 Z0.1
G4 P500
G1 F1800 X6.443000078201294 Y9.810000002384186 Z0.1
G4 P500
G1 F1800 X6.437000036239624 Y9.648000001907349 Z0.1
G4 P500
G1 F1800 X6.426000118255615 Y9.494000017642975 Z0.1
G4 P500
G1 F1800 X6.4100000858306885 Y9.346000015735626 Z0.1
G4 P500
G1 F1800 X6.389999866485596 Y9.200999975204468 Z0.1
G4 P500
G1 F1800 X6.388000011444092 Y9.183999955654144 Z0.1
G4 P500
G1 F1800 X6.36299991607666 Y9.04799997806549 Z0.1
G4 P500
G1 F1800 X6.335000038146973 Y8.917999982833862 Z0.1
G4 P500
G1 F1800 X6.302000045776367 Y8.79200005531311 Z0.1
G4 P500
G1 F1800 X6.266000032424927 Y8.671000003814697 Z0.1
G4 P500
G1 F1800 X6.224999666213989 Y8.553999900817871 Z0.1
G4 P500
G1 F1800 X6.180000066757202 Y8.43999993801117 Z0.1
G4 P500
G1 F1800 X6.131999731063843 Y8.330999851226807 Z0.1
G4 P500
G1 F1800 X6.078999996185303 Y8.22599995136261 Z0.1
G4 P500
G1 F1800 X6.0229997634887695 Y8.125 Z0.1
G4 P500
G1 F1800 X5.1620001792907715 Y8.629999876022339 Z0.1
G4 P500
G1 F1800 X5.119999885559082 Y8.560999870300293 Z0.1
G4 P500
G1 F1800 X5.076000213623047 Y8.498000025749207 Z0.1
G4 P500
G1 F1800 X5.031000137329102 Y8.442000031471252 Z0.1
G4 P500
G1 F1800 X4.982999801635742 Y8.388999938964844 Z0.1
G4 P500
G1 F1800 X4.934000015258789 Y8.342999935150146 Z0.1
G4 P500
G1 F1800 X4.87999963760376 Y8.299000024795532 Z0.1
G4 P500
G1 F1800 X4.822999954223633 Y8.258999824523926 Z0.1
G4 P500
G1 F1800 X4.7639994621276855 Y8.223999857902527 Z0.1
G4 P500
G1 F1800 X4.702000141143799 Y8.194000005722046 Z0.1
G4 P500
G1 F1800 X4.6409993171691895 Y8.169999837875366 Z0.1
G4 P500
G1 F1800 X4.572999954223633 Y8.1489999294281 Z0.1
G4 P500
G1 F1800 X4.496999740600586 Y8.129999876022339 Z0.1
G4 P500
G1 F1800 X4.408999443054199 Y8.111999988555908 Z0.1
G4 P500
G1 F1800 X4.265999794006348 Y8.08899998664856 Z0.1
G4 P500
G1 F1800 X4.124000072479248 Y8.07200002670288 Z0.1
G4 P500
G1 F1800 X3.987999439239502 Y8.060999989509583 Z0.1
G4 P500
G1 F1800 X3.816999912261963 Y8.05299997329712 Z0.1
G4 P500
G1 F1800 X3.614999771118164 Y8.047000050544739 Z0.1
G4 P500
G1 F1800 X3.4660000801086426 Y8.043999910354614 Z0.1
G4 P500
G1 F1800 X3.3499999046325684 Y8.046000003814697 Z0.1
G4 P500
G1 F1800 X3.260000228881836 Y8.050999879837036 Z0.1
G4 P500
G1 F1800 X3.1999998092651367 Y8.057999849319458 Z0.1
G4 P500
G1 F1800 X3.1500000953674316 Y8.067999958992004 Z0.1
G4 P500
G1 F1800 X3.1040000915527344 Y8.080999970436096 Z0.1
G4 P500
G1 F1800 X3.068999767303467 Y8.09499990940094 Z0.1
G4 P500
G1 F1800 X3.039999485015869 Y8.111999988555908 Z0.1
G4 P500
G1 F1800 X3.0209999084472656 Y8.126999855041504 Z0.1
G4 P500
G1 F1800 X3.0 Y8.148000001907349 Z0.1
G4 P500
G1 F1800 X2.983999729156494 Y8.171000003814697 Z0.1
G4 P500
G1 F1800 X2.9710001945495605 Y8.200000047683716 Z0.1
G4 P500
G1 F1800 X2.9600000381469727 Y8.234999895095825 Z0.1
G4 P500
G1 F1800 X2.953000068664551 Y8.276999950408936 Z0.1
G4 P500
G1 F1800 X2.947999954223633 Y8.327999830245972 Z0.1
G4 P500
G1 F1800 X2.947999954223633 Y8.402999877929688 Z0.1
G4 P500
G1 F1800 X2.9499998092651367 Y8.48800003528595 Z0.1
G4 P500
G1 F1800 X2.9519996643066406 Y8.629999876022339 Z0.1
G4 P500
G1 F1800 X2.951000213623047 Y8.789000034332275 Z0.1
G4 P500
G1 F1800 X2.9499998092651367 Y8.986999988555908 Z0.1
G4 P500
G1 F1800 X2.951000213623047 Y9.237999975681305 Z0.1
G4 P500
G1 F1800 X2.951000213623047 Y9.53099998831749 Z0.1
G4 P500
G1 F1800 X2.951000213623047 Y10.230000004172325 Z0.1
G4 P500
G1 F1800 X2.951000213623047 Y10.644000053405762 Z0.1
G4 P500
G1 F1800 X2.9499998092651367 Y10.869000017642975 Z0.1
G4 P500
G1 F1800 X2.9539995193481445 Y11.077999949455261 Z0.1
G4 P500
G1 F1800 X2.9549999237060547 Y11.197999954223633 Z0.1
G4 P500
G1 F1800 X2.9499998092651367 Y11.295000076293945 Z0.1
G4 P500
G1 F1800 X2.940999984741211 Y11.406000137329102 Z0.1
G4 P500
G1 F1800 X2.936999797821045 Y11.485000133514404 Z0.1
G4 P500
G1 F1800 X2.937999725341797 Y11.537999987602234 Z0.1
G4 P500
G1 F1800 X2.941999912261963 Y11.585999965667725 Z0.1
G4 P500
G1 F1800 X2.951000213623047 Y11.63100004196167 Z0.1
G4 P500
G1 F1800 X2.9580001831054688 Y11.652999997138977 Z0.1
G4 P500
G1 F1800 X2.9739999771118164 Y11.69700014591217 Z0.1
G4 P500
G1 F1800 X2.994999885559082 Y11.736999988555908 Z0.1
G4 P500
G1 F1800 X3.0199999809265137 Y11.773000001907349 Z0.1
G4 P500
G1 F1800 X3.047999858856201 Y11.805000066757202 Z0.1
G4 P500
G1 F1800 X3.0789999961853027 Y11.83300006389618 Z0.1
G4 P500
G1 F1800 X3.1110000610351562 Y11.855000138282776 Z0.1
G4 P500
G1 F1800 X3.1449995040893555 Y11.871999979019165 Z0.1
G4 P500
G1 F1800 X3.181000232696533 Y11.884999990463257 Z0.1
G4 P500
G1 F1800 X3.2189993858337402 Y11.89300000667572 Z0.1
G4 P500
G1 F1800 X3.2639999389648438 Y11.896999955177307 Z0.1
G4 P500
G1 F1800 X3.315999984741211 Y11.896999955177307 Z0.1
G4 P500
G1 F1800 X3.3859996795654297 Y11.89300000667572 Z0.1
G4 P500
G1 F1800 X3.485999584197998 Y11.883000016212463 Z0.1
G4 P500
G1 F1800 X3.5769996643066406 Y11.878000020980835 Z0.1
G4 P500
G1 F1800 X3.6680002212524414 Y11.877000093460083 Z0.1
G4 P500
G1 F1800 X3.7919998168945312 Y11.878000020980835 Z0.1
G4 P500
G1 F1800 X3.9079999923706055 Y11.876000046730042 Z0.1
G4 P500
G1 F1800 X4.0159993171691895 Y11.870000123977661 Z0.1
G4 P500
G1 F1800 X4.154999732971191 Y11.855000138282776 Z0.1
G4 P500
G1 F1800 X4.288000106811523 Y11.837000131607056 Z0.1
G4 P500
G1 F1800 X4.377999782562256 Y11.82099997997284 Z0.1
G4 P500
G1 F1800 X4.456999778747559 Y11.80299997329712 Z0.1
G4 P500
G1 F1800 X4.531999588012695 Y11.781999945640564 Z0.1
G4 P500
G1 F1800 X4.604000091552734 Y11.75600004196167 Z0.1
G4 P500
G1 F1800 X4.672999858856201 Y11.725000023841858 Z0.1
G4 P500
G1 F1800 X4.739999771118164 Y11.690000176429749 Z0.1
G4 P500
G1 F1800 X4.802000045776367 Y11.651999950408936 Z0.1
G4 P500
G1 F1800 X4.86299991607666 Y11.608000040054321 Z0.1
G4 P500
G1 F1800 X4.921000003814697 Y11.559000015258789 Z0.1
G4 P500
G1 F1800 X4.977999687194824 Y11.503000140190125 Z0.1
G4 P500
G1 F1800 X5.0329999923706055 Y11.442000150680542 Z0.1
G4 P500
G1 F1800 X5.085000038146973 Y11.374000072479248 Z0.1
G4 P500
G1 F1800 X5.132999897003174 Y11.30299997329712 Z0.1
G4 P500
G1 F1800 X5.179999828338623 Y11.223000049591064 Z0.1
G4 P500
G1 F1800 X5.223999977111816 Y11.136000037193298 Z0.1
G4 P500
G1 F1800 X5.261000156402588 Y11.050999999046326 Z0.1
G4 P500
G1 F1800 X5.297999858856201 Y10.950999975204468 Z0.1
G4 P500
G1 F1800 X5.328999996185303 Y10.853999972343445 Z0.1
G4 P500
G1 F1800 X5.35699987411499 Y10.751999974250793 Z0.1
G4 P500
G1 F1800 X5.382999897003174 Y10.629999995231628 Z0.1
G4 P500
G1 F1800 X5.406000137329102 Y10.501999974250793 Z0.1
G4 P500
G1 F1800 X5.421999931335449 Y10.379000008106232 Z0.1
G4 P500
G1 F1800 X5.434000015258789 Y10.243000000715256 Z0.1
G4 P500
G1 F1800 X5.441999912261963 Y10.104999996721745 Z0.1
G4 P500
G1 F1800 X5.445000171661377 Y9.953000001609325 Z0.1
G4 P500
G1 F1800 X5.442999839782715 Y9.806999996304512 Z0.1
G4 P500
G1 F1800 X5.436999797821045 Y9.668999969959259 Z0.1
G4 P500
G1 F1800 X5.426000118255615 Y9.537000000476837 Z0.1
G4 P500
G1 F1800 X5.410999774932861 Y9.412999987602234 Z0.1
G4 P500
G1 F1800 X5.392000198364258 Y9.294999957084656 Z0.1
G4 P500
G1 F1800 X5.36899995803833 Y9.183000028133392 Z0.1
G4 P500
G1 F1800 X5.3429999351501465 Y9.07700002193451 Z0.1
G4 P500
G1 F1800 X5.313000202178955 Y8.976999998092651 Z0.1
G4 P500
G1 F1800 X5.2789998054504395 Y8.88100004196167 Z0.1
G4 P500
G1 F1800 X5.242000102996826 Y8.791000008583069 Z0.1
G4 P500
G1 F1800 X5.203000068664551 Y8.705999970436096 Z0.1
G4 P500
G1 F1800 X7.029999732971191 Y11.537999987602234 Z0.1
G4 P500
G1 F1800 X7.105000019073486 Y11.491000056266785 Z0.1
G4 P500
G1 F1800 X7.184000015258789 Y11.450999975204468 Z0.1
G4 P500
G1 F1800 X7.2669997215271 Y11.419000029563904 Z0.1
G4 P500
G1 F1800 X7.351999759674072 Y11.394000053405762 Z0.1
G4 P500
G1 F1800 X7.437999725341797 Y11.376000046730042 Z0.1
G4 P500
G1 F1800 X7.526000022888184 Y11.367000102996826 Z0.1
G4 P500
G1 F1800 X7.615000009536743 Y11.365000009536743 Z0.1
G4 P500
G1 F1800 X7.703000068664551 Y11.371000051498413 Z0.1
G4 P500
G1 F1800 X7.789999961853027 Y11.384000062942505 Z0.1
G4 P500
G1 F1800 X7.875999927520752 Y11.406000137329102 Z0.1
G4 P500
G1 F1800 X7.960000038146973 Y11.434000015258789 Z0.1
G4 P500
G1 F1800 X8.04099988937378 Y11.47000002861023 Z0.1
G4 P500
G1 F1800 X8.118000030517578 Y11.514000177383423 Z0.1
G4 P500
G1 F1800 X8.190999984741211 Y11.562999963760376 Z0.1
G4 P500
G1 F1800 X8.258999824523926 Y11.61899995803833 Z0.1
G4 P500
G1 F1800 X8.322999954223633 Y11.680999994277954 Z0.1
G4 P500
G1 F1800 X8.379999995231628 Y11.748000144958496 Z0.1
G4 P500
G1 F1800 X8.431999921798706 Y11.820000171661377 Z0.1
G4 P500
G1 F1800 X8.47599995136261 Y11.896999955177307 Z0.1
G4 P500
G1 F1800 X8.514000058174133 Y11.977000117301941 Z0.1
G4 P500
G1 F1800 X8.544999957084656 Y12.059999942779541 Z0.1
G4 P500
G1 F1800 X8.567999839782715 Y12.144999980926514 Z0.1
G4 P500
G1 F1800 X8.583999991416931 Y12.23200011253357 Z0.1
G4 P500
G1 F1800 X8.592000007629395 Y12.319999933242798 Z0.1
G4 P500
G1 F1800 X8.592000007629395 Y12.408999919891357 Z0.1
G4 P500
G1 F1800 X8.583999991416931 Y12.496999979019165 Z0.1
G4 P500
G1 F1800 X8.567999839782715 Y12.58400011062622 Z0.1
G4 P500
G1 F1800 X8.544999957084656 Y12.669000148773193 Z0.1
G4 P500
G1 F1800 X8.514000058174133 Y12.752000093460083 Z0.1
G4 P500
G1 F1800 X8.47599995136261 Y12.832000017166138 Z0.1
G4 P500
G1 F1800 X8.431999921798706 Y12.907999992370605 Z0.1
G4 P500
G1 F1800 X8.379999995231628 Y12.980000019073486 Z0.1
G4 P500
G1 F1800 X8.322999954223633 Y13.04800009727478 Z0.1
G4 P500
G1 F1800 X8.269999980926514 Y13.099000215530396 Z0.1
G4 P500
G1 F1800 X8.258999824523926 Y13.109999895095825 Z0.1
G4 P500
G1 F1800 X8.190999984741211 Y13.16599988937378 Z0.1
G4 P500
G1 F1800 X8.118000030517578 Y13.21500015258789 Z0.1
G4 P500
G1 F1800 X8.05299997329712 Y13.252000331878662 Z0.1
G4 P500
G1 F1800 X8.04099988937378 Y13.257999897003174 Z0.1
G4 P500
G1 F1800 X7.960000038146973 Y13.295000076293945 Z0.1
G4 P500
G1 F1800 X7.875999927520752 Y13.322999954223633 Z0.1
G4 P500
G1 F1800 X7.789999961853027 Y13.345000267028809 Z0.1
G4 P500
G1 F1800 X7.703000068664551 Y13.3580002784729 Z0.1
G4 P500
G1 F1800 X7.615000009536743 Y13.364000082015991 Z0.1
G4 P500
G1 F1800 X7.526000022888184 Y13.361999988555908 Z0.1
G4 P500
G1 F1800 X7.437999725341797 Y13.35200023651123 Z0.1
G4 P500
G1 F1800 X7.351999759674072 Y13.335000038146973 Z0.1
G4 P500
G1 F1800 X7.2669997215271 Y13.309999942779541 Z0.1
G4 P500
G1 F1800 X7.184000015258789 Y13.276999950408936 Z0.1
G4 P500
G1 F1800 X7.132999897003174 Y13.252000331878662 Z0.1
G4 P500
G1 F1800 X7.105000019073486 Y13.23799991607666 Z0.1
G4 P500
G1 F1800 X7.029999732971191 Y13.190999984741211 Z0.1
G4 P500
G1 F1800 X6.958999872207642 Y13.138000011444092 Z0.1
G4 P500
G1 F1800 X6.914999723434448 Y13.099000215530396 Z0.1
G4 P500
G1 F1800 X6.892999649047852 Y13.078999996185303 Z0.1
G4 P500
G1 F1800 X6.83299994468689 Y13.015000343322754 Z0.1
G4 P500
G1 F1800 X6.7779998779296875 Y12.944999933242798 Z0.1
G4 P500
G1 F1800 X6.730000019073486 Y12.871000289916992 Z0.1
G4 P500
G1 F1800 X6.688999891281128 Y12.792999982833862 Z0.1
G4 P500
G1 F1800 X6.654999732971191 Y12.711000204086304 Z0.1
G4 P500
G1 F1800 X6.627999782562256 Y12.627000331878662 Z0.1
G4 P500
G1 F1800 X6.608000040054321 Y12.54099988937378 Z0.1
G4 P500
G1 F1800 X6.5959999561309814 Y12.45300006866455 Z0.1
G4 P500
G1 F1800 X6.5929999351501465 Y12.364000082015991 Z0.1
G4 P500
G1 F1800 X6.5959999561309814 Y12.276000022888184 Z0.1
G4 P500
G1 F1800 X6.608000040054321 Y12.187999963760376 Z0.1
G4 P500
G1 F1800 X6.627999782562256 Y12.101999998092651 Z0.1
G4 P500
G1 F1800 X6.654999732971191 Y12.01799988746643 Z0.1
G4 P500
G1 F1800 X6.688999891281128 Y11.935999989509583 Z0.1
G4 P500
G1 F1800 X6.730000019073486 Y11.858000040054321 Z0.1
G4 P500
G1 F1800 X6.7779998779296875 Y11.784000158309937 Z0.1
G4 P500
G1 F1800 X6.83299994468689 Y11.71399998664856 Z0.1
G4 P500
G1 F1800 X6.892999649047852 Y11.650000095367432 Z0.1
G4 P500
G1 F1800 X6.958999872207642 Y11.590999960899353 Z0.1
G4 P500
G1 F1800 X6.519999742507935 Y13.099000215530396 Z0.1
G4 P500
G1 F1800 X6.519999742507935 Y13.252000331878662 Z0.1
G4 P500
G1 F1800 X6.519999742507935 Y14.519000053405762 Z0.1
G4 P500
G1 F1800 X8.985999941825867 Y14.519000053405762 Z0.1
G4 P500
G1 F1800 X8.985999941825867 Y13.252000331878662 Z0.1
G4 P500
G1 F1800 X8.985999941825867 Y13.099000215530396 Z0.1
G4 P500
G1 F1800 X12.795000076293945 Y13.099000215530396 Z0.1
G4 P500
G1 F1800 X12.795000076293945 Y13.252000331878662 Z0.1
G4 P500
G1 F1800 X12.795000076293945 Y14.519000053405762 Z0.1
G4 P500
G1 F1800 X13.17199993133545 Y14.82200002670288 Z0.1
G4 P500
G1 F1800 X13.151000022888184 Y14.85200023651123 Z0.1
G4 P500
G1 F1800 X13.136000156402588 Y14.883999824523926 Z0.1
G4 P500
G1 F1800 X13.122999906539917 Y14.920000076293945 Z0.1
G4 P500
G1 F1800 X13.115000247955322 Y14.960999965667725 Z0.1
G4 P500
G1 F1800 X13.109999895095825 Y15.01200008392334 Z0.1
G4 P500
G1 F1800 X13.111000061035156 Y15.066999912261963 Z0.1
G4 P500
G1 F1800 X13.115999937057495 Y15.114999771118164 Z0.1
G4 P500
G1 F1800 X13.127000093460083 Y15.175000190734863 Z0.1
G4 P500
G1 F1800 X13.144999980926514 Y15.234000205993652 Z0.1
G4 P500
G1 F1800 X13.16700005531311 Y15.29200029373169 Z0.1
G4 P500
G1 F1800 X13.193000316619873 Y15.347000122070312 Z0.1
G4 P500
G1 F1800 X13.223000049591064 Y15.39799976348877 Z0.1
G4 P500
G1 F1800 X13.255000114440918 Y15.441999912261963 Z0.1
G4 P500
G1 F1800 X13.289000034332275 Y15.480000495910645 Z0.1
G4 P500
G1 F1800 X13.323999881744385 Y15.513999938964844 Z0.1
G4 P500
G1 F1800 X13.36299991607666 Y15.543000221252441 Z0.1
G4 P500
G1 F1800 X13.405999898910522 Y15.566999912261963 Z0.1
G4 P500
G1 F1800 X13.45300006866455 Y15.587999820709229 Z0.1
G4 P500
G1 F1800 X13.50600004196167 Y15.604000091552734 Z0.1
G4 P500
G1 F1800 X13.555000066757202 Y15.613999843597412 Z0.1
G4 P500
G1 F1800 X13.611000061035156 Y15.619999885559082 Z0.1
G4 P500
G1 F1800 X13.67199993133545 Y15.622000217437744 Z0.1
G4 P500
G1 F1800 X13.73800015449524 Y15.619000434875488 Z0.1
G4 P500
G1 F1800 X13.811000347137451 Y15.611000061035156 Z0.1
G4 P500
G1 F1800 X13.891000270843506 Y15.598000526428223 Z0.1
G4 P500
G1 F1800 X13.979000091552734 Y15.57800006866455 Z0.1
G4 P500
G1 F1800 X14.076000213623047 Y15.551000118255615 Z0.1
G4 P500
G1 F1800 X14.178999900817871 Y15.51800012588501 Z0.1
G4 P500
G1 F1800 X14.27299976348877 Y15.482999801635742 Z0.1
G4 P500
G1 F1800 X14.359000205993652 Y15.446000099182129 Z0.1
G4 P500
G1 F1800 X14.436999797821045 Y15.407000064849854 Z0.1
G4 P500
G1 F1800 X14.510000228881836 Y15.366000652313232 Z0.1
G4 P500
G1 F1800 X14.577000141143799 Y15.322000503540039 Z0.1
G4 P500
G1 F1800 X14.638999938964844 Y15.27500057220459 Z0.1
G4 P500
G1 F1800 X14.69700002670288 Y15.224999904632568 Z0.1
G4 P500
G1 F1800 X14.752999782562256 Y15.170000076293945 Z0.1
G4 P500
G1 F1800 X14.80299997329712 Y15.113000392913818 Z0.1
G4 P500
G1 F1800 X14.854000091552734 Y15.04800033569336 Z0.1
G4 P500
G1 F1800 X14.90500020980835 Y14.974999904632568 Z0.1
G4 P500
G1 F1800 X14.955999851226807 Y14.89300012588501 Z0.1
G4 P500
G1 F1800 X15.008999824523926 Y14.800000190734863 Z0.1
G4 P500
G1 F1800 X15.064000606536865 Y14.692999839782715 Z0.1
G4 P500
G1 F1800 X15.124000549316406 Y14.565999984741211 Z0.1
G4 P500
G1 F1800 X15.145000457763672 Y14.519000053405762 Z0.1
G4 P500
G1 F1800 X15.195000171661377 Y14.40399980545044 Z0.1
G4 P500
G1 F1800 X15.271999835968018 Y14.21999979019165 Z0.1
G4 P500
G1 F1800 X15.355000019073486 Y14.008999824523926 Z0.1
G4 P500
G1 F1800 X15.511000156402588 Y13.608000040054321 Z0.1
G4 P500
G1 F1800 X15.647000312805176 Y13.252000331878662 Z0.1
G4 P500
G1 F1800 X15.650000095367432 Y13.246000051498413 Z0.1
G4 P500
G1 F1800 X15.703999996185303 Y13.099000215530396 Z0.1
G4 P500
G1 F1800 X15.784000396728516 Y12.880000114440918 Z0.1
G4 P500
G1 F1800 X15.960000038146973 Y12.388000011444092 Z0.1
G4 P500
G1 F1800 X14.85699987411499 Y12.563999891281128 Z0.1
G4 P500
G1 F1800 X14.868000030517578 Y12.622999906539917 Z0.1
G4 P500
G1 F1800 X14.874000072479248 Y12.678999900817871 Z0.1
G4 P500
G1 F1800 X14.875 Y12.734000205993652 Z0.1
G4 P500
G1 F1800 X14.870999813079834 Y12.78600001335144 Z0.1
G4 P500
G1 F1800 X14.861000061035156 Y12.841000318527222 Z0.1
G4 P500
G1 F1800 X14.84600019454956 Y12.901000022888184 Z0.1
G4 P500
G1 F1800 X14.824999809265137 Y12.966000080108643 Z0.1
G4 P500
G1 F1800 X14.796000003814697 Y13.039000034332275 Z0.1
G4 P500
G1 F1800 X14.769000053405762 Y13.099000215530396 Z0.1
G4 P500
G1 F1800 X14.75 Y13.140000104904175 Z0.1
G4 P500
G1 F1800 X14.693999767303467 Y13.252000331878662 Z0.1
G4 P500
G1 F1800 X14.656000137329102 Y13.32800006866455 Z0.1
G4 P500
G1 F1800 X14.609000205993652 Y13.42900013923645 Z0.1
G4 P500
G1 F1800 X14.567999839782715 Y13.526999950408936 Z0.1
G4 P500
G1 F1800 X14.525000095367432 Y13.64299988746643 Z0.1
G4 P500
G1 F1800 X14.467000007629395 Y13.805999994277954 Z0.1
G4 P500
G1 F1800 X14.421000003814697 Y13.92799997329712 Z0.1
G4 P500
G1 F1800 X14.38700008392334 Y14.010000228881836 Z0.1
G4 P500
G1 F1800 X14.35200023651123 Y14.081999778747559 Z0.1
G4 P500
G1 F1800 X14.314000129699707 Y14.151000022888184 Z0.1
G4 P500
G1 F1800 X14.271999835968018 Y14.21500015258789 Z0.1
G4 P500
G1 F1800 X14.228000164031982 Y14.275000095367432 Z0.1
G4 P500
G1 F1800 X14.179999828338623 Y14.329999923706055 Z0.1
G4 P500
G1 F1800 X14.127999782562256 Y14.38100004196167 Z0.1
G4 P500
G1 F1800 X14.073999881744385 Y14.427000045776367 Z0.1
G4 P500
G1 F1800 X14.017000198364258 Y14.46999979019165 Z0.1
G4 P500
G1 F1800 X13.957000017166138 Y14.507999897003174 Z0.1
G4 P500
G1 F1800 X13.934999942779541 Y14.519000053405762 Z0.1
G4 P500
G1 F1800 X13.89299988746643 Y14.54099988937378 Z0.1
G4 P500
G1 F1800 X13.826000213623047 Y14.571000099182129 Z0.1
G4 P500
G1 F1800 X13.763000011444092 Y14.593999862670898 Z0.1
G4 P500
G1 F1800 X13.687000036239624 Y14.616000175476074 Z0.1
G4 P500
G1 F1800 X13.575999975204468 Y14.644000053405762 Z0.1
G4 P500
G1 F1800 X13.454999923706055 Y14.673999786376953 Z0.1
G4 P500
G1 F1800 X13.41100001335144 Y14.686999797821045 Z0.1
G4 P500
G1 F1800 X13.35200023651123 Y14.705999851226807 Z0.1
G4 P500
G1 F1800 X13.302000045776367 Y14.72700023651123 Z0.1
G4 P500
G1 F1800 X13.260999917984009 Y14.748000144958496 Z0.1
G4 P500
G1 F1800 X13.2260000705719 Y14.770999908447266 Z0.1
G4 P500
G1 F1800 X13.19700002670288 Y14.795000076293945 Z0.1
G4 P500
G1 F1800 X14.84000015258789 Y12.500999927520752 Z0.1
G4 P500
G1 F1800 X14.816999912261963 Y12.431999921798706 Z0.1
G4 P500
G1 F1800 X14.787000179290771 Y12.355999946594238 Z0.1
G4 P500
G1 F1800 X14.738999843597412 Y12.247999906539917 Z0.1
G4 P500
G1 F1800 X14.646999835968018 Y12.053999900817871 Z0.1
G4 P500
G1 F1800 X14.592000007629395 Y11.930000066757202 Z0.1
G4 P500
G1 F1800 X14.54099988937378 Y11.802000045776367 Z0.1
G4 P500
G1 F1800 X14.47599983215332 Y11.626000165939331 Z0.1
G4 P500
G1 F1800 X14.375999927520752 Y11.342000007629395 Z0.1
G4 P500
G1 F1800 X14.283999919891357 Y11.097000002861023 Z0.1
G4 P500
G1 F1800 X14.151999950408936 Y10.751999974250793 Z0.1
G4 P500
G1 F1800 X14.039999961853027 Y10.45100000500679 Z0.1
G4 P500
G1 F1800 X13.947999954223633 Y10.200000017881393 Z0.1
G4 P500
G1 F1800 X13.884000301361084 Y10.03599999845028 Z0.1
G4 P500
G1 F1800 X13.818000316619873 Y9.876999996602535 Z0.1
G4 P500
G1 F1800 X13.746000289916992 Y9.712999999523163 Z0.1
G4 P500
G1 F1800 X13.691999912261963 Y9.582999974489212 Z0.1
G4 P500
G1 F1800 X13.651000022888184 Y9.477999985218048 Z0.1
G4 P500
G1 F1800 X13.618000030517578 Y9.380999982357025 Z0.1
G4 P500
G1 F1800 X13.592000007629395 Y9.287999927997589 Z0.1
G4 P500
G1 F1800 X13.569000005722046 Y9.189999997615814 Z0.1
G4 P500
G1 F1800 X13.553999900817871 Y9.103999972343445 Z0.1
G4 P500
G1 F1800 X13.544000148773193 Y9.023000001907349 Z0.1
G4 P500
G1 F1800 X13.539999961853027 Y8.949000000953674 Z0.1
G4 P500
G1 F1800 X13.54099988937378 Y8.88100004196167 Z0.1
G4 P500
G1 F1800 X13.546000003814697 Y8.820000052452087 Z0.1
G4 P500
G1 F1800 X13.555000066757202 Y8.766000032424927 Z0.1
G4 P500
G1 F1800 X13.568000316619873 Y8.718000054359436 Z0.1
G4 P500
G1 F1800 X13.58299994468689 Y8.675999879837036 Z0.1
G4 P500
G1 F1800 X13.60200023651123 Y8.639000058174133 Z0.1
G4 P500
G1 F1800 X13.625999927520752 Y8.603000044822693 Z0.1
G4 P500
G1 F1800 X13.652000188827515 Y8.574000000953674 Z0.1
G4 P500
G1 F1800 X13.682000160217285 Y8.549000024795532 Z0.1
G4 P500
G1 F1800 X13.71399998664856 Y8.529000043869019 Z0.1
G4 P500
G1 F1800 X13.750999927520752 Y8.51199996471405 Z0.1
G4 P500
G1 F1800 X13.792999982833862 Y8.498999953269958 Z0.1
G4 P500
G1 F1800 X13.84000015258789 Y8.488999843597412 Z0.1
G4 P500
G1 F1800 X13.89299988746643 Y8.482999920845032 Z0.1
G4 P500
G1 F1800 X13.947999954223633 Y8.482999920845032 Z0.1
G4 P500
G1 F1800 X14.006999969482422 Y8.48800003528595 Z0.1
G4 P500
G1 F1800 X14.066999912261963 Y8.498000025749207 Z0.1
G4 P500
G1 F1800 X14.126999855041504 Y8.514000058174133 Z0.1
G4 P500
G1 F1800 X14.185999870300293 Y8.534999966621399 Z0.1
G4 P500
G1 F1800 X14.216000080108643 Y8.54799997806549 Z0.1
G4 P500
G1 F1800 X14.26800012588501 Y8.575000047683716 Z0.1
G4 P500
G1 F1800 X14.315999984741211 Y8.60699999332428 Z0.1
G4 P500
G1 F1800 X14.357999801635742 Y8.640999913215637 Z0.1
G4 P500
G1 F1800 X14.394000053405762 Y8.676999926567078 Z0.1
G4 P500
G1 F1800 X14.426000118255615 Y8.715999841690063 Z0.1
G4 P500
G1 F1800 X14.454999923706055 Y8.759999990463257 Z0.1
G4 P500
G1 F1800 X14.48199987411499 Y8.809999942779541 Z0.1
G4 P500
G1 F1800 X14.506999969482422 Y8.866000056266785 Z0.1
G4 P500
G1 F1800 X14.531000137329102 Y8.929999947547913 Z0.1
G4 P500
G1 F1800 X14.553999900817871 Y9.003999948501587 Z0.1
G4 P500
G1 F1800 X14.583000183105469 Y9.115000009536743 Z0.1
G4 P500
G1 F1800 X14.614999771118164 Y9.249000012874603 Z0.1
G4 P500
G1 F1800 X14.64300012588501 Y9.355999946594238 Z0.1
G4 P500
G1 F1800 X14.677000045776367 Y9.466000020503998 Z0.1
G4 P500
G1 F1800 X14.71500015258789 Y9.571999967098236 Z0.1
G4 P500
G1 F1800 X14.771999835968018 Y9.715999990701675 Z0.1
G4 P500
G1 F1800 X14.877999782562256 Y9.968999998643994 Z0.1
G4 P500
G1 F1800 X14.942999839782715 Y10.135000005364418 Z0.1
G4 P500
G1 F1800 X15.032000064849854 Y10.377999991178513 Z0.1
G4 P500
G1 F1800 X15.092999935150146 Y10.544000029563904 Z0.1
G4 P500
G1 F1800 X15.145000457763672 Y10.67299997806549 Z0.1
G4 P500
G1 F1800 X15.190999984741211 Y10.781000018119812 Z0.1
G4 P500
G1 F1800 X15.232999801635742 Y10.866999983787537 Z0.1
G4 P500
G1 F1800 X15.269999980926514 Y10.934000015258789 Z0.1
G4 P500
G1 F1800 X15.303000450134277 Y10.98500007390976 Z0.1
G4 P500
G1 F1800 X15.331999778747559 Y11.023000001907349 Z0.1
G4 P500
G1 F1800 X15.357000350952148 Y11.049999952316284 Z0.1
G4 P500
G1 F1800 X15.381999969482422 Y11.067999958992004 Z0.1
G4 P500
G1 F1800 X15.401999950408936 Y11.077999949455261 Z0.1
G4 P500
G1 F1800 X15.419000625610352 Y11.082000017166138 Z0.1
G4 P500
G1 F1800 X15.436000347137451 Y11.082000017166138 Z0.1
G4 P500
G1 F1800 X15.454000473022461 Y11.075999975204468 Z0.1
G4 P500
G1 F1800 X15.472000122070312 Y11.064000010490417 Z0.1
G4 P500
G1 F1800 X15.48900032043457 Y11.044999957084656 Z0.1
G4 P500
G1 F1800 X15.506999969482422 Y11.019000053405762 Z0.1
G4 P500
G1 F1800 X15.526999950408936 Y10.981000006198883 Z0.1
G4 P500
G1 F1800 X15.55299997329712 Y10.921000003814697 Z0.1
G4 P500
G1 F1800 X15.583000183105469 Y10.836000084877014 Z0.1
G4 P500
G1 F1800 X15.620999813079834 Y10.71100002527237 Z0.1
G4 P500
G1 F1800 X15.682000637054443 Y10.492000013589859 Z0.1
G4 P500
G1 F1800 X15.731000423431396 Y10.32200002670288 Z0.1
G4 P500
G1 F1800 X15.77899980545044 Y10.174999997019768 Z0.1
G4 P500
G1 F1800 X15.839000225067139 Y10.010000000707805 Z0.1
G4 P500
G1 F1800 X15.910000324249268 Y9.821999981999397 Z0.1
G4 P500
G1 F1800 X15.960000038146973 Y9.68299999833107 Z0.1
G4 P500
G1 F1800 X16.006999969482422 Y9.53899997472763 Z0.1
G4 P500
G1 F1800 X16.058000564575195 Y9.375 Z0.1
G4 P500
G1 F1800 X16.107999801635742 Y9.222000002861023 Z0.1
G4 P500
G1 F1800 X16.14799976348877 Y9.115000009536743 Z0.1
G4 P500
G1 F1800 X16.188000679016113 Y9.018999993801117 Z0.1
G4 P500
G1 F1800 X16.229000091552734 Y8.932000041007996 Z0.1
G4 P500
G1 F1800 X16.272000312805176 Y8.85099995136261 Z0.1
G4 P500
G1 F1800 X16.31500005722046 Y8.779000043869019 Z0.1
G4 P500
G1 F1800 X16.359000205993652 Y8.715999841690063 Z0.1
G4 P500
G1 F1800 X16.402000427246094 Y8.66100001335144 Z0.1
G4 P500
G1 F1800 X16.442999839782715 Y8.615000009536743 Z0.1
G4 P500
G1 F1800 X16.484000205993652 Y8.57700002193451 Z0.1
G4 P500
G1 F1800 X16.52299976348877 Y8.546000003814697 Z0.1
G4 P500
G1 F1800 X16.560999870300293 Y8.521999835968018 Z0.1
G4 P500
G1 F1800 X16.598000049591064 Y8.504999995231628 Z0.1
G4 P500
G1 F1800 X16.633999824523926 Y8.491999983787537 Z0.1
G4 P500
G1 F1800 X16.672000408172607 Y8.485000014305115 Z0.1
G4 P500
G1 F1800 X16.70300006866455 Y8.482999920845032 Z0.1
G4 P500
G1 F1800 X16.739999771118164 Y8.485999822616577 Z0.1
G4 P500
G1 F1800 X16.776999950408936 Y8.49399995803833 Z0.1
G4 P500
G1 F1800 X16.81600046157837 Y8.507999897003174 Z0.1
G4 P500
G1 F1800 X16.85699987411499 Y8.527999997138977 Z0.1
G4 P500
G1 F1800 X16.89799976348877 Y8.553999900817871 Z0.1
G4 P500
G1 F1800 X16.939000606536865 Y8.585999965667725 Z0.1
G4 P500
G1 F1800 X16.980000019073486 Y8.623999953269958 Z0.1
G4 P500
G1 F1800 X17.01300048828125 Y8.659999966621399 Z0.1
G4 P500
G1 F1800 X17.048999786376953 Y8.70799994468689 Z0.1
G4 P500
G1 F1800 X17.081000328063965 Y8.758999943733215 Z0.1
G4 P500
G1 F1800 X17.107999801635742 Y8.812000036239624 Z0.1
G4 P500
G1 F1800 X17.129000663757324 Y8.866000056266785 Z0.1
G4 P500
G1 F1800 X17.14400005340576 Y8.919999957084656 Z0.1
G4 P500
G1 F1800 X17.151000022888184 Y8.95799994468689 Z0.1
G4 P500
G1 F1800 X17.1560001373291 Y9.007999956607819 Z0.1
G4 P500
G1 F1800 X17.155000686645508 Y9.059000015258789 Z0.1
G4 P500
G1 F1800 X17.14900016784668 Y9.111000001430511 Z0.1
G4 P500
G1 F1800 X17.138000011444092 Y9.166999995708466 Z0.1
G4 P500
G1 F1800 X17.122000694274902 Y9.226999938488007 Z0.1
G4 P500
G1 F1800 X17.098999977111816 Y9.291999995708466 Z0.1
G4 P500
G1 F1800 X17.069000244140625 Y9.364000022411346 Z0.1
G4 P500
G1 F1800 X17.020999908447266 Y9.468999981880188 Z0.1
G4 P500
G1 F1800 X16.953999996185303 Y9.604999989271164 Z0.1
G4 P500
G1 F1800 X16.904000282287598 Y9.710999995470047 Z0.1
G4 P500
G1 F1800 X16.8580002784729 Y9.822999998927116 Z0.1
G4 P500
G1 F1800 X16.81600046157837 Y9.936999998986721 Z0.1
G4 P500
G1 F1800 X16.76200008392334 Y10.094999998807907 Z0.1
G4 P500
G1 F1800 X16.672000408172607 Y10.377999991178513 Z0.1
G4 P500
G1 F1800 X16.600000381469727 Y10.592000007629395 Z0.1
G4 P500
G1 F1800 X16.49399995803833 Y10.884999990463257 Z0.1
G4 P500
G1 F1800 X16.33300018310547 Y11.33400011062622 Z0.1
G4 P500
G1 F1800 X18.104999542236328 Y12.161999940872192 Z0.1
G4 P500
G1 F1800 X18.07699966430664 Y12.229000091552734 Z0.1
G4 P500
G1 F1800 X18.05500030517578 Y12.295000076293945 Z0.1
G4 P500
G1 F1800 X18.038999557495117 Y12.358999967575073 Z0.1
G4 P500
G1 F1800 X18.027999877929688 Y12.42199993133545 Z0.1
G4 P500
G1 F1800 X18.022000312805176 Y12.486000061035156 Z0.1
G4 P500
G1 F1800 X18.020999908447266 Y12.551000118255615 Z0.1
G4 P500
G1 F1800 X18.026000022888184 Y12.615999937057495 Z0.1
G4 P500
G1 F1800 X18.03600025177002 Y12.680000066757202 Z0.1
G4 P500
G1 F1800 X18.050000190734863 Y12.741000175476074 Z0.1
G4 P500
G1 F1800 X18.069000244140625 Y12.79800033569336 Z0.1
G4 P500
G1 F1800 X18.090999603271484 Y12.8510000705719 Z0.1
G4 P500
G1 F1800 X18.116000175476074 Y12.898000240325928 Z0.1
G4 P500
G1 F1800 X18.145000457763672 Y12.940000057220459 Z0.1
G4 P500
G1 F1800 X18.15499973297119 Y12.953999996185303 Z0.1
G4 P500
G1 F1800 X18.185999870300293 Y12.98799991607666 Z0.1
G4 P500
G1 F1800 X18.218000411987305 Y13.016999959945679 Z0.1
G4 P500
G1 F1800 X18.253000259399414 Y13.041000127792358 Z0.1
G4 P500
G1 F1800 X18.288000106811523 Y13.059999942779541 Z0.1
G4 P500
G1 F1800 X18.32800006866455 Y13.075999975204468 Z0.1
G4 P500
G1 F1800 X18.373000144958496 Y13.088000059127808 Z0.1
G4 P500
G1 F1800 X18.423999786376953 Y13.096999883651733 Z0.1
G4 P500
G1 F1800 X18.449000358581543 Y13.099000215530396 Z0.1
G4 P500
G1 F1800 X18.484999656677246 Y13.101999998092651 Z0.1
G4 P500
G1 F1800 X18.55399990081787 Y13.102999925613403 Z0.1
G4 P500
G1 F1800 X18.633999824523926 Y13.099999904632568 Z0.1
G4 P500
G1 F1800 X18.64400005340576 Y13.099000215530396 Z0.1
G4 P500
G1 F1800 X18.758000373840332 Y13.089999914169312 Z0.1
G4 P500
G1 F1800 X18.791000366210938 Y13.086999893188477 Z0.1
G4 P500
G1 F1800 X18.928000450134277 Y13.07800030708313 Z0.1
G4 P500
G1 F1800 X19.050000190734863 Y13.073999881744385 Z0.1
G4 P500
G1 F1800 X19.180999755859375 Y13.073999881744385 Z0.1
G4 P500
G1 F1800 X19.401000022888184 Y13.079999923706055 Z0.1
G4 P500
G1 F1800 X19.503999710083008 Y13.082000017166138 Z0.1
G4 P500
G1 F1800 X19.729999542236328 Y13.08299994468689 Z0.1
G4 P500
G1 F1800 X20.047000885009766 Y13.081000089645386 Z0.1
G4 P500
G1 F1800 X20.398000717163086 Y13.08299994468689 Z0.1
G4 P500
G1 F1800 X20.623001098632812 Y13.08299994468689 Z0.1
G4 P500
G1 F1800 X20.77299976348877 Y13.078999996185303 Z0.1
G4 P500
G1 F1800 X20.873001098632812 Y13.072999954223633 Z0.1
G4 P500
G1 F1800 X20.944000244140625 Y13.065000057220459 Z0.1
G4 P500
G1 F1800 X21.006000518798828 Y13.053999900817871 Z0.1
G4 P500
G1 F1800 X21.060999870300293 Y13.039999961853027 Z0.1
G4 P500
G1 F1800 X21.109000205993652 Y13.0239999294281 Z0.1
G4 P500
G1 F1800 X21.151000022888184 Y13.003999948501587 Z0.1
G4 P500
G1 F1800 X21.189001083374023 Y12.98200011253357 Z0.1
G4 P500
G1 F1800 X21.223000526428223 Y12.956000328063965 Z0.1
G4 P500
G1 F1800 X21.253000259399414 Y12.92799997329712 Z0.1
G4 P500
G1 F1800 X21.2760009765625 Y12.89900016784668 Z0.1
G4 P500
G1 F1800 X21.301000595092773 Y12.858999967575073 Z0.1
G4 P500
G1 F1800 X21.322999954223633 Y12.813000202178955 Z0.1
G4 P500
G1 F1800 X21.340999603271484 Y12.762000322341919 Z0.1
G4 P500
G1 F1800 X21.354000091552734 Y12.706000328063965 Z0.1
G4 P500
G1 F1800 X21.362000465393066 Y12.6489999294281 Z0.1
G4 P500
G1 F1800 X21.364001274108887 Y12.617000102996826 Z0.1
G4 P500
G1 F1800 X21.364001274108887 Y12.56000018119812 Z0.1
G4 P500
G1 F1800 X21.357999801635742 Y12.504000186920166 Z0.1
G4 P500
G1 F1800 X21.347999572753906 Y12.45300006866455 Z0.1
G4 P500
G1 F1800 X21.333999633789062 Y12.405999898910522 Z0.1
G4 P500
G1 F1800 X21.31700038909912 Y12.364000082015991 Z0.1
G4 P500
G1 F1800 X21.29599952697754 Y12.325000047683716 Z0.1
G4 P500
G1 F1800 X21.27400016784668 Y12.296000003814697 Z0.1
G4 P500
G1 F1800 X21.24400043487549 Y12.26200008392334 Z0.1
G4 P500
G1 F1800 X21.211000442504883 Y12.233999967575073 Z0.1
G4 P500
G1 F1800 X21.17400074005127 Y12.20900011062622 Z0.1
G4 P500
G1 F1800 X21.13099956512451 Y12.184999942779541 Z0.1
G4 P500
G1 F1800 X21.08199977874756 Y12.164000034332275 Z0.1
G4 P500
G1 F1800 X21.026000022888184 Y12.144999980926514 Z0.1
G4 P500
G1 F1800 X20.961999893188477 Y12.128999948501587 Z0.1
G4 P500
G1 F1800 X20.887999534606934 Y12.114000082015991 Z0.1
G4 P500
G1 F1800 X20.800999641418457 Y12.101999998092651 Z0.1
G4 P500
G1 F1800 X20.679000854492188 Y12.091000080108643 Z0.1
G4 P500
G1 F1800 X20.55799961090088 Y12.08400011062622 Z0.1
G4 P500
G1 F1800 X20.4350004196167 Y12.08299994468689 Z0.1
G4 P500
G1 F1800 X20.31100082397461 Y12.088000059127808 Z0.1
G4 P500
G1 F1800 X20.173999786376953 Y12.098000049591064 Z0.1
G4 P500
G1 F1800 X19.99899959564209 Y12.115000009536743 Z0.1
G4 P500
G1 F1800 X19.85700035095215 Y12.127000093460083 Z0.1
G4 P500
G1 F1800 X19.758000373840332 Y12.131999969482422 Z0.1
G4 P500
G1 F1800 X19.692999839782715 Y12.13100004196167 Z0.1
G4 P500
G1 F1800 X19.640999794006348 Y12.127000093460083 Z0.1
G4 P500
G1 F1800 X19.60099983215332 Y12.119999885559082 Z0.1
G4 P500
G1 F1800 X19.569000244140625 Y12.111000061035156 Z0.1
G4 P500
G1 F1800 X19.54300022125244 Y12.098999977111816 Z0.1
G4 P500
G1 F1800 X19.536999702453613 Y12.09500002861023 Z0.1
G4 P500
G1 F1800 X19.520000457763672 Y12.081000089645386 Z0.1
G4 P500
G1 F1800 X19.50599956512451 Y12.062000036239624 Z0.1
G4 P500
G1 F1800 X19.496999740600586 Y12.04200005531311 Z0.1
G4 P500
G1 F1800 X19.491999626159668 Y12.01799988746643 Z0.1
G4 P500
G1 F1800 X19.491000175476074 Y11.988999962806702 Z0.1
G4 P500
G1 F1800 X19.494999885559082 Y11.956000089645386 Z0.1
G4 P500
G1 F1800 X19.505000114440918 Y11.914999961853027 Z0.1
G4 P500
G1 F1800 X19.522000312805176 Y11.866999983787537 Z0.1
G4 P500
G1 F1800 X19.54800033569336 Y11.809999942779541 Z0.1
G4 P500
G1 F1800 X19.583999633789062 Y11.741000175476074 Z0.1
G4 P500
G1 F1800 X19.633000373840332 Y11.659999966621399 Z0.1
G4 P500
G1 F1800 X19.69600009918213 Y11.564000129699707 Z0.1
G4 P500
G1 F1800 X19.77299976348877 Y11.456000089645386 Z0.1
G4 P500
G1 F1800 X19.866999626159668 Y11.327000141143799 Z0.1
G4 P500
G1 F1800 X20.020000457763672 Y11.120000004768372 Z0.1
G4 P500
G1 F1800 X20.187000274658203 Y10.882000029087067 Z0.1
G4 P500
G1 F1800 X20.42899990081787 Y10.53600001335144 Z0.1
G4 P500
G1 F1800 X20.735000610351562 Y10.104000002145767 Z0.1
G4 P500
G1 F1800 X20.92300033569336 Y9.839999988675117 Z0.1
G4 P500
G1 F1800 X21.04199981689453 Y9.666000008583069 Z0.1
G4 P500
G1 F1800 X21.107999801635742 Y9.564000010490417 Z0.1
G4 P500
G1 F1800 X21.151000022888184 Y9.49099999666214 Z0.1
G4 P500
G1 F1800 X21.185999870300293 Y9.421999990940094 Z0.1
G4 P500
G1 F1800 X21.21500015258789 Y9.35699999332428 Z0.1
G4 P500
G1 F1800 X21.23900032043457 Y9.292999982833862 Z0.1
G4 P500
G1 F1800 X21.258000373840332 Y9.227999985218048 Z0.1
G4 P500
G1 F1800 X21.262999534606934 Y9.203999996185303 Z0.1
G4 P500
G1 F1800 X21.274999618530273 Y9.13699996471405 Z0.1
G4 P500
G1 F1800 X21.2810001373291 Y9.068999946117401 Z0.1
G4 P500
G1 F1800 X21.283000946044922 Y9.000999987125397 Z0.1
G4 P500
G1 F1800 X21.279000282287598 Y8.934000015258789 Z0.1
G4 P500
G1 F1800 X21.270000457763672 Y8.871000051498413 Z0.1
G4 P500
G1 F1800 X21.256999969482422 Y8.812999963760376 Z0.1
G4 P500
G1 F1800 X21.24100112915039 Y8.759999990463257 Z0.1
G4 P500
G1 F1800 X21.220999717712402 Y8.711999893188477 Z0.1
G4 P500
G1 F1800 X21.20600128173828 Y8.682000041007996 Z0.1
G4 P500
G1 F1800 X21.18100070953369 Y8.64300000667572 Z0.1
G4 P500
G1 F1800 X21.15499973297119 Y8.610000014305115 Z0.1
G4 P500
G1 F1800 X21.125000953674316 Y8.582000017166138 Z0.1
G4 P500
G1 F1800 X21.090999603271484 Y8.555999994277954 Z0.1
G4 P500
G1 F1800 X21.055001258850098 Y8.53600001335144 Z0.1
G4 P500
G1 F1800 X21.015000343322754 Y8.518999934196472 Z0.1
G4 P500
G1 F1800 X20.968000411987305 Y8.504999995231628 Z0.1
G4 P500
G1 F1800 X20.911001205444336 Y8.493000030517578 Z0.1
G4 P500
G1 F1800 X20.847999572753906 Y8.485000014305115 Z0.1
G4 P500
G1 F1800 X20.774001121520996 Y8.480999946594238 Z0.1
G4 P500
G1 F1800 X20.682000160217285 Y8.480000019073486 Z0.1
G4 P500
G1 F1800 X20.527000427246094 Y8.482999920845032 Z0.1
G4 P500
G1 F1800 X20.300999641418457 Y8.485999822616577 Z0.1
G4 P500
G1 F1800 X20.04300022125244 Y8.483999967575073 Z0.1
G4 P500
G1 F1800 X19.682000160217285 Y8.483999967575073 Z0.1
G4 P500
G1 F1800 X19.378000259399414 Y8.483999967575073 Z0.1
G4 P500
G1 F1800 X19.0939998626709 Y8.480000019073486 Z0.1
G4 P500
G1 F1800 X18.89400005340576 Y8.478000044822693 Z0.1
G4 P500
G1 F1800 X18.73799991607666 Y8.480999946594238 Z0.1
G4 P500
G1 F1800 X18.618000030517578 Y8.48800003528595 Z0.1
G4 P500
G1 F1800 X18.538000106811523 Y8.495000004768372 Z0.1
G4 P500
G1 F1800 X18.468000411987305 Y8.50600004196167 Z0.1
G4 P500
G1 F1800 X18.406999588012695 Y8.518999934196472 Z0.1
G4 P500
G1 F1800 X18.352999687194824 Y8.534999966621399 Z0.1
G4 P500
G1 F1800 X18.30500030517578 Y8.55299997329712 Z0.1
G4 P500
G1 F1800 X18.262999534606934 Y8.574000000953674 Z0.1
G4 P500
G1 F1800 X18.225000381469727 Y8.597999930381775 Z0.1
G4 P500
G1 F1800 X18.19200038909912 Y8.625 Z0.1
G4 P500
G1 F1800 X18.163000106811523 Y8.654999852180481 Z0.1
G4 P500
G1 F1800 X18.13700008392334 Y8.690000057220459 Z0.1
G4 P500
G1 F1800 X18.11400032043457 Y8.730999946594238 Z0.1
G4 P500
G1 F1800 X18.0939998626709 Y8.779000043869019 Z0.1
G4 P500
G1 F1800 X18.07800006866455 Y8.832000017166138 Z0.1
G4 P500
G1 F1800 X18.06700038909912 Y8.888000011444092 Z0.1
G4 P500
G1 F1800 X18.060999870300293 Y8.94599997997284 Z0.1
G4 P500
G1 F1800 X18.060999870300293 Y9.003999948501587 Z0.1
G4 P500
G1 F1800 X18.06599998474121 Y9.059999942779541 Z0.1
G4 P500
G1 F1800 X18.076000213623047 Y9.112999975681305 Z0.1
G4 P500
G1 F1800 X18.09000015258789 Y9.16100001335144 Z0.1
G4 P500
G1 F1800 X18.10700035095215 Y9.203999996185303 Z0.1
G4 P500
G1 F1800 X18.128000259399414 Y9.242999911308289 Z0.1
G4 P500
G1 F1800 X18.14799976348877 Y9.273000001907349 Z0.1
G4 P500
G1 F1800 X18.177000045776367 Y9.305000007152557 Z0.1
G4 P500
G1 F1800 X18.20699977874756 Y9.33299994468689 Z0.1
G4 P500
G1 F1800 X18.243000030517578 Y9.35699999332428 Z0.1
G4 P500
G1 F1800 X18.282999992370605 Y9.379999995231628 Z0.1
G4 P500
G1 F1800 X18.329999923706055 Y9.399999976158142 Z0.1
G4 P500
G1 F1800 X18.383000373840332 Y9.417999982833862 Z0.1
G4 P500
G1 F1800 X18.44499969482422 Y9.434000015258789 Z0.1
G4 P500
G1 F1800 X18.517000198364258 Y9.44700002670288 Z0.1
G4 P500
G1 F1800 X18.600000381469727 Y9.457000017166138 Z0.1
G4 P500
G1 F1800 X18.71500015258789 Y9.467999994754791 Z0.1
G4 P500
G1 F1800 X18.84000015258789 Y9.476999998092651 Z0.1
G4 P500
G1 F1800 X18.95400047302246 Y9.481000006198883 Z0.1
G4 P500
G1 F1800 X19.07100009918213 Y9.481000006198883 Z0.1
G4 P500
G1 F1800 X19.192999839782715 Y9.475000023841858 Z0.1
G4 P500
G1 F1800 X19.31700038909912 Y9.462999999523163 Z0.1
G4 P500
G1 F1800 X19.477999687194824 Y9.444000005722046 Z0.1
G4 P500
G1 F1800 X19.48799991607666 Y9.44300001859665 Z0.1
G4 P500
G1 F1800 X19.621000289916992 Y9.42900002002716 Z0.1
G4 P500
G1 F1800 X19.711999893188477 Y9.42299997806549 Z0.1
G4 P500
G1 F1800 X19.777999877929688 Y9.42299997806549 Z0.1
G4 P500
G1 F1800 X19.82100009918213 Y9.426999986171722 Z0.1
G4 P500
G1 F1800 X19.854000091552734 Y9.433000028133392 Z0.1
G4 P500
G1 F1800 X19.878999710083008 Y9.441999971866608 Z0.1
G4 P500
G1 F1800 X19.897000312805176 Y9.453000009059906 Z0.1
G4 P500
G1 F1800 X19.91100025177002 Y9.466000020503998 Z0.1
G4 P500
G1 F1800 X19.913999557495117 Y9.471000015735626 Z0.1
G4 P500
G1 F1800 X19.92099952697754 Y9.486999988555908 Z0.1
G4 P500
G1 F1800 X19.923999786376953 Y9.506000012159348 Z0.1
G4 P500
G1 F1800 X19.92199993133545 Y9.52999997138977 Z0.1
G4 P500
G1 F1800 X19.913000106811523 Y9.562999963760376 Z0.1
G4 P500
G1 F1800 X19.897000312805176 Y9.600999981164932 Z0.1
G4 P500
G1 F1800 X19.875 Y9.64300000667572 Z0.1
G4 P500
G1 F1800 X19.838000297546387 Y9.701999992132187 Z0.1
G4 P500
G1 F1800 X19.788000106811523 Y9.775000005960464 Z0.1
G4 P500
G1 F1800 X19.73200035095215 Y9.849999994039536 Z0.1
G4 P500
G1 F1800 X19.626999855041504 Y9.987999999895692 Z0.1
G4 P500
G1 F1800 X19.5 Y10.16100001335144 Z0.1
G4 P500
G1 F1800 X19.354999542236328 Y10.367000043392181 Z0.1
G4 P500
G1 F1800 X19.137999534606934 Y10.671999990940094 Z0.1
G4 P500
G1 F1800 X18.892000198364258 Y11.014000058174133 Z0.1
G4 P500
G1 F1800 X18.687999725341797 Y11.299999952316284 Z0.1
G4 P500
G1 F1800 X18.5310001373291 Y11.514999985694885 Z0.1
G4 P500
G1 F1800 X18.387999534606934 Y11.704000115394592 Z0.1
G4 P500
G1 F1800 X18.29800033569336 Y11.830000162124634 Z0.1
G4 P500
G1 F1800 X18.237000465393066 Y11.92300009727478 Z0.1
G4 P500
G1 F1800 X18.18000030517578 Y12.015000104904175 Z0.1
G4 P500
G1 F1800 X18.138999938964844 Y12.091000080108643 Z0.1
G4 P500
G1 F1800 X17.60099983215332 Y13.099000215530396 Z0.1
G4 P500
G1 F1800 X17.60099983215332 Y13.252000331878662 Z0.1
G4 P500
G1 F1800 X17.60099983215332 Y14.519000053405762 Z0.1
G4 P500
G1 F1800 X18.407999992370605 Y15.95900011062622 Z0.1
G4 P500
G1 F1800 X18.430999755859375 Y15.946000099182129 Z0.1
G4 P500
G1 F1800 X18.513999938964844 Y15.894999980926514 Z0.1
G4 P500
G1 F1800 X18.57100009918213 Y15.861000537872314 Z0.1
G4 P500
G1 F1800 X18.619999885559082 Y15.831000328063965 Z0.1
G4 P500
G1 F1800 X18.711000442504883 Y15.77500057220459 Z0.1
G4 P500
G1 F1800 X18.725000381469727 Y15.766000270843506 Z0.1
G4 P500
G1 F1800 X18.82900047302246 Y15.699999809265137 Z0.1
G4 P500
G1 F1800 X18.848999977111816 Y15.687000274658203 Z0.1
G4 P500
G1 F1800 X18.93299961090088 Y15.633000373840332 Z0.1
G4 P500
G1 F1800 X18.986000061035156 Y15.598000526428223 Z0.1
G4 P500
G1 F1800 X19.03499984741211 Y15.565000057220459 Z0.1
G4 P500
G1 F1800 X19.121000289916992 Y15.508000373840332 Z0.1
G4 P500
G1 F1800 X19.137999534606934 Y15.497000217437744 Z0.1
G4 P500
G1 F1800 X19.23900032043457 Y15.42799997329712 Z0.1
G4 P500
G1 F1800 X19.25599956512451 Y15.41599988937378 Z0.1
G4 P500
G1 F1800 X19.34000015258789 Y15.357999801635742 Z0.1
G4 P500
G1 F1800 X19.388999938964844 Y15.322999954223633 Z0.1
G4 P500
G1 F1800 X19.4399995803833 Y15.28700065612793 Z0.1
G4 P500
G1 F1800 X19.522000312805176 Y15.228000164031982 Z0.1
G4 P500
G1 F1800 X19.538999557495117 Y15.215000629425049 Z0.1
G4 P500
G1 F1800 X19.637999534606934 Y15.143000602722168 Z0.1
G4 P500
G1 F1800 X19.652999877929688 Y15.131999969482422 Z0.1
G4 P500
G1 F1800 X19.736000061035156 Y15.070000171661377 Z0.1
G4 P500
G1 F1800 X19.782999992370605 Y15.03499984741211 Z0.1
G4 P500
G1 F1800 X19.83300018310547 Y14.995999813079834 Z0.1
G4 P500
G1 F1800 X19.91100025177002 Y14.935999870300293 Z0.1
G4 P500
G1 F1800 X19.93000030517578 Y14.92199993133545 Z0.1
G4 P500
G1 F1800 X20.0260009765625 Y14.847000122070312 Z0.1
G4 P500
G1 F1800 X20.038999557495117 Y14.835999965667725 Z0.1
G4 P500
G1 F1800 X20.12100124359131 Y14.769999980926514 Z0.1
G4 P500
G1 F1800 X20.164999961853027 Y14.735000133514404 Z0.1
G4 P500
G1 F1800 X20.215999603271484 Y14.693999767303467 Z0.1
G4 P500
G1 F1800 X20.291000366210938 Y14.631999969482422 Z0.1
G4 P500
G1 F1800 X20.30900001525879 Y14.616000175476074 Z0.1
G4 P500
G1 F1800 X20.402999877929688 Y14.538000106811523 Z0.1
G4 P500
G1 F1800 X20.414999961853027 Y14.526999950408936 Z0.1
G4 P500
G1 F1800 X20.425000190734863 Y14.519000053405762 Z0.1
G4 P500
G1 F1800 X20.494999885559082 Y14.45900011062622 Z0.1
G4 P500
G1 F1800 X20.538000106811523 Y14.42199993133545 Z0.1
G4 P500
G1 F1800 X20.586999893188477 Y14.379000186920166 Z0.1
G4 P500
G1 F1800 X20.65999984741211 Y14.314000129699707 Z0.1
G4 P500
G1 F1800 X20.678000450134277 Y14.297999858856201 Z0.1
G4 P500
G1 F1800 X20.76900005340576 Y14.217000007629395 Z0.1
G4 P500
G1 F1800 X20.781999588012695 Y14.205999851226807 Z0.1
G4 P500
G1 F1800 X20.85900115966797 Y14.135000228881836 Z0.1
G4 P500
G1 F1800 X20.9010009765625 Y14.09499979019165 Z0.1
G4 P500
G1 F1800 X20.947999954223633 Y14.052000045776367 Z0.1
G4 P500
G1 F1800 X21.02000141143799 Y13.984000205993652 Z0.1
G4 P500
G1 F1800 X21.03600025177002 Y13.969000339508057 Z0.1
G4 P500
G1 F1800 X21.12399959564209 Y13.884000301361084 Z0.1
G4 P500
G1 F1800 X21.137999534606934 Y13.871000051498413 Z0.1
G4 P500
G1 F1800 X21.211000442504883 Y13.799000024795532 Z0.1
G4 P500
G1 F1800 X21.255001068115234 Y13.75600004196167 Z0.1
G4 P500
G1 F1800 X21.37100124359131 Y13.640000343322754 Z0.1
G4 P500
G1 F1800 X21.383999824523926 Y13.627000093460083 Z0.1
G4 P500
G1 F1800 X21.484999656677246 Y13.522000074386597 Z0.1
G4 P500
G1 F1800 X21.553000450134277 Y13.451000213623047 Z0.1
G4 P500
G1 F1800 X21.599000930786133 Y13.403000354766846 Z0.1
G4 P500
G1 F1800 X21.711000442504883 Y13.282999992370605 Z0.1
G4 P500
G1 F1800 X21.72000026702881 Y13.273000240325928 Z0.1
G4 P500
G1 F1800 X21.739999771118164 Y13.252000331878662 Z0.1
G4 P500
G1 F1800 X21.821999549865723 Y13.161999940872192 Z0.1
G4 P500
G1 F1800 X21.878000259399414 Y13.099000215530396 Z0.1
G4 P500
G1 F1800 X21.885000228881836 Y13.091000080108643 Z0.1
G4 P500
G1 F1800 X21.930999755859375 Y13.039999961853027 Z0.1
G4 P500
G1 F1800 X22.038999557495117 Y12.91599988937378 Z0.1
G4 P500
G1 F1800 X22.04699993133545 Y12.907000064849854 Z0.1
G4 P500
G1 F1800 X22.145000457763672 Y12.79200029373169 Z0.1
G4 P500
G1 F1800 X22.204999923706055 Y12.719000339508057 Z0.1
G4 P500
G1 F1800 X22.249000549316406 Y12.66700005531311 Z0.1
G4 P500
G1 F1800 X22.35200023651123 Y12.54099988937378 Z0.1
G4 P500
G1 F1800 X22.362001419067383 Y12.529000043869019 Z0.1
G4 P500
G1 F1800 X22.45400047302246 Y12.414000034332275 Z0.1
G4 P500
G1 F1800 X22.515000343322754 Y12.335000038146973 Z0.1
G4 P500
G1 F1800 X22.554000854492188 Y12.285000085830688 Z0.1
G4 P500
G1 F1800 X22.652000427246094 Y12.155999898910522 Z0.1
G4 P500
G1 F1800 X22.666000366210938 Y12.138000011444092 Z0.1
G4 P500
G1 F1800 X22.74899959564209 Y12.026000022888184 Z0.1
G4 P500
G1 F1800 X22.814001083374023 Y11.937000036239624 Z0.1
G4 P500
G1 F1800 X22.8439998626709 Y11.894999980926514 Z0.1
G4 P500
G1 F1800 X22.937999725341797 Y11.763000011444092 Z0.1
G4 P500
G1 F1800 X22.958999633789062 Y11.733999967575073 Z0.1
G4 P500
G1 F1800 X23.0310001373291 Y11.628999948501587 Z0.1
G4 P500
G1 F1800 X23.100000381469727 Y11.526999950408936 Z0.1
G4 P500
G1 F1800 X23.121999740600586 Y11.495000004768372 Z0.1
G4 P500
G1 F1800 X23.211999893188477 Y11.360000133514404 Z0.1
G4 P500
G1 F1800 X23.239001274108887 Y11.317000150680542 Z0.1
G4 P500
G1 F1800 X23.300000190734863 Y11.223000049591064 Z0.1
G4 P500
G1 F1800 X23.375 Y11.103000044822693 Z0.1
G4 P500
G1 F1800 X23.386000633239746 Y11.085999965667725 Z0.1
G4 P500
G1 F1800 X23.472000122070312 Y10.94700002670288 Z0.1
G4 P500
G1 F1800 X23.508000373840332 Y10.886000037193298 Z0.1
G4 P500
G1 F1800 X23.555001258850098 Y10.807000041007996 Z0.1
G4 P500
G1 F1800 X23.626999855041504 Y10.684000015258789 Z0.1
G4 P500
G1 F1800 X23.651000022888184 Y10.64300000667572 Z0.1
G4 P500
G1 F1800 X23.664999961853027 Y10.615000009536743 Z0.1
G4 P500
G1 F1800 X23.67300033569336 Y10.601000010967255 Z0.1
G4 P500
G1 F1800 X23.692999839782715 Y10.558000028133392 Z0.1
G4 P500
G1 F1800 X23.69900131225586 Y10.544000029563904 Z0.1
G4 P500
G1 F1800 X23.711999893188477 Y10.514999985694885 Z0.1
G4 P500
G1 F1800 X23.729000091552734 Y10.47299998998642 Z0.1
G4 P500
G1 F1800 X23.729000091552734 Y10.472000002861023 Z0.1
G4 P500
G1 F1800 X23.7450008392334 Y10.428999990224838 Z0.1
G4 P500
G1 F1800 X23.753999710083008 Y10.40200001001358 Z0.1
G4 P500
G1 F1800 X23.760000228881836 Y10.384999990463257 Z0.1
G4 P500
G1 F1800 X23.773000717163086 Y10.340000033378601 Z0.1
G4 P500
G1 F1800 X23.7760009765625 Y10.329000025987625 Z0.1
G4 P500
G1 F1800 X23.784000396728516 Y10.296000003814697 Z0.1
G4 P500
G1 F1800 X23.79300022125244 Y10.256999999284744 Z0.1
G4 P500
G1 F1800 X23.79300022125244 Y10.254999995231628 Z0.1
G4 P500
G1 F1800 X23.802000045776367 Y10.209999993443489 Z0.1
G4 P500
G1 F1800 X23.805999755859375 Y10.184000000357628 Z0.1
G4 P500
G1 F1800 X23.80900001525879 Y10.165000021457672 Z0.1
G4 P500
G1 F1800 X23.814000129699707 Y10.119000002741814 Z0.1
G4 P500
G1 F1800 X23.814000129699707 Y10.109999999403954 Z0.1
G4 P500
G1 F1800 X23.81700038909912 Y10.074000000953674 Z0.1
G4 P500
G1 F1800 X23.819000244140625 Y10.037000000476837 Z0.1
G4 P500
G1 F1800 X23.819000244140625 Y10.028999999165535 Z0.1
G4 P500
G1 F1800 X23.819000244140625 Y9.98399999924004 Z0.1
G4 P500
G1 F1800 X23.819000244140625 Y9.962999999523163 Z0.1
G4 P500
G1 F1800 X23.81800079345703 Y9.938999995589256 Z0.1
G4 P500
G1 F1800 X23.815000534057617 Y9.894000001251698 Z0.1
G4 P500
G1 F1800 X23.814000129699707 Y9.890000000596046 Z0.1
G4 P500
G1 F1800 X23.8100004196167 Y9.849000006914139 Z0.1
G4 P500
G1 F1800 X23.805999755859375 Y9.815999999642372 Z0.1
G4 P500
G1 F1800 X23.804000854492188 Y9.803999990224838 Z0.1
G4 P500
G1 F1800 X23.802000045776367 Y9.792999997735023 Z0.1
G4 P500
G1 F1800 X23.79400062561035 Y9.745999991893768 Z0.1
G4 P500
G1 F1800 X23.79300022125244 Y9.743000000715256 Z0.1
G4 P500
G1 F1800 X23.783000946044922 Y9.699999988079071 Z0.1
G4 P500
G1 F1800 X23.7760009765625 Y9.670999974012375 Z0.1
G4 P500
G1 F1800 X23.770999908447266 Y9.653999984264374 Z0.1
G4 P500
G1 F1800 X23.758000373840332 Y9.608999967575073 Z0.1
G4 P500
G1 F1800 X23.753999710083008 Y9.59799998998642 Z0.1
G4 P500
G1 F1800 X23.743000030517578 Y9.562999963760376 Z0.1
G4 P500
G1 F1800 X23.729000091552734 Y9.52700001001358 Z0.1
G4 P500
G1 F1800 X23.72599983215332 Y9.51800000667572 Z0.1
G4 P500
G1 F1800 X23.70699977874756 Y9.47299998998642 Z0.1
G4 P500
G1 F1800 X23.69900131225586 Y9.455999970436096 Z0.1
G4 P500
G1 F1800 X23.687000274658203 Y9.42900002002716 Z0.1
G4 P500
G1 F1800 X23.667000770568848 Y9.388999998569489 Z0.1
G4 P500
G1 F1800 X23.664999961853027 Y9.384999990463257 Z0.1
G4 P500
G1 F1800 X23.64299964904785 Y9.343999981880188 Z0.1
G4 P500
G1 F1800 X23.626999855041504 Y9.315999984741211 Z0.1
G4 P500
G1 F1800 X23.498000144958496 Y9.097000002861023 Z0.1
G4 P500
G1 F1800 X23.4950008392334 Y9.091000020503998 Z0.1
G4 P500
G1 F1800 X23.36500072479248 Y8.879999995231628 Z0.1
G4 P500
G1 F1800 X23.345999717712402 Y8.85099995136261 Z0.1
G4 P500
G1 F1800 X23.229000091552734 Y8.66700005531311 Z0.1
G4 P500
G1 F1800 X23.194000244140625 Y8.61300003528595 Z0.1
G4 P500
G1 F1800 X23.08899974822998 Y8.45799994468689 Z0.1
G4 P500
G1 F1800 X23.036999702453613 Y8.378999948501587 Z0.1
G4 P500
G1 F1800 X22.94700050354004 Y8.251000046730042 Z0.1
G4 P500
G1 F1800 X22.875 Y8.148000001907349 Z0.1
G4 P500
G1 F1800 X22.802000045776367 Y8.047999858856201 Z0.1
G4 P500
G1 F1800 X22.708999633789062 Y7.920000076293945 Z0.1
G4 P500
G1 F1800 X22.65499973297119 Y7.8480000495910645 Z0.1
G4 P500
G1 F1800 X22.56100082397461 Y7.724999904632568 Z0.1
G4 P500
G1 F1800 X22.538000106811523 Y7.694999933242798 Z0.1
G4 P500
G1 F1800 X22.503999710083008 Y7.651000022888184 Z0.1
G4 P500
G1 F1800 X22.36299991607666 Y7.4730000495910645 Z0.1
G4 P500
G1 F1800 X22.35099983215332 Y7.45799994468689 Z0.1
G4 P500
G1 F1800 X22.194000244140625 Y7.2669997215271 Z0.1
G4 P500
G1 F1800 X22.18299961090088 Y7.253999948501587 Z0.1
G4 P500
G1 F1800 X22.03499984741211 Y7.079999685287476 Z0.1
G4 P500
G1 F1800 X21.999000549316406 Y7.037999868392944 Z0.1
G4 P500
G1 F1800 X21.89900016784668 Y6.924999952316284 Z0.1
G4 P500
G1 F1800 X21.873001098632812 Y6.895999908447266 Z0.1
G4 P500
G1 F1800 X21.80900001525879 Y6.823999881744385 Z0.1
G4 P500
G1 F1800 X21.708001136779785 Y6.7149999141693115 Z0.1
G4 P500
G1 F1800 X21.616000175476074 Y6.615000009536743 Z0.1
G4 P500
G1 F1800 X21.541000366210938 Y6.536999940872192 Z0.1
G4 P500
G1 F1800 X21.42000102996826 Y6.4100000858306885 Z0.1
G4 P500
G1 F1800 X21.371999740600586 Y6.361999750137329 Z0.1
G4 P500
G1 F1800 X21.220001220703125 Y6.209000110626221 Z0.1
G4 P500
G1 F1800 X21.19900131225586 Y6.188999652862549 Z0.1
G4 P500
G1 F1800 X21.112001419067383 Y6.105000019073486 Z0.1
G4 P500
G1 F1800 X21.02400016784668 Y6.019999980926514 Z0.1
G4 P500
G1 F1800 X21.017000198364258 Y6.013000011444092 Z0.1
G4 P500
G1 F1800 X20.93600082397461 Y5.936999797821045 Z0.1
G4 P500
G1 F1800 X20.847000122070312 Y5.854000091552734 Z0.1
G4 P500
G1 F1800 X20.810999870300293 Y5.821000099182129 Z0.1
G4 P500
G1 F1800 X20.756999969482422 Y5.771999835968018 Z0.1
G4 P500
G1 F1800 X20.666000366210938 Y5.690999984741211 Z0.1
G4 P500
G1 F1800 X20.602001190185547 Y5.633999824523926 Z0.1
G4 P500
G1 F1800 X20.574999809265137 Y5.611000061035156 Z0.1
G4 P500
G1 F1800 X20.482999801635742 Y5.531000137329102 Z0.1
G4 P500
G1 F1800 X20.391000747680664 Y5.452000141143799 Z0.1
G4 P500
G1 F1800 X20.388999938964844 Y5.451000213623047 Z0.1
G4 P500
G1 F1800 X20.297000885009766 Y5.374000072479248 Z0.1
G4 P500
G1 F1800 X20.20300006866455 Y5.296999931335449 Z0.1
G4 P500
G1 F1800 X20.17300033569336 Y5.270999908447266 Z0.1
G4 P500
G1 F1800 X20.109000205993652 Y5.21999979019165 Z0.1
G4 P500
G1 F1800 X20.012999534606934 Y5.144000053405762 Z0.1
G4 P500
G1 F1800 X19.95300006866455 Y5.0960001945495605 Z0.1
G4 P500
G1 F1800 X19.91699981689453 Y5.068999767303467 Z0.1
G4 P500
G1 F1800 X19.82100009918213 Y4.994999885559082 Z0.1
G4 P500
G1 F1800 X19.729999542236328 Y4.926000118255615 Z0.1
G4 P500
G1 F1800 X19.723999977111816 Y4.921000003814697 Z0.1
G4 P500
G1 F1800 X19.625 Y4.847999572753906 Z0.1
G4 P500
G1 F1800 X19.527000427246094 Y4.776000022888184 Z0.1
G4 P500
G1 F1800 X19.503000259399414 Y4.758999824523926 Z0.1
G4 P500
G1 F1800 X19.427000045776367 Y4.704999923706055 Z0.1
G4 P500
G1 F1800 X19.32699966430664 Y4.633999347686768 Z0.1
G4 P500
G1 F1800 X19.27299976348877 Y4.5960001945495605 Z0.1
G4 P500
G1 F1800 X19.22599983215332 Y4.563999652862549 Z0.1
G4 P500
G1 F1800 X19.125 Y4.495999813079834 Z0.1
G4 P500
G1 F1800 X19.038999557495117 Y4.436999320983887 Z0.1
G4 P500
G1 F1800 X19.02299976348877 Y4.426999568939209 Z0.1
G4 P500
G1 F1800 X18.93000030517578 Y4.366000175476074 Z0.1
G4 P500
G1 F1800 X18.920000076293945 Y4.359999656677246 Z0.1
G4 P500
G1 F1800 X18.81599998474121 Y4.293000221252441 Z0.1
G4 P500
G1 F1800 X18.800999641418457 Y4.282999515533447 Z0.1
G4 P500
G1 F1800 X18.711999893188477 Y4.226999759674072 Z0.1
G4 P500
G1 F1800 X18.60700035095215 Y4.161999702453613 Z0.1
G4 P500
G1 F1800 X18.560999870300293 Y4.132999897003174 Z0.1
G4 P500
G1 F1800 X18.50100040435791 Y4.096999645233154 Z0.1
G4 P500
G1 F1800 X18.395000457763672 Y4.033999919891357 Z0.1
G4 P500
G1 F1800 X18.319000244140625 Y3.987999439239502 Z0.1
G4 P500
G1 F1800 X18.288000106811523 Y3.969999313354492 Z0.1
G4 P500
G1 F1800 X18.18000030517578 Y3.908999443054199 Z0.1
G4 P500
G1 F1800 X18.072999954223633 Y3.8470001220703125 Z0.1
G4 P500
G1 F1800 X18.071999549865723 Y3.8470001220703125 Z0.1
G4 P500
G1 F1800 X17.961999893188477 Y3.7870001792907715 Z0.1
G4 P500
G1 F1800 X17.85200071334839 Y3.7270002365112305 Z0.1
G4 P500
G1 F1800 X17.8270001411438 Y3.7129998207092285 Z0.1
G4 P500
G1 F1800 X17.742000102996826 Y3.6680002212524414 Z0.1
G4 P500
G1 F1800 X17.630000114440918 Y3.6100001335144043 Z0.1
G4 P500
G1 F1800 X17.60200023651123 Y3.5949997901916504 Z0.1
G4 P500
G1 F1800 X17.578999996185303 Y3.5830001831054688 Z0.1
G4 P500
G1 F1800 X17.51800012588501 Y3.552999973297119 Z0.1
G4 P500
G1 F1800 X17.40500020980835 Y3.495999336242676 Z0.1
G4 P500
G1 F1800 X17.32900047302246 Y3.4579997062683105 Z0.1
G4 P500
G1 F1800 X17.29199981689453 Y3.439999580383301 Z0.1
G4 P500
G1 F1800 X17.177000045776367 Y3.3859996795654297 Z0.1
G4 P500
G1 F1800 X17.0770001411438 Y3.3379993438720703 Z0.1
G4 P500
G1 F1800 X17.062000274658203 Y3.3319997787475586 Z0.1
G4 P500
G1 F1800 X16.946000576019287 Y3.2789998054504395 Z0.1
G4 P500
G1 F1800 X16.828999996185303 Y3.2270002365112305 Z0.1
G4 P500
G1 F1800 X16.82200002670288 Y3.2230000495910645 Z0.1
G4 P500
G1 F1800 X16.711999893188477 Y3.1760001182556152 Z0.1
G4 P500
G1 F1800 X16.5939998626709 Y3.125 Z0.1
G4 P500
G1 F1800 X16.56599998474121 Y3.11299991607666 Z0.1
G4 P500
G1 F1800 X16.47499990463257 Y3.076000213623047 Z0.1
G4 P500
G1 F1800 X16.355000019073486 Y3.0269999504089355 Z0.1
G4 P500
G1 F1800 X16.307000637054443 Y3.0079994201660156 Z0.1
G4 P500
G1 F1800 X16.235000610351562 Y2.979999542236328 Z0.1
G4 P500
G1 F1800 X16.11299991607666 Y2.932999610900879 Z0.1
G4 P500
G1 F1800 X16.047000408172607 Y2.9079999923706055 Z0.1
G4 P500
G1 F1800 X15.991000652313232 Y2.888000011444092 Z0.1
G4 P500
G1 F1800 X15.86899995803833 Y2.8429994583129883 Z0.1
G4 P500
G1 F1800 X15.782999992370605 Y2.811999797821045 Z0.1
G4 P500
G1 F1800 X15.74500036239624 Y2.798999786376953 Z0.1
G4 P500
G1 F1800 X15.620999813079834 Y2.756999969482422 Z0.1
G4 P500
G1 F1800 X15.51800012588501 Y2.7220001220703125 Z0.1
G4 P500
G1 F1800 X15.496000289916992 Y2.7140002250671387 Z0.1
G4 P500
G1 F1800 X15.369999885559082 Y2.673999786376953 Z0.1
G4 P500
G1 F1800 X15.250000476837158 Y2.6359996795654297 Z0.1
G4 P500
G1 F1800 X15.243000507354736 Y2.633999824523926 Z0.1
G4 P500
G1 F1800 X15.114999771118164 Y2.5949997901916504 Z0.1
G4 P500
G1 F1800 X14.986999988555908 Y2.557000160217285 Z0.1
G4 P500
G1 F1800 X14.980000019073486 Y2.554999351501465 Z0.1
G4 P500
G1 F1800 X14.857999801635742 Y2.5209999084472656 Z0.1
G4 P500
G1 F1800 X14.728000164031982 Y2.484999656677246 Z0.1
G4 P500
G1 F1800 X14.708000183105469 Y2.4790000915527344 Z0.1
G4 P500
G1 F1800 X14.597000122070312 Y2.4499993324279785 Z0.1
G4 P500
G1 F1800 X14.466000080108643 Y2.4159998893737793 Z0.1
G4 P500
G1 F1800 X14.436999797821045 Y2.4089999198913574 Z0.1
G4 P500
G1 F1800 X14.33400011062622 Y2.383999824523926 Z0.1
G4 P500
G1 F1800 X14.199999809265137 Y2.3519997596740723 Z0.1
G4 P500
G1 F1800 X14.164000034332275 Y2.3439998626708984 Z0.1
G4 P500
G1 F1800 X14.065999984741211 Y2.3219995498657227 Z0.1
G4 P500
G1 F1800 X13.932000160217285 Y2.2930002212524414 Z0.1
G4 P500
G1 F1800 X13.891000270843506 Y2.2839999198913574 Z0.1
G4 P500
G1 F1800 X13.796000242233276 Y2.2649998664855957 Z0.1
G4 P500
G1 F1800 X13.660000324249268 Y2.23799991607666 Z0.1
G4 P500
G1 F1800 X13.617000341415405 Y2.228999614715576 Z0.1
G4 P500
G1 F1800 X13.522000074386597 Y2.2119998931884766 Z0.1
G4 P500
G1 F1800 X13.384000062942505 Y2.186999797821045 Z0.1
G4 P500
G1 F1800 X13.343000173568726 Y2.179999828338623 Z0.1
G4 P500
G1 F1800 X13.246000051498413 Y2.163999557495117 Z0.1
G4 P500
G1 F1800 X13.106000185012817 Y2.142000198364258 Z0.1
G4 P500
G1 F1800 X13.068000078201294 Y2.1359996795654297 Z0.1
G4 P500
G1 F1800 X12.966000080108643 Y2.120999813079834 Z0.1
G4 P500
G1 F1800 X12.823999881744385 Y2.1020002365112305 Z0.1
G4 P500
G1 F1800 X12.795000076293945 Y2.0970001220703125 Z0.1
G4 P500
G1 F1800 X12.79200029373169 Y2.0970001220703125 Z0.1
G4 P500
G1 F1800 X12.682000160217285 Y2.0840001106262207 Z0.1
G4 P500
G1 F1800 X12.539999961853027 Y2.065999984741211 Z0.1
G4 P500
G1 F1800 X12.516000032424927 Y2.063999652862549 Z0.1
G4 P500
G1 F1800 X12.395999908447266 Y2.0510001182556152 Z0.1
G4 P500
G1 F1800 X12.252000093460083 Y2.0370001792907715 Z0.1
G4 P500
G1 F1800 X12.239000082015991 Y2.0349998474121094 Z0.1
G4 P500
G1 F1800 X12.10700011253357 Y2.0240001678466797 Z0.1
G4 P500
G1 F1800 X11.962000012397766 Y2.01200008392334 Z0.1
G4 P500
G1 F1800 X11.960999965667725 Y2.01200008392334 Z0.1
G4 P500
G1 F1800 X11.815000057220459 Y2.002999782562256 Z0.1
G4 P500
G1 F1800 X11.684000015258789 Y1.994999885559082 Z0.1
G4 P500
G1 F1800 X11.66700005531311 Y1.9940004348754883 Z0.1
G4 P500
G1 F1800 X11.519000053405762 Y1.9870004653930664 Z0.1
G4 P500
G1 F1800 X11.40499997138977 Y1.9820003509521484 Z0.1
G4 P500
G1 F1800 X11.370000123977661 Y1.9809999465942383 Z0.1
G4 P500
G1 F1800 X11.220999956130981 Y1.9770002365112305 Z0.1
G4 P500
G1 F1800 X11.126000046730042 Y1.9750003814697266 Z0.1
G4 P500
G1 F1800 X11.070000052452087 Y1.9750003814697266 Z0.1
G4 P500
G1 F1800 X10.919000029563904 Y1.9739999771118164 Z0.1
G4 P500
G1 F1800 X10.846000015735626 Y1.9729995727539062 Z0.1
G4 P500
G1 F1800 X10.767000019550323 Y1.9739999771118164 Z0.1
G4 P500
G1 F1800 X10.615000009536743 Y1.9759998321533203 Z0.1
G4 P500
G1 F1800 X10.564999997615814 Y1.9770002365112305 Z0.1
G4 P500
G1 F1800 X10.46100002527237 Y1.9799995422363281 Z0.1
G4 P500
G1 F1800 X10.307000011205673 Y1.984999656677246 Z0.1
G4 P500
G1 F1800 X10.284000009298325 Y1.9860000610351562 Z0.1
G4 P500
G1 F1800 X10.15199999511242 Y1.991999626159668 Z0.1
G4 P500
G1 F1800 X10.0 Y2.0 Z0.1
G4 P500
G1 F1800 X9.996999999973923 Y2.0 Z0.1
G4 P500
G1 F1800 X9.841000005602837 Y2.010000228881836 Z0.1
G4 P500
G1 F1800 X9.525000005960464 Y2.0279998779296875 Z0.1
G4 P500
G1 F1800 X8.985999941825867 Y2.060999870300293 Z0.1
G4 P500
G1 F1800 X8.883999943733215 Y2.0669994354248047 Z0.1
G4 P500
G1 F1800 X8.227999925613403 Y2.10599946975708 Z0.1
G4 P500
G1 F1800 X7.559999942779541 Y2.1459999084472656 Z0.1
G4 P500
G1 F1800 X6.878999710083008 Y2.186999797821045 Z0.1
G4 P500
G1 F1800 X6.519999742507935 Y2.2090001106262207 Z0.1
G4 P500
G1 F1800 X6.187000036239624 Y2.228999614715576 Z0.1
G4 P500
G1 F1800 X5.484000205993652 Y2.2709994316101074 Z0.1
G4 P500
G1 F1800 X4.769999980926514 Y2.314000129699707 Z0.1
G4 P500
G1 F1800 X4.046999931335449 Y2.356999397277832 Z0.1
G4 P500
G1 F1800 X3.315000057220459 Y2.4009995460510254 Z0.1
G4 P500
G1 F1800 X2.5739998817443848 Y2.446000099182129 Z0.1
G4 P500
G1 F1800 X1.8260002136230469 Y2.489999771118164 Z0.1
G4 P500
G1 F1800 X1.2139997482299805 Y2.5269994735717773 Z0.1
G4 P500
G1 F1800 X1.0699996948242188 Y2.535999298095703 Z0.1
G4 P500
G1 F1800 X0.30900001525878906 Y2.5809998512268066 Z0.1
G4 P500
G1 F1800 X-0.4589996337890625 Y2.627999782562256 Z0.1
G4 P500
G1 F1800 X-1.2310009002685547 Y2.673999786376953 Z0.1
G4 P500
G1 F1800 X-2.7880001068115234 Y2.767000198364258 Z0.1
G4 P500
G1 F1800 X-3.503000259399414 Y2.809999465942383 Z0.1
G4 P500
G1 F1800 X-4.357999801635742 Y2.860999584197998 Z0.1
G4 P500
G1 F1800 X-5.934000015258789 Y2.9559998512268066 Z0.1
G4 P500
G1 F1800 X-7.51099967956543 Y3.0510001182556152 Z0.1
G4 P500
G1 F1800 X-9.084999084472656 Y3.1449995040893555 Z0.1
G4 P500
G1 F1800 X-9.283000946044922 Y3.1570000648498535 Z0.1
G4 P500
G1 F1800 X-9.283000946044922 Y4.366000175476074 Z0.1
G4 P500
G1 F1800 X-10.649002075195312 Y3.238999843597412 Z0.1
G4 P500
G1 F1800 X-12.198999404907227 Y3.3319997787475586 Z0.1
G4 P500
G1 F1800 X-13.350000381469727 Y3.4010000228881836 Z0.1
G4 P500
G1 F1800 X-13.405000686645508 Y3.4049997329711914 Z0.1
G4 P500
G1 F1800 X-13.458999633789062 Y3.4109997749328613 Z0.1
G4 P500
G1 F1800 X-13.476999282836914 Y3.4130001068115234 Z0.1
G4 P500
G1 F1800 X-13.51300048828125 Y3.4169998168945312 Z0.1
G4 P500
G1 F1800 X-13.565999984741211 Y3.425999641418457 Z0.1
G4 P500
G1 F1800 X-13.601999282836914 Y3.432999610900879 Z0.1
G4 P500
G1 F1800 X-13.619001388549805 Y3.435999870300293 Z0.1
G4 P500
G1 F1800 X-13.670999526977539 Y3.4469995498657227 Z0.1
G4 P500
G1 F1800 X-13.722999572753906 Y3.4600000381469727 Z0.1
G4 P500
G1 F1800 X-13.724000930786133 Y3.4600000381469727 Z0.1
G4 P500
G1 F1800 X-13.774002075195312 Y3.4739999771118164 Z0.1
G4 P500
G1 F1800 X-13.805000305175781 Y3.4840002059936523 Z0.1
G4 P500
G1 F1800 X-13.825000762939453 Y3.489999771118164 Z0.1
G4 P500
G1 F1800 X-13.841999053955078 Y3.495999336242676 Z0.1
G4 P500
G1 F1800 X-13.875 Y3.5069994926452637 Z0.1
G4 P500
G1 F1800 X-13.924999237060547 Y3.5260000228881836 Z0.1
G4 P500
G1 F1800 X-13.933000564575195 Y3.5299997329711914 Z0.1
G4 P500
G1 F1800 X-13.956001281738281 Y3.5390000343322754 Z0.1
G4 P500
G1 F1800 X-13.981000900268555 Y3.5500001907348633 Z0.1
G4 P500
G1 F1800 X-14.028999328613281 Y3.571000099182129 Z0.1
G4 P500
G1 F1800 X-14.065999984741211 Y3.5900001525878906 Z0.1
G4 P500
G1 F1800 X-14.075000762939453 Y3.5939998626708984 Z0.1
G4 P500
G1 F1800 X-14.121000289916992 Y3.618999481201172 Z0.1
G4 P500
G1 F1800 X-14.166000366210938 Y3.6439995765686035 Z0.1
G4 P500
G1 F1800 X-14.172000885009766 Y3.6479997634887695 Z0.1
G4 P500
G1 F1800 X-14.209001541137695 Y3.6710000038146973 Z0.1
G4 P500
G1 F1800 X-14.252002716064453 Y3.6989998817443848 Z0.1
G4 P500
G1 F1800 X-14.272001266479492 Y3.7129998207092285 Z0.1
G4 P500
G1 F1800 X-14.294002532958984 Y3.7290000915527344 Z0.1
G4 P500
G1 F1800 X-14.335000991821289 Y3.758999824523926 Z0.1
G4 P500
G1 F1800 X-14.367000579833984 Y3.7849998474121094 Z0.1
G4 P500
G1 F1800 X-14.375 Y3.790999412536621 Z0.1
G4 P500
G1 F1800 X-14.41400146484375 Y3.8249998092651367 Z0.1
G4 P500
G1 F1800 X-14.440000534057617 Y3.8480000495910645 Z0.1
G4 P500
G1 F1800 X-14.457000732421875 Y3.863999843597412 Z0.1
G4 P500
G1 F1800 X-14.47800064086914 Y3.883999824523926 Z0.1
G4 P500
G1 F1800 X-14.514999389648438 Y3.921999931335449 Z0.1
G4 P500
G1 F1800 X-14.540002822875977 Y3.9489994049072266 Z0.1
G4 P500
G1 F1800 X-14.549999237060547 Y3.9599995613098145 Z0.1
G4 P500
G1 F1800 X-14.559000015258789 Y3.969999313354492 Z0.1
G4 P500
G1 F1800 X-14.583999633789062 Y3.999000072479248 Z0.1
G4 P500
G1 F1800 X-14.617002487182617 Y4.038999557495117 Z0.1
G4 P500
G1 F1800 X-14.618000030517578 Y4.039999961853027 Z0.1
G4 P500
G1 F1800 X-14.64900016784668 Y4.079999923706055 Z0.1
G4 P500
G1 F1800 X-14.679000854492188 Y4.123000144958496 Z0.1
G4 P500
G1 F1800 X-14.68899917602539 Y4.13700008392334 Z0.1
G4 P500
G1 F1800 X-14.708002090454102 Y4.165999889373779 Z0.1
G4 P500
G1 F1800 X-14.736001968383789 Y4.210000038146973 Z0.1
G4 P500
G1 F1800 X-14.753000259399414 Y4.238999366760254 Z0.1
G4 P500
G1 F1800 X-14.761999130249023 Y4.25600004196167 Z0.1
G4 P500
G1 F1800 X-14.781999588012695 Y4.291999816894531 Z0.1
G4 P500
G1 F1800 X-14.806999206542969 Y4.340000152587891 Z0.1
G4 P500
G1 F1800 X-14.809999465942383 Y4.345999717712402 Z0.1
G4 P500
G1 F1800 X-14.819000244140625 Y4.366000175476074 Z0.1
G4 P500
G1 F1800 X-14.829999923706055 Y4.3899993896484375 Z0.1
G4 P500
G1 F1800 X-14.848001480102539 Y4.431000232696533 Z0.1
G4 P500
G1 F1800 X-14.851999282836914 Y4.440000057220459 Z0.1
G4 P500
G1 F1800 X-14.860000610351562 Y4.458000183105469 Z0.1
G4 P500
G1 F1800 X-14.871999740600586 Y4.491000175476074 Z0.1
G4 P500
G1 F1800 X-14.891002655029297 Y4.541999816894531 Z0.1
G4 P500
G1 F1800 X-14.902000427246094 Y4.573999404907227 Z0.1
G4 P500
G1 F1800 X-14.909000396728516 Y4.593999862670898 Z0.1
G4 P500
G1 F1800 X-14.92500114440918 Y4.646999835968018 Z0.1
G4 P500
G1 F1800 X-14.937000274658203 Y4.693999767303467 Z0.1
G4 P500
G1 F1800 X-14.939001083374023 Y4.700999736785889 Z0.1
G4 P500
G1 F1800 X-14.95199966430664 Y4.75600004196167 Z0.1
G4 P500
G1 F1800 X-14.96299934387207 Y4.810999870300293 Z0.1
G4 P500
G1 F1800 X-14.96500015258789 Y4.817999839782715 Z0.1
G4 P500
G1 F1800 X-14.96500015258789 Y4.818999767303467 Z0.1
G4 P500
G1 F1800 X-14.97500228881836 Y4.875999450683594 Z0.1
G4 P500
G1 F1800 X-14.983001708984375 Y4.933000087738037 Z0.1
G4 P500
G1 F1800 X-14.983999252319336 Y4.943999767303467 Z0.1
G4 P500
G1 F1800 X-14.989002227783203 Y4.991000175476074 Z0.1
G4 P500
G1 F1800 X-14.993999481201172 Y5.050000190734863 Z0.1
G4 P500
G1 F1800 X-14.996002197265625 Y5.073999881744385 Z0.1
G4 P500
G1 F1800 X-14.99799919128418 Y5.109000205993652 Z0.1
G4 P500
G1 F1800 X-15.0 Y5.168000221252441 Z0.1
G4 P500
G1 F1800 X-15.0 Y5.204999923706055 Z0.1
G4 P500
G1 F1800 X-14.559000015258789 Y4.366000175476074 Z0.1
G4 P500
G1 F1800 X-14.559000015258789 Y6.924999952316284 Z0.1
G4 P500
G1 F1800 X-15.0 Y6.924999952316284 Z0.1
G4 P500
G1 F1800 X-15.0 Y7.724999904632568 Z0.1
G4 P500
G1 F1800 X-14.559000015258789 Y7.724999904632568 Z0.1
G4 P500
G1 F1800 X-13.729999542236328 Y8.111999988555908 Z0.1
G4 P500
G1 F1800 X-13.672000885009766 Y8.009999990463257 Z0.1
G4 P500
G1 F1800 X-13.610000610351562 Y7.91100001335144 Z0.1
G4 P500
G1 F1800 X-13.544002532958984 Y7.816999912261963 Z0.1
G4 P500
G1 F1800 X-13.474002838134766 Y7.726999998092651 Z0.1
G4 P500
G1 F1800 X-13.472002029418945 Y7.724999904632568 Z0.1
G4 P500
G1 F1800 X-13.402002334594727 Y7.641999959945679 Z0.1
G4 P500
G1 F1800 X-13.325002670288086 Y7.561000108718872 Z0.1
G4 P500
G1 F1800 X-13.245000839233398 Y7.482999801635742 Z0.1
G4 P500
G1 F1800 X-13.160999298095703 Y7.409999847412109 Z0.1
G4 P500
G1 F1800 X-13.073999404907227 Y7.341000080108643 Z0.1
G4 P500
G1 F1800 X-12.983999252319336 Y7.2769999504089355 Z0.1
G4 P500
G1 F1800 X-12.889999389648438 Y7.216999769210815 Z0.1
G4 P500
G1 F1800 X-12.795000076293945 Y7.161999940872192 Z0.1
G4 P500
G1 F1800 X-12.697000503540039 Y7.111999988555908 Z0.1
G4 P500
G1 F1800 X-12.596000671386719 Y7.065999746322632 Z0.1
G4 P500
G1 F1800 X-12.492000579833984 Y7.025000095367432 Z0.1
G4 P500
G1 F1800 X-12.38599967956543 Y6.989000082015991 Z0.1
G4 P500
G1 F1800 X-12.27800178527832 Y6.956999778747559 Z0.1
G4 P500
G1 F1800 X-12.169000625610352 Y6.931999921798706 Z0.1
G4 P500
G1 F1800 X-12.137001037597656 Y6.924999952316284 Z0.1
G4 P500
G1 F1800 X-12.059000015258789 Y6.91100001335144 Z0.1
G4 P500
G1 F1800 X-11.944000244140625 Y6.893999814987183 Z0.1
G4 P500
G1 F1800 X-11.825000762939453 Y6.881999969482422 Z0.1
G4 P500
G1 F1800 X-11.701000213623047 Y6.875 Z0.1
G4 P500
G1 F1800 X-11.572000503540039 Y6.872999906539917 Z0.1
G4 P500
G1 F1800 X-11.5 Y6.872999906539917 Z0.1
G4 P500
G1 F1800 X-11.36199951171875 Y6.878999710083008 Z0.1
G4 P500
G1 F1800 X-11.245000839233398 Y6.888999938964844 Z0.1
G4 P500
G1 F1800 X-11.121999740600586 Y6.9040000438690186 Z0.1
G4 P500
G1 F1800 X-11.007001876831055 Y6.924999952316284 Z0.1
G4 P500
G1 F1800 X-11.003999710083008 Y6.924999952316284 Z0.1
G4 P500
G1 F1800 X-10.89900016784668 Y6.949999809265137 Z0.1
G4 P500
G1 F1800 X-10.79800033569336 Y6.979000091552734 Z0.1
G4 P500
G1 F1800 X-10.702999114990234 Y7.01200008392334 Z0.1
G4 P500
G1 F1800 X-10.611000061035156 Y7.049999713897705 Z0.1
G4 P500
G1 F1800 X-10.53499984741211 Y7.085999965667725 Z0.1
G4 P500
G1 F1800 X-10.447999954223633 Y7.132999897003174 Z0.1
G4 P500
G1 F1800 X-10.36300277709961 Y7.184999942779541 Z0.1
G4 P500
G1 F1800 X-10.278999328613281 Y7.242000102996826 Z0.1
G4 P500
G1 F1800 X-10.197000503540039 Y7.305999994277954 Z0.1
G4 P500
G1 F1800 X-10.12900161743164 Y7.364000082015991 Z0.1
G4 P500
G1 F1800 X-10.062999725341797 Y7.427000045776367 Z0.1
G4 P500
G1 F1800 X-10.011001586914062 Y7.483999967575073 Z0.1
G4 P500
G1 F1800 X-9.965999603271484 Y7.538000106811523 Z0.1
G4 P500
G1 F1800 X-9.929000854492188 Y7.591000080108643 Z0.1
G4 P500
G1 F1800 X-9.89900016784668 Y7.642999887466431 Z0.1
G4 P500
G1 F1800 X-9.874000549316406 Y7.693000078201294 Z0.1
G4 P500
G1 F1800 X-9.86199951171875 Y7.724999904632568 Z0.1
G4 P500
G1 F1800 X-9.856000900268555 Y7.740999937057495 Z0.1
G4 P500
G1 F1800 X-9.841999053955078 Y7.792999982833862 Z0.1
G4 P500
G1 F1800 X-9.833999633789062 Y7.8440001010894775 Z0.1
G4 P500
G1 F1800 X-9.832000732421875 Y7.86899995803833 Z0.1
G4 P500
G1 F1800 X-9.833000183105469 Y7.91700005531311 Z0.1
G4 P500
G1 F1800 X-9.839000701904297 Y7.9670000076293945 Z0.1
G4 P500
G1 F1800 X-9.850000381469727 Y8.016999959945679 Z0.1
G4 P500
G1 F1800 X-9.867000579833984 Y8.067999958992004 Z0.1
G4 P500
G1 F1800 X-9.888999938964844 Y8.118000030517578 Z0.1
G4 P500
G1 F1800 X-9.916000366210938 Y8.16699993610382 Z0.1
G4 P500
G1 F1800 X-9.919000625610352 Y8.172000050544739 Z0.1
G4 P500
G1 F1800 X-9.951000213623047 Y8.218000054359436 Z0.1
G4 P500
G1 F1800 X-9.988000869750977 Y8.261000037193298 Z0.1
G4 P500
G1 F1800 X-10.027000427246094 Y8.29799997806549 Z0.1
G4 P500
G1 F1800 X-10.068000793457031 Y8.328999996185303 Z0.1
G4 P500
G1 F1800 X-10.111000061035156 Y8.355000019073486 Z0.1
G4 P500
G1 F1800 X-10.153999328613281 Y8.373999834060669 Z0.1
G4 P500
G1 F1800 X-10.16200065612793 Y8.376999974250793 Z0.1
G4 P500
G1 F1800 X-10.204000473022461 Y8.388999938964844 Z0.1
G4 P500
G1 F1800 X-10.248001098632812 Y8.396999955177307 Z0.1
G4 P500
G1 F1800 X-10.295000076293945 Y8.39900004863739 Z0.1
G4 P500
G1 F1800 X-10.343999862670898 Y8.396999955177307 Z0.1
G4 P500
G1 F1800 X-10.39699935913086 Y8.388999938964844 Z0.1
G4 P500
G1 F1800 X-10.452999114990234 Y8.376000046730042 Z0.1
G4 P500
G1 F1800 X-10.513999938964844 Y8.35699987411499 Z0.1
G4 P500
G1 F1800 X-10.580001831054688 Y8.330999851226807 Z0.1
G4 P500
G1 F1800 X-10.650001525878906 Y8.299000024795532 Z0.1
G4 P500
G1 F1800 X-10.726001739501953 Y8.258999824523926 Z0.1
G4 P500
G1 F1800 X-10.809000015258789 Y8.210999965667725 Z0.1
G4 P500
G1 F1800 X-10.930002212524414 Y8.133999824523926 Z0.1
G4 P500
G1 F1800 X-11.056001663208008 Y8.05400002002716 Z0.1
G4 P500
G1 F1800 X-11.134002685546875 Y8.007999897003174 Z0.1
G4 P500
G1 F1800 X-11.205999374389648 Y7.9700000286102295 Z0.1
G4 P500
G1 F1800 X-11.27199935913086 Y7.940000057220459 Z0.1
G4 P500
G1 F1800 X-11.334999084472656 Y7.915999889373779 Z0.1
G4 P500
G1 F1800 X-11.39699935913086 Y7.898000001907349 Z0.1
G4 P500
G1 F1800 X-11.46500015258789 Y7.882999897003174 Z0.1
G4 P500
G1 F1800 X-11.53499984741211 Y7.874000072479248 Z0.1
G4 P500
G1 F1800 X-11.555999755859375 Y7.871999979019165 Z0.1
G4 P500
G1 F1800 X-11.632001876831055 Y7.868000030517578 Z0.1
G4 P500
G1 F1800 X-11.711002349853516 Y7.86899995803833 Z0.1
G4 P500
G1 F1800 X-11.791999816894531 Y7.875999927520752 Z0.1
G4 P500
G1 F1800 X-11.875999450683594 Y7.888000011444092 Z0.1
G4 P500
G1 F1800 X-11.959999084472656 Y7.9049999713897705 Z0.1
G4 P500
G1 F1800 X-12.045000076293945 Y7.927999973297119 Z0.1
G4 P500
G1 F1800 X-12.128999710083008 Y7.956000089645386 Z0.1
G4 P500
G1 F1800 X-12.209999084472656 Y7.989000082015991 Z0.1
G4 P500
G1 F1800 X-12.288999557495117 Y8.026999950408936 Z0.1
G4 P500
G1 F1800 X-12.364002227783203 Y8.069000005722046 Z0.1
G4 P500
G1 F1800 X-12.43600082397461 Y8.115000009536743 Z0.1
G4 P500
G1 F1800 X-12.503002166748047 Y8.164999961853027 Z0.1
G4 P500
G1 F1800 X-12.567001342773438 Y8.218999981880188 Z0.1
G4 P500
G1 F1800 X-12.625999450683594 Y8.276000022888184 Z0.1
G4 P500
G1 F1800 X-12.680999755859375 Y8.337000012397766 Z0.1
G4 P500
G1 F1800 X-12.731000900268555 Y8.401000022888184 Z0.1
G4 P500
G1 F1800 X-12.778999328613281 Y8.468999981880188 Z0.1
G4 P500
G1 F1800 X-12.823999404907227 Y8.542999982833862 Z0.1
G4 P500
G1 F1800 X-12.867000579833984 Y8.625 Z0.1
G4 P500
G1 F1800 X-12.906999588012695 Y8.710000038146973 Z0.1
G4 P500
G1 F1800 X-12.943000793457031 Y8.799999952316284 Z0.1
G4 P500
G1 F1800 X-12.97599983215332 Y8.896000027656555 Z0.1
G4 P500
G1 F1800 X-13.006000518798828 Y8.996999979019165 Z0.1
G4 P500
G1 F1800 X-13.031999588012695 Y9.102999925613403 Z0.1
G4 P500
G1 F1800 X-13.054000854492188 Y9.214999973773956 Z0.1
G4 P500
G1 F1800 X-13.073001861572266 Y9.334999978542328 Z0.1
G4 P500
G1 F1800 X-13.089000701904297 Y9.462000012397766 Z0.1
G4 P500
G1 F1800 X-13.101001739501953 Y9.599999964237213 Z0.1
G4 P500
G1 F1800 X-13.108999252319336 Y9.751999989151955 Z0.1
G4 P500
G1 F1800 X-13.114002227783203 Y9.919999994337559 Z0.1
G4 P500
G1 F1800 X-13.11199951171875 Y10.086000002920628 Z0.1
G4 P500
G1 F1800 X-13.106000900268555 Y10.252000004053116 Z0.1
G4 P500
G1 F1800 X-13.094001770019531 Y10.417000025510788 Z0.1
G4 P500
G1 F1800 X-13.080001831054688 Y10.550000011920929 Z0.1
G4 P500
G1 F1800 X-13.062000274658203 Y10.67299997806549 Z0.1
G4 P500
G1 F1800 X-13.041000366210938 Y10.787999987602234 Z0.1
G4 P500
G1 F1800 X-13.016002655029297 Y10.895000040531158 Z0.1
G4 P500
G1 F1800 X-12.985000610351562 Y11.008999943733215 Z0.1
G4 P500
G1 F1800 X-12.950000762939453 Y11.115000009536743 Z0.1
G4 P500
G1 F1800 X-12.910999298095703 Y11.21399998664856 Z0.1
G4 P500
G1 F1800 X-12.868001937866211 Y11.305999994277954 Z0.1
G4 P500
G1 F1800 X-12.822999954223633 Y11.391000032424927 Z0.1
G4 P500
G1 F1800 X-12.774999618530273 Y11.468999981880188 Z0.1
G4 P500
G1 F1800 X-12.724000930786133 Y11.539999961853027 Z0.1
G4 P500
G1 F1800 X-12.671001434326172 Y11.605999946594238 Z0.1
G4 P500
G1 F1800 X-12.621000289916992 Y11.659000039100647 Z0.1
G4 P500
G1 F1800 X-12.562999725341797 Y11.71399998664856 Z0.1
G4 P500
G1 F1800 X-12.500999450683594 Y11.765000104904175 Z0.1
G4 P500
G1 F1800 X-12.434001922607422 Y11.814000010490417 Z0.1
G4 P500
G1 F1800 X-12.36300277709961 Y11.860000014305115 Z0.1
G4 P500
G1 F1800 X-12.288000106811523 Y11.901000022888184 Z0.1
G4 P500
G1 F1800 X-12.208999633789062 Y11.939000010490417 Z0.1
G4 P500
G1 F1800 X-12.12700080871582 Y11.972000002861023 Z0.1
G4 P500
G1 F1800 X-12.042999267578125 Y12.0 Z0.1
G4 P500
G1 F1800 X-11.957000732421875 Y12.023000001907349 Z0.1
G4 P500
G1 F1800 X-11.870000839233398 Y12.04099988937378 Z0.1
G4 P500
G1 F1800 X-11.781002044677734 Y12.053999900817871 Z0.1
G4 P500
G1 F1800 X-11.690999984741211 Y12.062000036239624 Z0.1
G4 P500
G1 F1800 X-11.599002838134766 Y12.063999891281128 Z0.1
G4 P500
G1 F1800 X-11.506999969482422 Y12.061000108718872 Z0.1
G4 P500
G1 F1800 X-11.41400146484375 Y12.05299997329712 Z0.1
G4 P500
G1 F1800 X-11.319999694824219 Y12.039000034332275 Z0.1
G4 P500
G1 F1800 X-11.238000869750977 Y12.022000074386597 Z0.1
G4 P500
G1 F1800 X-11.158000946044922 Y12.0 Z0.1
G4 P500
G1 F1800 X-11.09000015258789 Y11.977000117301941 Z0.1
G4 P500
G1 F1800 X-11.028999328613281 Y11.952000141143799 Z0.1
G4 P500
G1 F1800 X-10.974002838134766 Y11.924000024795532 Z0.1
G4 P500
G1 F1800 X-10.924999237060547 Y11.89300000667572 Z0.1
G4 P500
G1 F1800 X-10.875999450683594 Y11.85699999332428 Z0.1
G4 P500
G1 F1800 X-10.833999633789062 Y11.819000124931335 Z0.1
G4 P500
G1 F1800 X-10.798999786376953 Y11.777999997138977 Z0.1
G4 P500
G1 F1800 X-10.770999908447266 Y11.738999962806702 Z0.1
G4 P500
G1 F1800 X-10.76300048828125 Y11.7260000705719 Z0.1
G4 P500
G1 F1800 X-10.736000061035156 Y11.690000176429749 Z0.1
G4 P500
G1 F1800 X-10.706001281738281 Y11.657000064849854 Z0.1
G4 P500
G1 F1800 X-10.672000885009766 Y11.628999948501587 Z0.1
G4 P500
G1 F1800 X-10.635002136230469 Y11.604000091552734 Z0.1
G4 P500
G1 F1800 X-10.594001770019531 Y11.582000136375427 Z0.1
G4 P500
G1 F1800 X-10.548999786376953 Y11.565000057220459 Z0.1
G4 P500
