; HOLY FUCK I HATE MY LIFE
; FLAVOR:Marlin
; Generated with Genuine Passion and a Good Grudge 0.6.8
; PRINT SETTINGS
; offsets: X:10.0 Y:10.0 Z0.1
G28 ; HOME ALL AXIS
; LAYER HEIGHT: 0
G1 F1800 X8.090169906616211 Y14.122147560119629 Z0.1
G4 P500
G1 F1800 X8.090169906616211 Y25.87785243988037 Z0.1
G4 P500
G1 F1800 X-3.090169906616211 Y29.51056480407715 Z0.1
G4 P500
G1 F1800 X-10.0 Y20.0 Z0.1
G4 P500
G1 F1800 X-3.090169906616211 Y10.489434838294983 Z0.1
G4 P500
G1 F1800 X8.090169906616211 Y14.122147560119629 Z0.1
G4 P500
; LAYER HEIGHT: 1
G1 F1800 X8.090169906616211 Y14.905861377716064 Z1.1
G4 P500
G1 F1800 X7.344813823699951 Y26.120033264160156 Z1.1
G4 P500
G1 F1800 X-3.5508251190185547 Y28.876527786254883 Z1.1
G4 P500
G1 F1800 X-9.539344787597656 Y19.365962028503418 Z1.1
G4 P500
G1 F1800 X-2.3448143005371094 Y10.731615722179413 Z1.1
G4 P500
G1 F1800 X8.090169906616211 Y14.905861377716064 Z1.1
G4 P500
; LAYER HEIGHT: 2
G1 F1800 X8.090169906616211 Y15.6895751953125 Z2.1
G4 P500
G1 F1800 X-1.5994577407836914 Y10.973796606063843 Z2.1
G4 P500
G1 F1800 X-9.078689575195312 Y18.731925010681152 Z2.1
G4 P500
G1 F1800 X-4.011480331420898 Y28.242488861083984 Z2.1
G4 P500
G1 F1800 X6.599457740783691 Y26.362215042114258 Z2.1
G4 P500
G1 F1800 X8.090169906616211 Y15.6895751953125 Z2.1
G4 P500
; LAYER HEIGHT: 3
G1 F1800 X8.090169906616211 Y16.473288536071777 Z3.1
G4 P500
G1 F1800 X5.85410213470459 Y26.604394912719727 Z3.1
G4 P500
G1 F1800 X-4.472135543823242 Y27.60845184326172 Z3.1
G4 P500
G1 F1800 X-8.618034362792969 Y18.09788703918457 Z3.1
G4 P500
G1 F1800 X-0.8541021347045898 Y11.215977430343628 Z3.1
G4 P500
G1 F1800 X8.090169906616211 Y16.473288536071777 Z3.1
G4 P500
; LAYER HEIGHT: 4
G1 F1800 X8.090169906616211 Y17.257002353668213 Z4.1
G4 P500
G1 F1800 X-0.10874557495117188 Y11.458158254623413 Z4.1
G4 P500
G1 F1800 X-8.157379150390625 Y17.46384906768799 Z4.1
G4 P500
G1 F1800 X-4.932791709899902 Y26.974414825439453 Z4.1
G4 P500
G1 F1800 X5.108745574951172 Y26.846576690673828 Z4.1
G4 P500
G1 F1800 X8.090169906616211 Y17.257002353668213 Z4.1
G4 P500
; LAYER HEIGHT: 5
G1 F1800 X8.090169906616211 Y18.04071617126465 Z5.1
G4 P500
G1 F1800 X4.36338996887207 Y27.088756561279297 Z5.1
G4 P500
G1 F1800 X-5.393446922302246 Y26.340375900268555 Z5.1
G4 P500
G1 F1800 X-7.696723937988281 Y16.829811573028564 Z5.1
G4 P500
G1 F1800 X0.6366100311279297 Y11.700339198112488 Z5.1
G4 P500
G1 F1800 X8.090169906616211 Y18.04071617126465 Z5.1
G4 P500
; LAYER HEIGHT: 6
G1 F1800 X1.3819656372070312 Y11.942520022392273 Z6.1
G4 P500
G1 F1800 X8.090169906616211 Y18.824429512023926 Z6.1
G4 P500
G1 F1800 X3.6180338859558105 Y27.330936431884766 Z6.1
G4 P500
G1 F1800 X-5.85410213470459 Y25.70633888244629 Z6.1
G4 P500
G1 F1800 X-7.2360687255859375 Y16.19577407836914 Z6.1
G4 P500
G1 F1800 X1.3819656372070312 Y11.942520022392273 Z6.1
G4 P500
; LAYER HEIGHT: 7
G1 F1800 X2.127322196960449 Y12.184700965881348 Z7.1
G4 P500
G1 F1800 X8.090169906616211 Y19.608142852783203 Z7.1
G4 P500
G1 F1800 X2.872677803039551 Y27.573118209838867 Z7.1
G4 P500
G1 F1800 X-6.31475830078125 Y25.072301864624023 Z7.1
G4 P500
G1 F1800 X-6.775413513183594 Y15.561736583709717 Z7.1
G4 P500
G1 F1800 X2.127322196960449 Y12.184700965881348 Z7.1
G4 P500
; LAYER HEIGHT: 8
G1 F1800 X2.872678279876709 Y12.426881790161133 Z8.1
G4 P500
G1 F1800 X-6.314756393432617 Y14.927698612213135 Z8.1
G4 P500
G1 F1800 X-6.775413513183594 Y24.438262939453125 Z8.1
G4 P500
G1 F1800 X2.127321720123291 Y27.81529998779297 Z8.1
G4 P500
G1 F1800 X8.090169906616211 Y20.391857147216797 Z8.1
G4 P500
G1 F1800 X2.872678279876709 Y12.426881790161133 Z8.1
G4 P500
; LAYER HEIGHT: 9
G1 F1800 X3.6180343627929688 Y12.669062614440918 Z9.1
G4 P500
G1 F1800 X-5.854101181030273 Y14.293661117553711 Z9.1
G4 P500
G1 F1800 X-7.2360687255859375 Y23.80422592163086 Z9.1
G4 P500
G1 F1800 X1.3819656372070312 Y28.057479858398438 Z9.1
G4 P500
G1 F1800 X8.090169906616211 Y21.17557144165039 Z9.1
G4 P500
G1 F1800 X3.6180343627929688 Y12.669062614440918 Z9.1
G4 P500
; LAYER HEIGHT: 10
G1 F1800 X4.36338996887207 Y12.911243438720703 Z10.1
G4 P500
G1 F1800 X-5.39344596862793 Y13.659623146057129 Z10.1
G4 P500
G1 F1800 X-7.696723937988281 Y23.170187950134277 Z10.1
G4 P500
G1 F1800 X0.6366100311279297 Y28.299659729003906 Z10.1
G4 P500
G1 F1800 X8.090169906616211 Y21.95928382873535 Z10.1
G4 P500
G1 F1800 X4.36338996887207 Y12.911243438720703 Z10.1
G4 P500
; THANK GOD I'M DONE