; HOLY FUCK I HATE MY LIFE
; FLAVOR:Marlin
; Generated with Retardation 0.6.8
G28 ; HOME ALL AXIS
; LAYER HEIGHT
G1 X10.0 Y10.0 Z0.1
G1 X10.0 Y20.0 Z0.1
G1 X20.0 Y20.0 Z0.1
G1 X20.0 Y10.0 Z0.1
G1 X10.0 Y10.0 Z0.1
; LAYER HEIGHT
G1 X10.0 Y10.0 Z1.1
G1 X10.0 Y11.0 Z1.1
G1 X10.0 Y20.0 Z1.1
G1 X11.0 Y20.0 Z1.1
G1 X20.0 Y20.0 Z1.1
G1 X20.0 Y19.0 Z1.1
G1 X20.0 Y10.0 Z1.1
G1 X19.0 Y10.0 Z1.1
G1 X10.0 Y10.0 Z1.1
; LAYER HEIGHT
G1 X10.0 Y10.0 Z2.1
G1 X10.0 Y12.0 Z2.1
G1 X10.0 Y20.0 Z2.1
G1 X12.0 Y20.0 Z2.1
G1 X20.0 Y20.0 Z2.1
G1 X20.0 Y18.0 Z2.1
G1 X20.0 Y10.0 Z2.1
G1 X18.0 Y10.0 Z2.1
G1 X10.0 Y10.0 Z2.1
; LAYER HEIGHT
G1 X10.0 Y10.0 Z3.1
G1 X10.0 Y13.0 Z3.1
G1 X10.0 Y20.0 Z3.1
G1 X13.0 Y20.0 Z3.1
G1 X20.0 Y20.0 Z3.1
G1 X20.0 Y17.0 Z3.1
G1 X20.0 Y10.0 Z3.1
G1 X17.0 Y10.0 Z3.1
G1 X10.0 Y10.0 Z3.1
; LAYER HEIGHT
G1 X10.0 Y10.0 Z4.1
G1 X10.0 Y14.0 Z4.1
G1 X10.0 Y20.0 Z4.1
G1 X14.0 Y20.0 Z4.1
G1 X20.0 Y20.0 Z4.1
G1 X20.0 Y16.0 Z4.1
G1 X20.0 Y10.0 Z4.1
G1 X16.0 Y10.0 Z4.1
G1 X10.0 Y10.0 Z4.1
; LAYER HEIGHT
G1 X10.0 Y10.0 Z5.1
G1 X10.0 Y15.0 Z5.1
G1 X10.0 Y20.0 Z5.1
G1 X15.0 Y20.0 Z5.1
G1 X20.0 Y20.0 Z5.1
G1 X20.0 Y15.0 Z5.1
G1 X20.0 Y10.0 Z5.1
G1 X15.0 Y10.0 Z5.1
G1 X10.0 Y10.0 Z5.1
; LAYER HEIGHT
G1 X10.0 Y10.0 Z6.1
G1 X14.0 Y10.0 Z6.1
G1 X20.0 Y10.0 Z6.1
G1 X20.0 Y14.0 Z6.1
G1 X20.0 Y20.0 Z6.1
G1 X16.0 Y20.0 Z6.1
G1 X10.0 Y20.0 Z6.1
G1 X10.0 Y16.0 Z6.1
G1 X10.0 Y10.0 Z6.1
; LAYER HEIGHT
G1 X10.0 Y10.0 Z7.1
G1 X13.0 Y10.0 Z7.1
G1 X20.0 Y10.0 Z7.1
G1 X20.0 Y13.0 Z7.1
G1 X20.0 Y20.0 Z7.1
G1 X17.0 Y20.0 Z7.1
G1 X10.0 Y20.0 Z7.1
G1 X10.0 Y17.0 Z7.1
G1 X10.0 Y10.0 Z7.1
; LAYER HEIGHT
G1 X10.0 Y10.0 Z8.1
G1 X12.0 Y10.0 Z8.1
G1 X20.0 Y10.0 Z8.1
G1 X20.0 Y12.0 Z8.1
G1 X20.0 Y20.0 Z8.1
G1 X18.0 Y20.0 Z8.1
G1 X10.0 Y20.0 Z8.1
G1 X10.0 Y18.0 Z8.1
G1 X10.0 Y10.0 Z8.1
; LAYER HEIGHT
G1 X10.0 Y10.0 Z9.1
G1 X11.0 Y10.0 Z9.1
G1 X20.0 Y10.0 Z9.1
G1 X20.0 Y11.0 Z9.1
G1 X20.0 Y20.0 Z9.1
G1 X19.0 Y20.0 Z9.1
G1 X10.0 Y20.0 Z9.1
G1 X10.0 Y19.0 Z9.1
G1 X10.0 Y10.0 Z9.1
; LAYER HEIGHT
G1 X10.0 Y10.0 Z10.1
G1 X10.0 Y20.0 Z10.1
G1 X20.0 Y20.0 Z10.1
G1 X20.0 Y10.0 Z10.1
G1 X10.0 Y10.0 Z10.1
