; HOLY FUCK I HATE MY LIFE
; FLAVOR:Marlin
; Generated with Retardation 0.6.8
; PRINT SETTINGS
; offsets: X:10.0 Y:10.0 Z0.1
G28 ; HOME ALL AXIS
; LAYER HEIGHT: 0.0
G1 F1800 X10.0 Y10.0 Z0.1
G4 P500
G1 F1800 X10.0 Y20.0 Z0.1
G4 P500
G1 F1800 X20.0 Y20.0 Z0.1
G4 P500
G1 F1800 X20.0 Y10.0 Z0.1
G4 P500
G1 F1800 X10.0 Y10.0 Z0.1
G4 P500
; LAYER HEIGHT: 0.1
G1 F1800 X10.0 Y10.0 Z0.19999999403953553
G4 P500
G1 F1800 X10.0 Y10.099999994039536 Z0.19999999403953553
G4 P500
G1 F1800 X10.0 Y20.0 Z0.19999999403953553
G4 P500
G1 F1800 X10.099999994039536 Y20.0 Z0.19999999403953553
G4 P500
G1 F1800 X20.0 Y20.0 Z0.19999999403953553
G4 P500
G1 F1800 X20.0 Y19.899999618530273 Z0.19999999403953553
G4 P500
G1 F1800 X20.0 Y10.0 Z0.19999999403953553
G4 P500
G1 F1800 X19.899999618530273 Y10.0 Z0.19999999403953553
G4 P500
G1 F1800 X10.0 Y10.0 Z0.19999999403953553
G4 P500
; LAYER HEIGHT: 0.2
G1 F1800 X10.0 Y10.0 Z0.299999988079071
G4 P500
G1 F1800 X10.0 Y10.199999988079071 Z0.299999988079071
G4 P500
G1 F1800 X10.0 Y20.0 Z0.299999988079071
G4 P500
G1 F1800 X10.199999988079071 Y20.0 Z0.299999988079071
G4 P500
G1 F1800 X20.0 Y20.0 Z0.299999988079071
G4 P500
G1 F1800 X20.0 Y19.800000190734863 Z0.299999988079071
G4 P500
G1 F1800 X20.0 Y10.0 Z0.299999988079071
G4 P500
G1 F1800 X19.800000190734863 Y10.0 Z0.299999988079071
G4 P500
G1 F1800 X10.0 Y10.0 Z0.299999988079071
G4 P500
; LAYER HEIGHT: 0.30000000000000004
G1 F1800 X10.0 Y10.0 Z0.40000001192092893
G4 P500
G1 F1800 X10.0 Y10.300000011920929 Z0.40000001192092893
G4 P500
G1 F1800 X10.0 Y20.0 Z0.40000001192092893
G4 P500
G1 F1800 X10.300000011920929 Y20.0 Z0.40000001192092893
G4 P500
G1 F1800 X20.0 Y20.0 Z0.40000001192092893
G4 P500
G1 F1800 X20.0 Y19.699999809265137 Z0.40000001192092893
G4 P500
G1 F1800 X20.0 Y10.0 Z0.40000001192092893
G4 P500
G1 F1800 X19.699999809265137 Y10.0 Z0.40000001192092893
G4 P500
G1 F1800 X10.0 Y10.0 Z0.40000001192092893
G4 P500
; LAYER HEIGHT: 0.4
G1 F1800 X10.0 Y10.0 Z0.49999997615814207
G4 P500
G1 F1800 X10.0 Y10.399999976158142 Z0.49999997615814207
G4 P500
G1 F1800 X10.0 Y20.0 Z0.49999997615814207
G4 P500
G1 F1800 X10.399999976158142 Y20.0 Z0.49999997615814207
G4 P500
G1 F1800 X20.0 Y20.0 Z0.49999997615814207
G4 P500
G1 F1800 X20.0 Y19.600000381469727 Z0.49999997615814207
G4 P500
G1 F1800 X20.0 Y10.0 Z0.49999997615814207
G4 P500
G1 F1800 X19.600000381469727 Y10.0 Z0.49999997615814207
G4 P500
G1 F1800 X10.0 Y10.0 Z0.49999997615814207
G4 P500
; LAYER HEIGHT: 0.5
G1 F1800 X10.0 Y10.0 Z0.6
G4 P500
G1 F1800 X10.0 Y10.5 Z0.6
G4 P500
G1 F1800 X10.0 Y20.0 Z0.6
G4 P500
G1 F1800 X10.5 Y20.0 Z0.6
G4 P500
G1 F1800 X20.0 Y20.0 Z0.6
G4 P500
G1 F1800 X20.0 Y19.5 Z0.6
G4 P500
G1 F1800 X20.0 Y10.0 Z0.6
G4 P500
G1 F1800 X19.5 Y10.0 Z0.6
G4 P500
G1 F1800 X10.0 Y10.0 Z0.6
G4 P500
; LAYER HEIGHT: 0.6000000000000001
G1 F1800 X10.0 Y10.0 Z0.7000000238418579
G4 P500
G1 F1800 X10.0 Y10.600000023841858 Z0.7000000238418579
G4 P500
G1 F1800 X10.0 Y20.0 Z0.7000000238418579
G4 P500
G1 F1800 X10.600000023841858 Y20.0 Z0.7000000238418579
G4 P500
G1 F1800 X20.0 Y20.0 Z0.7000000238418579
G4 P500
G1 F1800 X20.0 Y19.399999618530273 Z0.7000000238418579
G4 P500
G1 F1800 X20.0 Y10.0 Z0.7000000238418579
G4 P500
G1 F1800 X19.399999618530273 Y10.0 Z0.7000000238418579
G4 P500
G1 F1800 X10.0 Y10.0 Z0.7000000238418579
G4 P500
; LAYER HEIGHT: 0.7000000000000001
G1 F1800 X10.0 Y10.0 Z0.799999988079071
G4 P500
G1 F1800 X10.0 Y10.699999988079071 Z0.799999988079071
G4 P500
G1 F1800 X10.0 Y20.0 Z0.799999988079071
G4 P500
G1 F1800 X10.699999988079071 Y20.0 Z0.799999988079071
G4 P500
G1 F1800 X20.0 Y20.0 Z0.799999988079071
G4 P500
G1 F1800 X20.0 Y19.300000190734863 Z0.799999988079071
G4 P500
G1 F1800 X20.0 Y10.0 Z0.799999988079071
G4 P500
G1 F1800 X19.300000190734863 Y10.0 Z0.799999988079071
G4 P500
G1 F1800 X10.0 Y10.0 Z0.799999988079071
G4 P500
; LAYER HEIGHT: 0.8
G1 F1800 X10.0 Y10.0 Z0.8999999523162842
G4 P500
G1 F1800 X10.0 Y10.799999952316284 Z0.8999999523162842
G4 P500
G1 F1800 X10.0 Y20.0 Z0.8999999523162842
G4 P500
G1 F1800 X10.799999952316284 Y20.0 Z0.8999999523162842
G4 P500
G1 F1800 X20.0 Y20.0 Z0.8999999523162842
G4 P500
G1 F1800 X20.0 Y19.199999809265137 Z0.8999999523162842
G4 P500
G1 F1800 X20.0 Y10.0 Z0.8999999523162842
G4 P500
G1 F1800 X19.199999809265137 Y10.0 Z0.8999999523162842
G4 P500
G1 F1800 X10.0 Y10.0 Z0.8999999523162842
G4 P500
; LAYER HEIGHT: 0.9
G1 F1800 X10.0 Y10.0 Z0.9999999761581421
G4 P500
G1 F1800 X10.0 Y10.899999976158142 Z0.9999999761581421
G4 P500
G1 F1800 X10.0 Y20.0 Z0.9999999761581421
G4 P500
G1 F1800 X10.899999976158142 Y20.0 Z0.9999999761581421
G4 P500
G1 F1800 X20.0 Y20.0 Z0.9999999761581421
G4 P500
G1 F1800 X20.0 Y19.100000381469727 Z0.9999999761581421
G4 P500
G1 F1800 X20.0 Y10.0 Z0.9999999761581421
G4 P500
G1 F1800 X19.100000381469727 Y10.0 Z0.9999999761581421
G4 P500
G1 F1800 X10.0 Y10.0 Z0.9999999761581421
G4 P500
; LAYER HEIGHT: 1.0
G1 F1800 X10.0 Y10.0 Z1.1
G4 P500
G1 F1800 X10.0 Y11.0 Z1.1
G4 P500
G1 F1800 X10.0 Y20.0 Z1.1
G4 P500
G1 F1800 X11.0 Y20.0 Z1.1
G4 P500
G1 F1800 X20.0 Y20.0 Z1.1
G4 P500
G1 F1800 X20.0 Y19.0 Z1.1
G4 P500
G1 F1800 X20.0 Y10.0 Z1.1
G4 P500
G1 F1800 X19.0 Y10.0 Z1.1
G4 P500
G1 F1800 X10.0 Y10.0 Z1.1
G4 P500
; LAYER HEIGHT: 1.1
G1 F1800 X10.0 Y10.0 Z1.200000023841858
G4 P500
G1 F1800 X10.0 Y11.100000023841858 Z1.200000023841858
G4 P500
G1 F1800 X10.0 Y20.0 Z1.200000023841858
G4 P500
G1 F1800 X11.100000023841858 Y20.0 Z1.200000023841858
G4 P500
G1 F1800 X20.0 Y20.0 Z1.200000023841858
G4 P500
G1 F1800 X20.0 Y18.899999618530273 Z1.200000023841858
G4 P500
G1 F1800 X20.0 Y10.0 Z1.200000023841858
G4 P500
G1 F1800 X18.899999618530273 Y10.0 Z1.200000023841858
G4 P500
G1 F1800 X10.0 Y10.0 Z1.200000023841858
G4 P500
; LAYER HEIGHT: 1.2000000000000002
G1 F1800 X10.0 Y10.0 Z1.300000047683716
G4 P500
G1 F1800 X10.0 Y11.200000047683716 Z1.300000047683716
G4 P500
G1 F1800 X10.0 Y20.0 Z1.300000047683716
G4 P500
G1 F1800 X11.200000047683716 Y20.0 Z1.300000047683716
G4 P500
G1 F1800 X20.0 Y20.0 Z1.300000047683716
G4 P500
G1 F1800 X20.0 Y18.800000190734863 Z1.300000047683716
G4 P500
G1 F1800 X20.0 Y10.0 Z1.300000047683716
G4 P500
G1 F1800 X18.800000190734863 Y10.0 Z1.300000047683716
G4 P500
G1 F1800 X10.0 Y10.0 Z1.300000047683716
G4 P500
; LAYER HEIGHT: 1.3
G1 F1800 X10.0 Y10.0 Z1.3999999523162843
G4 P500
G1 F1800 X10.0 Y11.299999952316284 Z1.3999999523162843
G4 P500
G1 F1800 X10.0 Y20.0 Z1.3999999523162843
G4 P500
G1 F1800 X11.299999952316284 Y20.0 Z1.3999999523162843
G4 P500
G1 F1800 X20.0 Y20.0 Z1.3999999523162843
G4 P500
G1 F1800 X20.0 Y18.699999809265137 Z1.3999999523162843
G4 P500
G1 F1800 X20.0 Y10.0 Z1.3999999523162843
G4 P500
G1 F1800 X18.699999809265137 Y10.0 Z1.3999999523162843
G4 P500
G1 F1800 X10.0 Y10.0 Z1.3999999523162843
G4 P500
; LAYER HEIGHT: 1.4000000000000001
G1 F1800 X10.0 Y10.0 Z1.4999999761581422
G4 P500
G1 F1800 X10.0 Y11.399999976158142 Z1.4999999761581422
G4 P500
G1 F1800 X10.0 Y20.0 Z1.4999999761581422
G4 P500
G1 F1800 X11.399999976158142 Y20.0 Z1.4999999761581422
G4 P500
G1 F1800 X20.0 Y20.0 Z1.4999999761581422
G4 P500
G1 F1800 X20.0 Y18.600000381469727 Z1.4999999761581422
G4 P500
G1 F1800 X20.0 Y10.0 Z1.4999999761581422
G4 P500
G1 F1800 X18.600000381469727 Y10.0 Z1.4999999761581422
G4 P500
G1 F1800 X10.0 Y10.0 Z1.4999999761581422
G4 P500
; LAYER HEIGHT: 1.5
G1 F1800 X10.0 Y10.0 Z1.6
G4 P500
G1 F1800 X10.0 Y11.5 Z1.6
G4 P500
G1 F1800 X10.0 Y20.0 Z1.6
G4 P500
G1 F1800 X11.5 Y20.0 Z1.6
G4 P500
G1 F1800 X20.0 Y20.0 Z1.6
G4 P500
G1 F1800 X20.0 Y18.5 Z1.6
G4 P500
G1 F1800 X20.0 Y10.0 Z1.6
G4 P500
G1 F1800 X18.5 Y10.0 Z1.6
G4 P500
G1 F1800 X10.0 Y10.0 Z1.6
G4 P500
; LAYER HEIGHT: 1.6
G1 F1800 X10.0 Y10.0 Z1.6999999046325684
G4 P500
G1 F1800 X10.0 Y11.599999904632568 Z1.6999999046325684
G4 P500
G1 F1800 X10.0 Y20.0 Z1.6999999046325684
G4 P500
G1 F1800 X11.599999904632568 Y20.0 Z1.6999999046325684
G4 P500
G1 F1800 X20.0 Y20.0 Z1.6999999046325684
G4 P500
G1 F1800 X20.0 Y18.399999618530273 Z1.6999999046325684
G4 P500
G1 F1800 X20.0 Y10.0 Z1.6999999046325684
G4 P500
G1 F1800 X18.399999618530273 Y10.0 Z1.6999999046325684
G4 P500
G1 F1800 X10.0 Y10.0 Z1.6999999046325684
G4 P500
; LAYER HEIGHT: 1.7000000000000002
G1 F1800 X10.0 Y10.0 Z1.800000047683716
G4 P500
G1 F1800 X10.0 Y11.700000047683716 Z1.800000047683716
G4 P500
G1 F1800 X10.0 Y20.0 Z1.800000047683716
G4 P500
G1 F1800 X11.700000047683716 Y20.0 Z1.800000047683716
G4 P500
G1 F1800 X20.0 Y20.0 Z1.800000047683716
G4 P500
G1 F1800 X20.0 Y18.300000190734863 Z1.800000047683716
G4 P500
G1 F1800 X20.0 Y10.0 Z1.800000047683716
G4 P500
G1 F1800 X18.300000190734863 Y10.0 Z1.800000047683716
G4 P500
G1 F1800 X10.0 Y10.0 Z1.800000047683716
G4 P500
; LAYER HEIGHT: 1.8
G1 F1800 X10.0 Y10.0 Z1.8999999523162843
G4 P500
G1 F1800 X10.0 Y11.799999952316284 Z1.8999999523162843
G4 P500
G1 F1800 X10.0 Y20.0 Z1.8999999523162843
G4 P500
G1 F1800 X11.799999952316284 Y20.0 Z1.8999999523162843
G4 P500
G1 F1800 X20.0 Y20.0 Z1.8999999523162843
G4 P500
G1 F1800 X20.0 Y18.199999809265137 Z1.8999999523162843
G4 P500
G1 F1800 X20.0 Y10.0 Z1.8999999523162843
G4 P500
G1 F1800 X18.199999809265137 Y10.0 Z1.8999999523162843
G4 P500
G1 F1800 X10.0 Y10.0 Z1.8999999523162843
G4 P500
; LAYER HEIGHT: 1.9000000000000001
G1 F1800 X10.0 Y10.0 Z1.9999999761581422
G4 P500
G1 F1800 X10.0 Y11.899999976158142 Z1.9999999761581422
G4 P500
G1 F1800 X10.0 Y20.0 Z1.9999999761581422
G4 P500
G1 F1800 X11.899999976158142 Y20.0 Z1.9999999761581422
G4 P500
G1 F1800 X20.0 Y20.0 Z1.9999999761581422
G4 P500
G1 F1800 X20.0 Y18.100000381469727 Z1.9999999761581422
G4 P500
G1 F1800 X20.0 Y10.0 Z1.9999999761581422
G4 P500
G1 F1800 X18.100000381469727 Y10.0 Z1.9999999761581422
G4 P500
G1 F1800 X10.0 Y10.0 Z1.9999999761581422
G4 P500
; LAYER HEIGHT: 2.0
G1 F1800 X10.0 Y10.0 Z2.1
G4 P500
G1 F1800 X10.0 Y12.0 Z2.1
G4 P500
G1 F1800 X10.0 Y20.0 Z2.1
G4 P500
G1 F1800 X12.0 Y20.0 Z2.1
G4 P500
G1 F1800 X20.0 Y20.0 Z2.1
G4 P500
G1 F1800 X20.0 Y18.0 Z2.1
G4 P500
G1 F1800 X20.0 Y10.0 Z2.1
G4 P500
G1 F1800 X18.0 Y10.0 Z2.1
G4 P500
G1 F1800 X10.0 Y10.0 Z2.1
G4 P500
; LAYER HEIGHT: 2.1
G1 F1800 X10.0 Y10.0 Z2.1999999046325684
G4 P500
G1 F1800 X10.0 Y12.099999904632568 Z2.1999999046325684
G4 P500
G1 F1800 X10.0 Y20.0 Z2.1999999046325684
G4 P500
G1 F1800 X12.099999904632568 Y20.0 Z2.1999999046325684
G4 P500
G1 F1800 X20.0 Y20.0 Z2.1999999046325684
G4 P500
G1 F1800 X20.0 Y17.90000009536743 Z2.1999999046325684
G4 P500
G1 F1800 X20.0 Y10.0 Z2.1999999046325684
G4 P500
G1 F1800 X17.90000009536743 Y10.0 Z2.1999999046325684
G4 P500
G1 F1800 X10.0 Y10.0 Z2.1999999046325684
G4 P500
; LAYER HEIGHT: 2.2
G1 F1800 X10.0 Y10.0 Z2.300000047683716
G4 P500
G1 F1800 X10.0 Y12.200000047683716 Z2.300000047683716
G4 P500
G1 F1800 X10.0 Y20.0 Z2.300000047683716
G4 P500
G1 F1800 X12.200000047683716 Y20.0 Z2.300000047683716
G4 P500
G1 F1800 X20.0 Y20.0 Z2.300000047683716
G4 P500
G1 F1800 X20.0 Y17.800000190734863 Z2.300000047683716
G4 P500
G1 F1800 X20.0 Y10.0 Z2.300000047683716
G4 P500
G1 F1800 X17.800000190734863 Y10.0 Z2.300000047683716
G4 P500
G1 F1800 X10.0 Y10.0 Z2.300000047683716
G4 P500
; LAYER HEIGHT: 2.3000000000000003
G1 F1800 X10.0 Y10.0 Z2.3999999523162843
G4 P500
G1 F1800 X10.0 Y12.299999952316284 Z2.3999999523162843
G4 P500
G1 F1800 X10.0 Y20.0 Z2.3999999523162843
G4 P500
G1 F1800 X12.299999952316284 Y20.0 Z2.3999999523162843
G4 P500
G1 F1800 X20.0 Y20.0 Z2.3999999523162843
G4 P500
G1 F1800 X20.0 Y17.699999809265137 Z2.3999999523162843
G4 P500
G1 F1800 X20.0 Y10.0 Z2.3999999523162843
G4 P500
G1 F1800 X17.699999809265137 Y10.0 Z2.3999999523162843
G4 P500
G1 F1800 X10.0 Y10.0 Z2.3999999523162843
G4 P500
; LAYER HEIGHT: 2.4000000000000004
G1 F1800 X10.0 Y10.0 Z2.5000000953674317
G4 P500
G1 F1800 X10.0 Y12.400000095367432 Z2.5000000953674317
G4 P500
G1 F1800 X10.0 Y20.0 Z2.5000000953674317
G4 P500
G1 F1800 X12.400000095367432 Y20.0 Z2.5000000953674317
G4 P500
G1 F1800 X20.0 Y20.0 Z2.5000000953674317
G4 P500
G1 F1800 X20.0 Y17.59999990463257 Z2.5000000953674317
G4 P500
G1 F1800 X20.0 Y10.0 Z2.5000000953674317
G4 P500
G1 F1800 X17.59999990463257 Y10.0 Z2.5000000953674317
G4 P500
G1 F1800 X10.0 Y10.0 Z2.5000000953674317
G4 P500
; LAYER HEIGHT: 2.5
G1 F1800 X10.0 Y10.0 Z2.6
G4 P500
G1 F1800 X10.0 Y12.5 Z2.6
G4 P500
G1 F1800 X10.0 Y20.0 Z2.6
G4 P500
G1 F1800 X12.5 Y20.0 Z2.6
G4 P500
G1 F1800 X20.0 Y20.0 Z2.6
G4 P500
G1 F1800 X20.0 Y17.5 Z2.6
G4 P500
G1 F1800 X20.0 Y10.0 Z2.6
G4 P500
G1 F1800 X17.5 Y10.0 Z2.6
G4 P500
G1 F1800 X10.0 Y10.0 Z2.6
G4 P500
; LAYER HEIGHT: 2.6
G1 F1800 X10.0 Y10.0 Z2.6999999046325684
G4 P500
G1 F1800 X10.0 Y12.599999904632568 Z2.6999999046325684
G4 P500
G1 F1800 X10.0 Y20.0 Z2.6999999046325684
G4 P500
G1 F1800 X12.599999904632568 Y20.0 Z2.6999999046325684
G4 P500
G1 F1800 X20.0 Y20.0 Z2.6999999046325684
G4 P500
G1 F1800 X20.0 Y17.40000009536743 Z2.6999999046325684
G4 P500
G1 F1800 X20.0 Y10.0 Z2.6999999046325684
G4 P500
G1 F1800 X17.40000009536743 Y10.0 Z2.6999999046325684
G4 P500
G1 F1800 X10.0 Y10.0 Z2.6999999046325684
G4 P500
; LAYER HEIGHT: 2.7
G1 F1800 X10.0 Y10.0 Z2.800000047683716
G4 P500
G1 F1800 X10.0 Y12.700000047683716 Z2.800000047683716
G4 P500
G1 F1800 X10.0 Y20.0 Z2.800000047683716
G4 P500
G1 F1800 X12.700000047683716 Y20.0 Z2.800000047683716
G4 P500
G1 F1800 X20.0 Y20.0 Z2.800000047683716
G4 P500
G1 F1800 X20.0 Y17.300000190734863 Z2.800000047683716
G4 P500
G1 F1800 X20.0 Y10.0 Z2.800000047683716
G4 P500
G1 F1800 X17.300000190734863 Y10.0 Z2.800000047683716
G4 P500
G1 F1800 X10.0 Y10.0 Z2.800000047683716
G4 P500
; LAYER HEIGHT: 2.8000000000000003
G1 F1800 X10.0 Y10.0 Z2.8999999523162843
G4 P500
G1 F1800 X10.0 Y12.799999952316284 Z2.8999999523162843
G4 P500
G1 F1800 X10.0 Y20.0 Z2.8999999523162843
G4 P500
G1 F1800 X12.799999952316284 Y20.0 Z2.8999999523162843
G4 P500
G1 F1800 X20.0 Y20.0 Z2.8999999523162843
G4 P500
G1 F1800 X20.0 Y17.199999809265137 Z2.8999999523162843
G4 P500
G1 F1800 X20.0 Y10.0 Z2.8999999523162843
G4 P500
G1 F1800 X17.199999809265137 Y10.0 Z2.8999999523162843
G4 P500
G1 F1800 X10.0 Y10.0 Z2.8999999523162843
G4 P500
; LAYER HEIGHT: 2.9000000000000004
G1 F1800 X10.0 Y10.0 Z3.0000000953674317
G4 P500
G1 F1800 X10.0 Y12.900000095367432 Z3.0000000953674317
G4 P500
G1 F1800 X10.0 Y20.0 Z3.0000000953674317
G4 P500
G1 F1800 X12.900000095367432 Y20.0 Z3.0000000953674317
G4 P500
G1 F1800 X20.0 Y20.0 Z3.0000000953674317
G4 P500
G1 F1800 X20.0 Y17.09999990463257 Z3.0000000953674317
G4 P500
G1 F1800 X20.0 Y10.0 Z3.0000000953674317
G4 P500
G1 F1800 X17.09999990463257 Y10.0 Z3.0000000953674317
G4 P500
G1 F1800 X10.0 Y10.0 Z3.0000000953674317
G4 P500
; LAYER HEIGHT: 3.0
G1 F1800 X10.0 Y10.0 Z3.1
G4 P500
G1 F1800 X10.0 Y13.0 Z3.1
G4 P500
G1 F1800 X10.0 Y20.0 Z3.1
G4 P500
G1 F1800 X13.0 Y20.0 Z3.1
G4 P500
G1 F1800 X20.0 Y20.0 Z3.1
G4 P500
G1 F1800 X20.0 Y17.0 Z3.1
G4 P500
G1 F1800 X20.0 Y10.0 Z3.1
G4 P500
G1 F1800 X17.0 Y10.0 Z3.1
G4 P500
G1 F1800 X10.0 Y10.0 Z3.1
G4 P500
; LAYER HEIGHT: 3.1
G1 F1800 X10.0 Y10.0 Z3.1999999046325684
G4 P500
G1 F1800 X10.0 Y13.099999904632568 Z3.1999999046325684
G4 P500
G1 F1800 X10.0 Y20.0 Z3.1999999046325684
G4 P500
G1 F1800 X13.099999904632568 Y20.0 Z3.1999999046325684
G4 P500
G1 F1800 X20.0 Y20.0 Z3.1999999046325684
G4 P500
G1 F1800 X20.0 Y16.90000009536743 Z3.1999999046325684
G4 P500
G1 F1800 X20.0 Y10.0 Z3.1999999046325684
G4 P500
G1 F1800 X16.90000009536743 Y10.0 Z3.1999999046325684
G4 P500
G1 F1800 X10.0 Y10.0 Z3.1999999046325684
G4 P500
; LAYER HEIGHT: 3.2
G1 F1800 X10.0 Y10.0 Z3.299999809265137
G4 P500
G1 F1800 X10.0 Y13.199999809265137 Z3.299999809265137
G4 P500
G1 F1800 X10.0 Y20.0 Z3.299999809265137
G4 P500
G1 F1800 X13.199999809265137 Y20.0 Z3.299999809265137
G4 P500
G1 F1800 X20.0 Y20.0 Z3.299999809265137
G4 P500
G1 F1800 X20.0 Y16.800000190734863 Z3.299999809265137
G4 P500
G1 F1800 X20.0 Y10.0 Z3.299999809265137
G4 P500
G1 F1800 X16.800000190734863 Y10.0 Z3.299999809265137
G4 P500
G1 F1800 X10.0 Y10.0 Z3.299999809265137
G4 P500
; LAYER HEIGHT: 3.3000000000000003
G1 F1800 X10.0 Y10.0 Z3.399999713897705
G4 P500
G1 F1800 X10.0 Y13.299999713897705 Z3.399999713897705
G4 P500
G1 F1800 X10.0 Y20.0 Z3.399999713897705
G4 P500
G1 F1800 X13.299999713897705 Y20.0 Z3.399999713897705
G4 P500
G1 F1800 X20.0 Y20.0 Z3.399999713897705
G4 P500
G1 F1800 X20.0 Y16.700000286102295 Z3.399999713897705
G4 P500
G1 F1800 X20.0 Y10.0 Z3.399999713897705
G4 P500
G1 F1800 X16.700000286102295 Y10.0 Z3.399999713897705
G4 P500
G1 F1800 X10.0 Y10.0 Z3.399999713897705
G4 P500
; LAYER HEIGHT: 3.4000000000000004
G1 F1800 X10.0 Y10.0 Z3.5000000953674317
G4 P500
G1 F1800 X10.0 Y13.400000095367432 Z3.5000000953674317
G4 P500
G1 F1800 X10.0 Y20.0 Z3.5000000953674317
G4 P500
G1 F1800 X13.400000095367432 Y20.0 Z3.5000000953674317
G4 P500
G1 F1800 X20.0 Y20.0 Z3.5000000953674317
G4 P500
G1 F1800 X20.0 Y16.59999990463257 Z3.5000000953674317
G4 P500
G1 F1800 X20.0 Y10.0 Z3.5000000953674317
G4 P500
G1 F1800 X16.59999990463257 Y10.0 Z3.5000000953674317
G4 P500
G1 F1800 X10.0 Y10.0 Z3.5000000953674317
G4 P500
; LAYER HEIGHT: 3.5
G1 F1800 X10.0 Y10.0 Z3.6
G4 P500
G1 F1800 X10.0 Y13.5 Z3.6
G4 P500
G1 F1800 X10.0 Y20.0 Z3.6
G4 P500
G1 F1800 X13.5 Y20.0 Z3.6
G4 P500
G1 F1800 X20.0 Y20.0 Z3.6
G4 P500
G1 F1800 X20.0 Y16.5 Z3.6
G4 P500
G1 F1800 X20.0 Y10.0 Z3.6
G4 P500
G1 F1800 X16.5 Y10.0 Z3.6
G4 P500
G1 F1800 X10.0 Y10.0 Z3.6
G4 P500
; LAYER HEIGHT: 3.6
G1 F1800 X10.0 Y10.0 Z3.6999999046325684
G4 P500
G1 F1800 X10.0 Y13.599999904632568 Z3.6999999046325684
G4 P500
G1 F1800 X10.0 Y20.0 Z3.6999999046325684
G4 P500
G1 F1800 X13.599999904632568 Y20.0 Z3.6999999046325684
G4 P500
G1 F1800 X20.0 Y20.0 Z3.6999999046325684
G4 P500
G1 F1800 X20.0 Y16.40000009536743 Z3.6999999046325684
G4 P500
G1 F1800 X20.0 Y10.0 Z3.6999999046325684
G4 P500
G1 F1800 X16.40000009536743 Y10.0 Z3.6999999046325684
G4 P500
G1 F1800 X10.0 Y10.0 Z3.6999999046325684
G4 P500
; LAYER HEIGHT: 3.7
G1 F1800 X10.0 Y10.0 Z3.800000047683716
G4 P500
G1 F1800 X10.0 Y13.700000047683716 Z3.800000047683716
G4 P500
G1 F1800 X10.0 Y20.0 Z3.800000047683716
G4 P500
G1 F1800 X13.700000047683716 Y20.0 Z3.800000047683716
G4 P500
G1 F1800 X20.0 Y20.0 Z3.800000047683716
G4 P500
G1 F1800 X20.0 Y16.300000190734863 Z3.800000047683716
G4 P500
G1 F1800 X20.0 Y10.0 Z3.800000047683716
G4 P500
G1 F1800 X16.300000190734863 Y10.0 Z3.800000047683716
G4 P500
G1 F1800 X10.0 Y10.0 Z3.800000047683716
G4 P500
; LAYER HEIGHT: 3.8000000000000003
G1 F1800 X10.0 Y10.0 Z3.8999999523162843
G4 P500
G1 F1800 X10.0 Y13.799999952316284 Z3.8999999523162843
G4 P500
G1 F1800 X10.0 Y20.0 Z3.8999999523162843
G4 P500
G1 F1800 X13.799999952316284 Y20.0 Z3.8999999523162843
G4 P500
G1 F1800 X20.0 Y20.0 Z3.8999999523162843
G4 P500
G1 F1800 X20.0 Y16.199999809265137 Z3.8999999523162843
G4 P500
G1 F1800 X20.0 Y10.0 Z3.8999999523162843
G4 P500
G1 F1800 X16.199999809265137 Y10.0 Z3.8999999523162843
G4 P500
G1 F1800 X10.0 Y10.0 Z3.8999999523162843
G4 P500
; LAYER HEIGHT: 3.9000000000000004
G1 F1800 X10.0 Y10.0 Z4.000000095367431
G4 P500
G1 F1800 X10.0 Y13.900000095367432 Z4.000000095367431
G4 P500
G1 F1800 X10.0 Y20.0 Z4.000000095367431
G4 P500
G1 F1800 X13.900000095367432 Y20.0 Z4.000000095367431
G4 P500
G1 F1800 X20.0 Y20.0 Z4.000000095367431
G4 P500
G1 F1800 X20.0 Y16.09999990463257 Z4.000000095367431
G4 P500
G1 F1800 X20.0 Y10.0 Z4.000000095367431
G4 P500
G1 F1800 X16.09999990463257 Y10.0 Z4.000000095367431
G4 P500
G1 F1800 X10.0 Y10.0 Z4.000000095367431
G4 P500
; LAYER HEIGHT: 4.0
G1 F1800 X10.0 Y10.0 Z4.1
G4 P500
G1 F1800 X10.0 Y14.0 Z4.1
G4 P500
G1 F1800 X10.0 Y20.0 Z4.1
G4 P500
G1 F1800 X14.0 Y20.0 Z4.1
G4 P500
G1 F1800 X20.0 Y20.0 Z4.1
G4 P500
G1 F1800 X20.0 Y16.0 Z4.1
G4 P500
G1 F1800 X20.0 Y10.0 Z4.1
G4 P500
G1 F1800 X16.0 Y10.0 Z4.1
G4 P500
G1 F1800 X10.0 Y10.0 Z4.1
G4 P500
; LAYER HEIGHT: 4.1000000000000005
G1 F1800 X10.0 Y10.0 Z4.199999904632568
G4 P500
G1 F1800 X10.0 Y14.099999904632568 Z4.199999904632568
G4 P500
G1 F1800 X10.0 Y20.0 Z4.199999904632568
G4 P500
G1 F1800 X14.099999904632568 Y20.0 Z4.199999904632568
G4 P500
G1 F1800 X20.0 Y20.0 Z4.199999904632568
G4 P500
G1 F1800 X20.0 Y15.900000095367432 Z4.199999904632568
G4 P500
G1 F1800 X20.0 Y10.0 Z4.199999904632568
G4 P500
G1 F1800 X15.900000095367432 Y10.0 Z4.199999904632568
G4 P500
G1 F1800 X10.0 Y10.0 Z4.199999904632568
G4 P500
; LAYER HEIGHT: 4.2
G1 F1800 X10.0 Y10.0 Z4.299999809265136
G4 P500
G1 F1800 X10.0 Y14.199999809265137 Z4.299999809265136
G4 P500
G1 F1800 X10.0 Y20.0 Z4.299999809265136
G4 P500
G1 F1800 X14.199999809265137 Y20.0 Z4.299999809265136
G4 P500
G1 F1800 X20.0 Y20.0 Z4.299999809265136
G4 P500
G1 F1800 X20.0 Y15.800000190734863 Z4.299999809265136
G4 P500
G1 F1800 X20.0 Y10.0 Z4.299999809265136
G4 P500
G1 F1800 X15.800000190734863 Y10.0 Z4.299999809265136
G4 P500
G1 F1800 X10.0 Y10.0 Z4.299999809265136
G4 P500
; LAYER HEIGHT: 4.3
G1 F1800 X10.0 Y10.0 Z4.400000190734863
G4 P500
G1 F1800 X10.0 Y14.300000190734863 Z4.400000190734863
G4 P500
G1 F1800 X10.0 Y20.0 Z4.400000190734863
G4 P500
G1 F1800 X14.300000190734863 Y20.0 Z4.400000190734863
G4 P500
G1 F1800 X20.0 Y20.0 Z4.400000190734863
G4 P500
G1 F1800 X20.0 Y15.699999809265137 Z4.400000190734863
G4 P500
G1 F1800 X20.0 Y10.0 Z4.400000190734863
G4 P500
G1 F1800 X15.699999809265137 Y10.0 Z4.400000190734863
G4 P500
G1 F1800 X10.0 Y10.0 Z4.400000190734863
G4 P500
; LAYER HEIGHT: 4.4
G1 F1800 X10.0 Y10.0 Z4.500000095367431
G4 P500
G1 F1800 X10.0 Y14.400000095367432 Z4.500000095367431
G4 P500
G1 F1800 X10.0 Y20.0 Z4.500000095367431
G4 P500
G1 F1800 X14.400000095367432 Y20.0 Z4.500000095367431
G4 P500
G1 F1800 X20.0 Y20.0 Z4.500000095367431
G4 P500
G1 F1800 X20.0 Y15.599999904632568 Z4.500000095367431
G4 P500
G1 F1800 X20.0 Y10.0 Z4.500000095367431
G4 P500
G1 F1800 X15.599999904632568 Y10.0 Z4.500000095367431
G4 P500
G1 F1800 X10.0 Y10.0 Z4.500000095367431
G4 P500
; LAYER HEIGHT: 4.5
G1 F1800 X10.0 Y10.0 Z4.6
G4 P500
G1 F1800 X10.0 Y14.5 Z4.6
G4 P500
G1 F1800 X10.0 Y20.0 Z4.6
G4 P500
G1 F1800 X14.5 Y20.0 Z4.6
G4 P500
G1 F1800 X20.0 Y20.0 Z4.6
G4 P500
G1 F1800 X20.0 Y15.5 Z4.6
G4 P500
G1 F1800 X20.0 Y10.0 Z4.6
G4 P500
G1 F1800 X15.5 Y10.0 Z4.6
G4 P500
G1 F1800 X10.0 Y10.0 Z4.6
G4 P500
; LAYER HEIGHT: 4.6000000000000005
G1 F1800 X10.0 Y10.0 Z4.699999904632568
G4 P500
G1 F1800 X10.0 Y14.599999904632568 Z4.699999904632568
G4 P500
G1 F1800 X10.0 Y20.0 Z4.699999904632568
G4 P500
G1 F1800 X14.599999904632568 Y20.0 Z4.699999904632568
G4 P500
G1 F1800 X20.0 Y20.0 Z4.699999904632568
G4 P500
G1 F1800 X20.0 Y15.400000095367432 Z4.699999904632568
G4 P500
G1 F1800 X20.0 Y10.0 Z4.699999904632568
G4 P500
G1 F1800 X15.400000095367432 Y10.0 Z4.699999904632568
G4 P500
G1 F1800 X10.0 Y10.0 Z4.699999904632568
G4 P500
; LAYER HEIGHT: 4.7
G1 F1800 X10.0 Y10.0 Z4.799999809265136
G4 P500
G1 F1800 X10.0 Y14.699999809265137 Z4.799999809265136
G4 P500
G1 F1800 X10.0 Y20.0 Z4.799999809265136
G4 P500
G1 F1800 X14.699999809265137 Y20.0 Z4.799999809265136
G4 P500
G1 F1800 X20.0 Y20.0 Z4.799999809265136
G4 P500
G1 F1800 X20.0 Y15.300000190734863 Z4.799999809265136
G4 P500
G1 F1800 X20.0 Y10.0 Z4.799999809265136
G4 P500
G1 F1800 X15.300000190734863 Y10.0 Z4.799999809265136
G4 P500
G1 F1800 X10.0 Y10.0 Z4.799999809265136
G4 P500
; LAYER HEIGHT: 4.800000000000001
G1 F1800 X10.0 Y10.0 Z4.900000190734863
G4 P500
G1 F1800 X10.0 Y14.800000190734863 Z4.900000190734863
G4 P500
G1 F1800 X10.0 Y20.0 Z4.900000190734863
G4 P500
G1 F1800 X14.800000190734863 Y20.0 Z4.900000190734863
G4 P500
G1 F1800 X20.0 Y20.0 Z4.900000190734863
G4 P500
G1 F1800 X20.0 Y15.199999809265137 Z4.900000190734863
G4 P500
G1 F1800 X20.0 Y10.0 Z4.900000190734863
G4 P500
G1 F1800 X15.199999809265137 Y10.0 Z4.900000190734863
G4 P500
G1 F1800 X10.0 Y10.0 Z4.900000190734863
G4 P500
; LAYER HEIGHT: 4.9
G1 F1800 X10.0 Y10.0 Z5.000000095367431
G4 P500
G1 F1800 X10.0 Y14.900000095367432 Z5.000000095367431
G4 P500
G1 F1800 X10.0 Y20.0 Z5.000000095367431
G4 P500
G1 F1800 X14.900000095367432 Y20.0 Z5.000000095367431
G4 P500
G1 F1800 X20.0 Y20.0 Z5.000000095367431
G4 P500
G1 F1800 X20.0 Y15.099999904632568 Z5.000000095367431
G4 P500
G1 F1800 X20.0 Y10.0 Z5.000000095367431
G4 P500
G1 F1800 X15.099999904632568 Y10.0 Z5.000000095367431
G4 P500
G1 F1800 X10.0 Y10.0 Z5.000000095367431
G4 P500
; LAYER HEIGHT: 5.0
G1 F1800 X10.0 Y10.0 Z5.1
G4 P500
G1 F1800 X10.0 Y15.0 Z5.1
G4 P500
G1 F1800 X10.0 Y20.0 Z5.1
G4 P500
G1 F1800 X15.0 Y20.0 Z5.1
G4 P500
G1 F1800 X20.0 Y20.0 Z5.1
G4 P500
G1 F1800 X20.0 Y15.0 Z5.1
G4 P500
G1 F1800 X20.0 Y10.0 Z5.1
G4 P500
G1 F1800 X15.0 Y10.0 Z5.1
G4 P500
G1 F1800 X10.0 Y10.0 Z5.1
G4 P500
; LAYER HEIGHT: 5.1000000000000005
G1 F1800 X10.0 Y10.0 Z5.199999904632568
G4 P500
G1 F1800 X14.900000095367432 Y10.0 Z5.199999904632568
G4 P500
G1 F1800 X20.0 Y10.0 Z5.199999904632568
G4 P500
G1 F1800 X20.0 Y14.900000095367432 Z5.199999904632568
G4 P500
G1 F1800 X20.0 Y20.0 Z5.199999904632568
G4 P500
G1 F1800 X15.099999904632568 Y20.0 Z5.199999904632568
G4 P500
G1 F1800 X10.0 Y20.0 Z5.199999904632568
G4 P500
G1 F1800 X10.0 Y15.099999904632568 Z5.199999904632568
G4 P500
G1 F1800 X10.0 Y10.0 Z5.199999904632568
G4 P500
; LAYER HEIGHT: 5.2
G1 F1800 X10.0 Y10.0 Z5.299999809265136
G4 P500
G1 F1800 X14.800000190734863 Y10.0 Z5.299999809265136
G4 P500
G1 F1800 X20.0 Y10.0 Z5.299999809265136
G4 P500
G1 F1800 X20.0 Y14.800000190734863 Z5.299999809265136
G4 P500
G1 F1800 X20.0 Y20.0 Z5.299999809265136
G4 P500
G1 F1800 X15.199999809265137 Y20.0 Z5.299999809265136
G4 P500
G1 F1800 X10.0 Y20.0 Z5.299999809265136
G4 P500
G1 F1800 X10.0 Y15.199999809265137 Z5.299999809265136
G4 P500
G1 F1800 X10.0 Y10.0 Z5.299999809265136
G4 P500
; LAYER HEIGHT: 5.300000000000001
G1 F1800 X10.0 Y10.0 Z5.400000190734863
G4 P500
G1 F1800 X14.699999809265137 Y10.0 Z5.400000190734863
G4 P500
G1 F1800 X20.0 Y10.0 Z5.400000190734863
G4 P500
G1 F1800 X20.0 Y14.699999809265137 Z5.400000190734863
G4 P500
G1 F1800 X20.0 Y20.0 Z5.400000190734863
G4 P500
G1 F1800 X15.300000190734863 Y20.0 Z5.400000190734863
G4 P500
G1 F1800 X10.0 Y20.0 Z5.400000190734863
G4 P500
G1 F1800 X10.0 Y15.300000190734863 Z5.400000190734863
G4 P500
G1 F1800 X10.0 Y10.0 Z5.400000190734863
G4 P500
; LAYER HEIGHT: 5.4
G1 F1800 X10.0 Y10.0 Z5.500000095367431
G4 P500
G1 F1800 X14.599999904632568 Y10.0 Z5.500000095367431
G4 P500
G1 F1800 X20.0 Y10.0 Z5.500000095367431
G4 P500
G1 F1800 X20.0 Y14.599999904632568 Z5.500000095367431
G4 P500
G1 F1800 X20.0 Y20.0 Z5.500000095367431
G4 P500
G1 F1800 X15.400000095367432 Y20.0 Z5.500000095367431
G4 P500
G1 F1800 X10.0 Y20.0 Z5.500000095367431
G4 P500
G1 F1800 X10.0 Y15.400000095367432 Z5.500000095367431
G4 P500
G1 F1800 X10.0 Y10.0 Z5.500000095367431
G4 P500
; LAYER HEIGHT: 5.5
G1 F1800 X10.0 Y10.0 Z5.6
G4 P500
G1 F1800 X14.5 Y10.0 Z5.6
G4 P500
G1 F1800 X20.0 Y10.0 Z5.6
G4 P500
G1 F1800 X20.0 Y14.5 Z5.6
G4 P500
G1 F1800 X20.0 Y20.0 Z5.6
G4 P500
G1 F1800 X15.5 Y20.0 Z5.6
G4 P500
G1 F1800 X10.0 Y20.0 Z5.6
G4 P500
G1 F1800 X10.0 Y15.5 Z5.6
G4 P500
G1 F1800 X10.0 Y10.0 Z5.6
G4 P500
; LAYER HEIGHT: 5.6000000000000005
G1 F1800 X10.0 Y10.0 Z5.699999904632568
G4 P500
G1 F1800 X14.400000095367432 Y10.0 Z5.699999904632568
G4 P500
G1 F1800 X20.0 Y10.0 Z5.699999904632568
G4 P500
G1 F1800 X20.0 Y14.400000095367432 Z5.699999904632568
G4 P500
G1 F1800 X20.0 Y20.0 Z5.699999904632568
G4 P500
G1 F1800 X15.599999904632568 Y20.0 Z5.699999904632568
G4 P500
G1 F1800 X10.0 Y20.0 Z5.699999904632568
G4 P500
G1 F1800 X10.0 Y15.599999904632568 Z5.699999904632568
G4 P500
G1 F1800 X10.0 Y10.0 Z5.699999904632568
G4 P500
; LAYER HEIGHT: 5.7
G1 F1800 X10.0 Y10.0 Z5.799999809265136
G4 P500
G1 F1800 X14.300000190734863 Y10.0 Z5.799999809265136
G4 P500
G1 F1800 X20.0 Y10.0 Z5.799999809265136
G4 P500
G1 F1800 X20.0 Y14.300000190734863 Z5.799999809265136
G4 P500
G1 F1800 X20.0 Y20.0 Z5.799999809265136
G4 P500
G1 F1800 X15.699999809265137 Y20.0 Z5.799999809265136
G4 P500
G1 F1800 X10.0 Y20.0 Z5.799999809265136
G4 P500
G1 F1800 X10.0 Y15.699999809265137 Z5.799999809265136
G4 P500
G1 F1800 X10.0 Y10.0 Z5.799999809265136
G4 P500
; LAYER HEIGHT: 5.800000000000001
G1 F1800 X10.0 Y10.0 Z5.900000190734863
G4 P500
G1 F1800 X14.199999809265137 Y10.0 Z5.900000190734863
G4 P500
G1 F1800 X20.0 Y10.0 Z5.900000190734863
G4 P500
G1 F1800 X20.0 Y14.199999809265137 Z5.900000190734863
G4 P500
G1 F1800 X20.0 Y20.0 Z5.900000190734863
G4 P500
G1 F1800 X15.800000190734863 Y20.0 Z5.900000190734863
G4 P500
G1 F1800 X10.0 Y20.0 Z5.900000190734863
G4 P500
G1 F1800 X10.0 Y15.800000190734863 Z5.900000190734863
G4 P500
G1 F1800 X10.0 Y10.0 Z5.900000190734863
G4 P500
; LAYER HEIGHT: 5.9
G1 F1800 X10.0 Y10.0 Z6.0000005722045895
G4 P500
G1 F1800 X14.09999942779541 Y10.0 Z6.0000005722045895
G4 P500
G1 F1800 X20.0 Y10.0 Z6.0000005722045895
G4 P500
G1 F1800 X20.0 Y14.09999942779541 Z6.0000005722045895
G4 P500
G1 F1800 X20.0 Y20.0 Z6.0000005722045895
G4 P500
G1 F1800 X15.90000057220459 Y20.0 Z6.0000005722045895
G4 P500
G1 F1800 X10.0 Y20.0 Z6.0000005722045895
G4 P500
G1 F1800 X10.0 Y15.90000057220459 Z6.0000005722045895
G4 P500
G1 F1800 X10.0 Y10.0 Z6.0000005722045895
G4 P500
; LAYER HEIGHT: 6.0
G1 F1800 X10.0 Y10.0 Z6.1
G4 P500
G1 F1800 X14.0 Y10.0 Z6.1
G4 P500
G1 F1800 X20.0 Y10.0 Z6.1
G4 P500
G1 F1800 X20.0 Y14.0 Z6.1
G4 P500
G1 F1800 X20.0 Y20.0 Z6.1
G4 P500
G1 F1800 X16.0 Y20.0 Z6.1
G4 P500
G1 F1800 X10.0 Y20.0 Z6.1
G4 P500
G1 F1800 X10.0 Y16.0 Z6.1
G4 P500
G1 F1800 X10.0 Y10.0 Z6.1
G4 P500
; LAYER HEIGHT: 6.1000000000000005
G1 F1800 X10.0 Y10.0 Z6.200000381469726
G4 P500
G1 F1800 X13.899999618530273 Y10.0 Z6.200000381469726
G4 P500
G1 F1800 X20.0 Y10.0 Z6.200000381469726
G4 P500
G1 F1800 X20.0 Y13.899999618530273 Z6.200000381469726
G4 P500
G1 F1800 X20.0 Y20.0 Z6.200000381469726
G4 P500
G1 F1800 X16.100000381469727 Y20.0 Z6.200000381469726
G4 P500
G1 F1800 X10.0 Y20.0 Z6.200000381469726
G4 P500
G1 F1800 X10.0 Y16.100000381469727 Z6.200000381469726
G4 P500
G1 F1800 X10.0 Y10.0 Z6.200000381469726
G4 P500
; LAYER HEIGHT: 6.2
G1 F1800 X10.0 Y10.0 Z6.299999809265136
G4 P500
G1 F1800 X13.800000190734863 Y10.0 Z6.299999809265136
G4 P500
G1 F1800 X20.0 Y10.0 Z6.299999809265136
G4 P500
G1 F1800 X20.0 Y13.800000190734863 Z6.299999809265136
G4 P500
G1 F1800 X20.0 Y20.0 Z6.299999809265136
G4 P500
G1 F1800 X16.199999809265137 Y20.0 Z6.299999809265136
G4 P500
G1 F1800 X10.0 Y20.0 Z6.299999809265136
G4 P500
G1 F1800 X10.0 Y16.199999809265137 Z6.299999809265136
G4 P500
G1 F1800 X10.0 Y10.0 Z6.299999809265136
G4 P500
; LAYER HEIGHT: 6.300000000000001
G1 F1800 X10.0 Y10.0 Z6.400000190734863
G4 P500
G1 F1800 X13.699999809265137 Y10.0 Z6.400000190734863
G4 P500
G1 F1800 X20.0 Y10.0 Z6.400000190734863
G4 P500
G1 F1800 X20.0 Y13.699999809265137 Z6.400000190734863
G4 P500
G1 F1800 X20.0 Y20.0 Z6.400000190734863
G4 P500
G1 F1800 X16.300000190734863 Y20.0 Z6.400000190734863
G4 P500
G1 F1800 X10.0 Y20.0 Z6.400000190734863
G4 P500
G1 F1800 X10.0 Y16.300000190734863 Z6.400000190734863
G4 P500
G1 F1800 X10.0 Y10.0 Z6.400000190734863
G4 P500
; LAYER HEIGHT: 6.4
G1 F1800 X10.0 Y10.0 Z6.499999618530273
G4 P500
G1 F1800 X13.600000381469727 Y10.0 Z6.499999618530273
G4 P500
G1 F1800 X20.0 Y10.0 Z6.499999618530273
G4 P500
G1 F1800 X20.0 Y13.600000381469727 Z6.499999618530273
G4 P500
G1 F1800 X20.0 Y20.0 Z6.499999618530273
G4 P500
G1 F1800 X16.399999618530273 Y20.0 Z6.499999618530273
G4 P500
G1 F1800 X10.0 Y20.0 Z6.499999618530273
G4 P500
G1 F1800 X10.0 Y16.399999618530273 Z6.499999618530273
G4 P500
G1 F1800 X10.0 Y10.0 Z6.499999618530273
G4 P500
; LAYER HEIGHT: 6.5
G1 F1800 X10.0 Y10.0 Z6.6
G4 P500
G1 F1800 X13.5 Y10.0 Z6.6
G4 P500
G1 F1800 X20.0 Y10.0 Z6.6
G4 P500
G1 F1800 X20.0 Y13.5 Z6.6
G4 P500
G1 F1800 X20.0 Y20.0 Z6.6
G4 P500
G1 F1800 X16.5 Y20.0 Z6.6
G4 P500
G1 F1800 X10.0 Y20.0 Z6.6
G4 P500
G1 F1800 X10.0 Y16.5 Z6.6
G4 P500
G1 F1800 X10.0 Y10.0 Z6.6
G4 P500
; LAYER HEIGHT: 6.6000000000000005
G1 F1800 X10.0 Y10.0 Z6.69999942779541
G4 P500
G1 F1800 X13.40000057220459 Y10.0 Z6.69999942779541
G4 P500
G1 F1800 X20.0 Y10.0 Z6.69999942779541
G4 P500
G1 F1800 X20.0 Y13.40000057220459 Z6.69999942779541
G4 P500
G1 F1800 X20.0 Y20.0 Z6.69999942779541
G4 P500
G1 F1800 X16.59999942779541 Y20.0 Z6.69999942779541
G4 P500
G1 F1800 X10.0 Y20.0 Z6.69999942779541
G4 P500
G1 F1800 X10.0 Y16.59999942779541 Z6.69999942779541
G4 P500
G1 F1800 X10.0 Y10.0 Z6.69999942779541
G4 P500
; LAYER HEIGHT: 6.7
G1 F1800 X10.0 Y10.0 Z6.799999809265136
G4 P500
G1 F1800 X13.300000190734863 Y10.0 Z6.799999809265136
G4 P500
G1 F1800 X20.0 Y10.0 Z6.799999809265136
G4 P500
G1 F1800 X20.0 Y13.300000190734863 Z6.799999809265136
G4 P500
G1 F1800 X20.0 Y20.0 Z6.799999809265136
G4 P500
G1 F1800 X16.699999809265137 Y20.0 Z6.799999809265136
G4 P500
G1 F1800 X10.0 Y20.0 Z6.799999809265136
G4 P500
G1 F1800 X10.0 Y16.699999809265137 Z6.799999809265136
G4 P500
G1 F1800 X10.0 Y10.0 Z6.799999809265136
G4 P500
; LAYER HEIGHT: 6.800000000000001
G1 F1800 X10.0 Y10.0 Z6.900000190734863
G4 P500
G1 F1800 X13.199999809265137 Y10.0 Z6.900000190734863
G4 P500
G1 F1800 X20.0 Y10.0 Z6.900000190734863
G4 P500
G1 F1800 X20.0 Y13.199999809265137 Z6.900000190734863
G4 P500
G1 F1800 X20.0 Y20.0 Z6.900000190734863
G4 P500
G1 F1800 X16.800000190734863 Y20.0 Z6.900000190734863
G4 P500
G1 F1800 X10.0 Y20.0 Z6.900000190734863
G4 P500
G1 F1800 X10.0 Y16.800000190734863 Z6.900000190734863
G4 P500
G1 F1800 X10.0 Y10.0 Z6.900000190734863
G4 P500
; LAYER HEIGHT: 6.9
G1 F1800 X10.0 Y10.0 Z7.000000095367431
G4 P500
G1 F1800 X13.099999904632568 Y10.0 Z7.000000095367431
G4 P500
G1 F1800 X20.0 Y10.0 Z7.000000095367431
G4 P500
G1 F1800 X20.0 Y13.099999904632568 Z7.000000095367431
G4 P500
G1 F1800 X20.0 Y20.0 Z7.000000095367431
G4 P500
G1 F1800 X16.90000009536743 Y20.0 Z7.000000095367431
G4 P500
G1 F1800 X10.0 Y20.0 Z7.000000095367431
G4 P500
G1 F1800 X10.0 Y16.90000009536743 Z7.000000095367431
G4 P500
G1 F1800 X10.0 Y10.0 Z7.000000095367431
G4 P500
; LAYER HEIGHT: 7.0
G1 F1800 X10.0 Y10.0 Z7.1
G4 P500
G1 F1800 X13.0 Y10.0 Z7.1
G4 P500
G1 F1800 X20.0 Y10.0 Z7.1
G4 P500
G1 F1800 X20.0 Y13.0 Z7.1
G4 P500
G1 F1800 X20.0 Y20.0 Z7.1
G4 P500
G1 F1800 X17.0 Y20.0 Z7.1
G4 P500
G1 F1800 X10.0 Y20.0 Z7.1
G4 P500
G1 F1800 X10.0 Y17.0 Z7.1
G4 P500
G1 F1800 X10.0 Y10.0 Z7.1
G4 P500
; LAYER HEIGHT: 7.1000000000000005
G1 F1800 X10.0 Y10.0 Z7.199999904632568
G4 P500
G1 F1800 X12.900000095367432 Y10.0 Z7.199999904632568
G4 P500
G1 F1800 X20.0 Y10.0 Z7.199999904632568
G4 P500
G1 F1800 X20.0 Y12.900000095367432 Z7.199999904632568
G4 P500
G1 F1800 X20.0 Y20.0 Z7.199999904632568
G4 P500
G1 F1800 X17.09999990463257 Y20.0 Z7.199999904632568
G4 P500
G1 F1800 X10.0 Y20.0 Z7.199999904632568
G4 P500
G1 F1800 X10.0 Y17.09999990463257 Z7.199999904632568
G4 P500
G1 F1800 X10.0 Y10.0 Z7.199999904632568
G4 P500
; LAYER HEIGHT: 7.2
G1 F1800 X10.0 Y10.0 Z7.299999809265136
G4 P500
G1 F1800 X12.800000190734863 Y10.0 Z7.299999809265136
G4 P500
G1 F1800 X20.0 Y10.0 Z7.299999809265136
G4 P500
G1 F1800 X20.0 Y12.800000190734863 Z7.299999809265136
G4 P500
G1 F1800 X20.0 Y20.0 Z7.299999809265136
G4 P500
G1 F1800 X17.199999809265137 Y20.0 Z7.299999809265136
G4 P500
G1 F1800 X10.0 Y20.0 Z7.299999809265136
G4 P500
G1 F1800 X10.0 Y17.199999809265137 Z7.299999809265136
G4 P500
G1 F1800 X10.0 Y10.0 Z7.299999809265136
G4 P500
; LAYER HEIGHT: 7.300000000000001
G1 F1800 X10.0 Y10.0 Z7.400000190734863
G4 P500
G1 F1800 X12.699999809265137 Y10.0 Z7.400000190734863
G4 P500
G1 F1800 X20.0 Y10.0 Z7.400000190734863
G4 P500
G1 F1800 X20.0 Y12.699999809265137 Z7.400000190734863
G4 P500
G1 F1800 X20.0 Y20.0 Z7.400000190734863
G4 P500
G1 F1800 X17.300000190734863 Y20.0 Z7.400000190734863
G4 P500
G1 F1800 X10.0 Y20.0 Z7.400000190734863
G4 P500
G1 F1800 X10.0 Y17.300000190734863 Z7.400000190734863
G4 P500
G1 F1800 X10.0 Y10.0 Z7.400000190734863
G4 P500
; LAYER HEIGHT: 7.4
G1 F1800 X10.0 Y10.0 Z7.500000095367431
G4 P500
G1 F1800 X12.599999904632568 Y10.0 Z7.500000095367431
G4 P500
G1 F1800 X20.0 Y10.0 Z7.500000095367431
G4 P500
G1 F1800 X20.0 Y12.599999904632568 Z7.500000095367431
G4 P500
G1 F1800 X20.0 Y20.0 Z7.500000095367431
G4 P500
G1 F1800 X17.40000009536743 Y20.0 Z7.500000095367431
G4 P500
G1 F1800 X10.0 Y20.0 Z7.500000095367431
G4 P500
G1 F1800 X10.0 Y17.40000009536743 Z7.500000095367431
G4 P500
G1 F1800 X10.0 Y10.0 Z7.500000095367431
G4 P500
; LAYER HEIGHT: 7.5
G1 F1800 X10.0 Y10.0 Z7.6
G4 P500
G1 F1800 X12.5 Y10.0 Z7.6
G4 P500
G1 F1800 X20.0 Y10.0 Z7.6
G4 P500
G1 F1800 X20.0 Y12.5 Z7.6
G4 P500
G1 F1800 X20.0 Y20.0 Z7.6
G4 P500
G1 F1800 X17.5 Y20.0 Z7.6
G4 P500
G1 F1800 X10.0 Y20.0 Z7.6
G4 P500
G1 F1800 X10.0 Y17.5 Z7.6
G4 P500
G1 F1800 X10.0 Y10.0 Z7.6
G4 P500
; LAYER HEIGHT: 7.6000000000000005
G1 F1800 X10.0 Y10.0 Z7.699999904632568
G4 P500
G1 F1800 X12.400000095367432 Y10.0 Z7.699999904632568
G4 P500
G1 F1800 X20.0 Y10.0 Z7.699999904632568
G4 P500
G1 F1800 X20.0 Y12.400000095367432 Z7.699999904632568
G4 P500
G1 F1800 X20.0 Y20.0 Z7.699999904632568
G4 P500
G1 F1800 X17.59999990463257 Y20.0 Z7.699999904632568
G4 P500
G1 F1800 X10.0 Y20.0 Z7.699999904632568
G4 P500
G1 F1800 X10.0 Y17.59999990463257 Z7.699999904632568
G4 P500
G1 F1800 X10.0 Y10.0 Z7.699999904632568
G4 P500
; LAYER HEIGHT: 7.7
G1 F1800 X10.0 Y10.0 Z7.799999809265136
G4 P500
G1 F1800 X12.300000190734863 Y10.0 Z7.799999809265136
G4 P500
G1 F1800 X20.0 Y10.0 Z7.799999809265136
G4 P500
G1 F1800 X20.0 Y12.300000190734863 Z7.799999809265136
G4 P500
G1 F1800 X20.0 Y20.0 Z7.799999809265136
G4 P500
G1 F1800 X17.699999809265137 Y20.0 Z7.799999809265136
G4 P500
G1 F1800 X10.0 Y20.0 Z7.799999809265136
G4 P500
G1 F1800 X10.0 Y17.699999809265137 Z7.799999809265136
G4 P500
G1 F1800 X10.0 Y10.0 Z7.799999809265136
G4 P500
; LAYER HEIGHT: 7.800000000000001
G1 F1800 X10.0 Y10.0 Z7.900000190734863
G4 P500
G1 F1800 X12.199999809265137 Y10.0 Z7.900000190734863
G4 P500
G1 F1800 X20.0 Y10.0 Z7.900000190734863
G4 P500
G1 F1800 X20.0 Y12.199999809265137 Z7.900000190734863
G4 P500
G1 F1800 X20.0 Y20.0 Z7.900000190734863
G4 P500
G1 F1800 X17.800000190734863 Y20.0 Z7.900000190734863
G4 P500
G1 F1800 X10.0 Y20.0 Z7.900000190734863
G4 P500
G1 F1800 X10.0 Y17.800000190734863 Z7.900000190734863
G4 P500
G1 F1800 X10.0 Y10.0 Z7.900000190734863
G4 P500
; LAYER HEIGHT: 7.9
G1 F1800 X10.0 Y10.0 Z8.000000095367431
G4 P500
G1 F1800 X12.099999904632568 Y10.0 Z8.000000095367431
G4 P500
G1 F1800 X20.0 Y10.0 Z8.000000095367431
G4 P500
G1 F1800 X20.0 Y12.099999904632568 Z8.000000095367431
G4 P500
G1 F1800 X20.0 Y20.0 Z8.000000095367431
G4 P500
G1 F1800 X17.90000009536743 Y20.0 Z8.000000095367431
G4 P500
G1 F1800 X10.0 Y20.0 Z8.000000095367431
G4 P500
G1 F1800 X10.0 Y17.90000009536743 Z8.000000095367431
G4 P500
G1 F1800 X10.0 Y10.0 Z8.000000095367431
G4 P500
; LAYER HEIGHT: 8.0
G1 F1800 X10.0 Y10.0 Z8.1
G4 P500
G1 F1800 X12.0 Y10.0 Z8.1
G4 P500
G1 F1800 X20.0 Y10.0 Z8.1
G4 P500
G1 F1800 X20.0 Y12.0 Z8.1
G4 P500
G1 F1800 X20.0 Y20.0 Z8.1
G4 P500
G1 F1800 X18.0 Y20.0 Z8.1
G4 P500
G1 F1800 X10.0 Y20.0 Z8.1
G4 P500
G1 F1800 X10.0 Y18.0 Z8.1
G4 P500
G1 F1800 X10.0 Y10.0 Z8.1
G4 P500
; LAYER HEIGHT: 8.1
G1 F1800 X10.0 Y10.0 Z8.200000381469726
G4 P500
G1 F1800 X11.899999618530273 Y10.0 Z8.200000381469726
G4 P500
G1 F1800 X20.0 Y10.0 Z8.200000381469726
G4 P500
G1 F1800 X20.0 Y11.899999618530273 Z8.200000381469726
G4 P500
G1 F1800 X20.0 Y20.0 Z8.200000381469726
G4 P500
G1 F1800 X18.100000381469727 Y20.0 Z8.200000381469726
G4 P500
G1 F1800 X10.0 Y20.0 Z8.200000381469726
G4 P500
G1 F1800 X10.0 Y18.100000381469727 Z8.200000381469726
G4 P500
G1 F1800 X10.0 Y10.0 Z8.200000381469726
G4 P500
; LAYER HEIGHT: 8.200000000000001
G1 F1800 X10.0 Y10.0 Z8.299999809265136
G4 P500
G1 F1800 X11.800000190734863 Y10.0 Z8.299999809265136
G4 P500
G1 F1800 X20.0 Y10.0 Z8.299999809265136
G4 P500
G1 F1800 X20.0 Y11.800000190734863 Z8.299999809265136
G4 P500
G1 F1800 X20.0 Y20.0 Z8.299999809265136
G4 P500
G1 F1800 X18.199999809265137 Y20.0 Z8.299999809265136
G4 P500
G1 F1800 X10.0 Y20.0 Z8.299999809265136
G4 P500
G1 F1800 X10.0 Y18.199999809265137 Z8.299999809265136
G4 P500
G1 F1800 X10.0 Y10.0 Z8.299999809265136
G4 P500
; LAYER HEIGHT: 8.3
G1 F1800 X10.0 Y10.0 Z8.400000190734863
G4 P500
G1 F1800 X11.699999809265137 Y10.0 Z8.400000190734863
G4 P500
G1 F1800 X20.0 Y10.0 Z8.400000190734863
G4 P500
G1 F1800 X20.0 Y11.699999809265137 Z8.400000190734863
G4 P500
G1 F1800 X20.0 Y20.0 Z8.400000190734863
G4 P500
G1 F1800 X18.300000190734863 Y20.0 Z8.400000190734863
G4 P500
G1 F1800 X10.0 Y20.0 Z8.400000190734863
G4 P500
G1 F1800 X10.0 Y18.300000190734863 Z8.400000190734863
G4 P500
G1 F1800 X10.0 Y10.0 Z8.400000190734863
G4 P500
; LAYER HEIGHT: 8.4
G1 F1800 X10.0 Y10.0 Z8.499999618530273
G4 P500
G1 F1800 X11.600000381469727 Y10.0 Z8.499999618530273
G4 P500
G1 F1800 X20.0 Y10.0 Z8.499999618530273
G4 P500
G1 F1800 X20.0 Y11.600000381469727 Z8.499999618530273
G4 P500
G1 F1800 X20.0 Y20.0 Z8.499999618530273
G4 P500
G1 F1800 X18.399999618530273 Y20.0 Z8.499999618530273
G4 P500
G1 F1800 X10.0 Y20.0 Z8.499999618530273
G4 P500
G1 F1800 X10.0 Y18.399999618530273 Z8.499999618530273
G4 P500
G1 F1800 X10.0 Y10.0 Z8.499999618530273
G4 P500
; LAYER HEIGHT: 8.5
G1 F1800 X10.0 Y10.0 Z8.6
G4 P500
G1 F1800 X11.5 Y10.0 Z8.6
G4 P500
G1 F1800 X20.0 Y10.0 Z8.6
G4 P500
G1 F1800 X20.0 Y11.5 Z8.6
G4 P500
G1 F1800 X20.0 Y20.0 Z8.6
G4 P500
G1 F1800 X18.5 Y20.0 Z8.6
G4 P500
G1 F1800 X10.0 Y20.0 Z8.6
G4 P500
G1 F1800 X10.0 Y18.5 Z8.6
G4 P500
G1 F1800 X10.0 Y10.0 Z8.6
G4 P500
; LAYER HEIGHT: 8.6
G1 F1800 X10.0 Y10.0 Z8.700000381469726
G4 P500
G1 F1800 X11.399999618530273 Y10.0 Z8.700000381469726
G4 P500
G1 F1800 X20.0 Y10.0 Z8.700000381469726
G4 P500
G1 F1800 X20.0 Y11.399999618530273 Z8.700000381469726
G4 P500
G1 F1800 X20.0 Y20.0 Z8.700000381469726
G4 P500
G1 F1800 X18.600000381469727 Y20.0 Z8.700000381469726
G4 P500
G1 F1800 X10.0 Y20.0 Z8.700000381469726
G4 P500
G1 F1800 X10.0 Y18.600000381469727 Z8.700000381469726
G4 P500
G1 F1800 X10.0 Y10.0 Z8.700000381469726
G4 P500
; LAYER HEIGHT: 8.700000000000001
G1 F1800 X10.0 Y10.0 Z8.799999809265136
G4 P500
G1 F1800 X11.300000190734863 Y10.0 Z8.799999809265136
G4 P500
G1 F1800 X20.0 Y10.0 Z8.799999809265136
G4 P500
G1 F1800 X20.0 Y11.300000190734863 Z8.799999809265136
G4 P500
G1 F1800 X20.0 Y20.0 Z8.799999809265136
G4 P500
G1 F1800 X18.699999809265137 Y20.0 Z8.799999809265136
G4 P500
G1 F1800 X10.0 Y20.0 Z8.799999809265136
G4 P500
G1 F1800 X10.0 Y18.699999809265137 Z8.799999809265136
G4 P500
G1 F1800 X10.0 Y10.0 Z8.799999809265136
G4 P500
; LAYER HEIGHT: 8.8
G1 F1800 X10.0 Y10.0 Z8.900000190734863
G4 P500
G1 F1800 X11.199999809265137 Y10.0 Z8.900000190734863
G4 P500
G1 F1800 X20.0 Y10.0 Z8.900000190734863
G4 P500
G1 F1800 X20.0 Y11.199999809265137 Z8.900000190734863
G4 P500
G1 F1800 X20.0 Y20.0 Z8.900000190734863
G4 P500
G1 F1800 X18.800000190734863 Y20.0 Z8.900000190734863
G4 P500
G1 F1800 X10.0 Y20.0 Z8.900000190734863
G4 P500
G1 F1800 X10.0 Y18.800000190734863 Z8.900000190734863
G4 P500
G1 F1800 X10.0 Y10.0 Z8.900000190734863
G4 P500
; LAYER HEIGHT: 8.9
G1 F1800 X10.0 Y10.0 Z8.999999618530273
G4 P500
G1 F1800 X11.100000381469727 Y10.0 Z8.999999618530273
G4 P500
G1 F1800 X20.0 Y10.0 Z8.999999618530273
G4 P500
G1 F1800 X20.0 Y11.100000381469727 Z8.999999618530273
G4 P500
G1 F1800 X20.0 Y20.0 Z8.999999618530273
G4 P500
G1 F1800 X18.899999618530273 Y20.0 Z8.999999618530273
G4 P500
G1 F1800 X10.0 Y20.0 Z8.999999618530273
G4 P500
G1 F1800 X10.0 Y18.899999618530273 Z8.999999618530273
G4 P500
G1 F1800 X10.0 Y10.0 Z8.999999618530273
G4 P500
; LAYER HEIGHT: 9.0
G1 F1800 X10.0 Y10.0 Z9.1
G4 P500
G1 F1800 X11.0 Y10.0 Z9.1
G4 P500
G1 F1800 X20.0 Y10.0 Z9.1
G4 P500
G1 F1800 X20.0 Y11.0 Z9.1
G4 P500
G1 F1800 X20.0 Y20.0 Z9.1
G4 P500
G1 F1800 X19.0 Y20.0 Z9.1
G4 P500
G1 F1800 X10.0 Y20.0 Z9.1
G4 P500
G1 F1800 X10.0 Y19.0 Z9.1
G4 P500
G1 F1800 X10.0 Y10.0 Z9.1
G4 P500
; LAYER HEIGHT: 9.1
G1 F1800 X10.0 Y10.0 Z9.200000381469726
G4 P500
G1 F1800 X10.899999618530273 Y10.0 Z9.200000381469726
G4 P500
G1 F1800 X20.0 Y10.0 Z9.200000381469726
G4 P500
G1 F1800 X20.0 Y10.899999618530273 Z9.200000381469726
G4 P500
G1 F1800 X20.0 Y20.0 Z9.200000381469726
G4 P500
G1 F1800 X19.100000381469727 Y20.0 Z9.200000381469726
G4 P500
G1 F1800 X10.0 Y20.0 Z9.200000381469726
G4 P500
G1 F1800 X10.0 Y19.100000381469727 Z9.200000381469726
G4 P500
G1 F1800 X10.0 Y10.0 Z9.200000381469726
G4 P500
; LAYER HEIGHT: 9.200000000000001
G1 F1800 X10.0 Y10.0 Z9.299999809265136
G4 P500
G1 F1800 X10.800000190734863 Y10.0 Z9.299999809265136
G4 P500
G1 F1800 X20.0 Y10.0 Z9.299999809265136
G4 P500
G1 F1800 X20.0 Y10.800000190734863 Z9.299999809265136
G4 P500
G1 F1800 X20.0 Y20.0 Z9.299999809265136
G4 P500
G1 F1800 X19.199999809265137 Y20.0 Z9.299999809265136
G4 P500
G1 F1800 X10.0 Y20.0 Z9.299999809265136
G4 P500
G1 F1800 X10.0 Y19.199999809265137 Z9.299999809265136
G4 P500
G1 F1800 X10.0 Y10.0 Z9.299999809265136
G4 P500
; LAYER HEIGHT: 9.3
G1 F1800 X10.0 Y10.0 Z9.400000190734863
G4 P500
G1 F1800 X10.699999809265137 Y10.0 Z9.400000190734863
G4 P500
G1 F1800 X20.0 Y10.0 Z9.400000190734863
G4 P500
G1 F1800 X20.0 Y10.699999809265137 Z9.400000190734863
G4 P500
G1 F1800 X20.0 Y20.0 Z9.400000190734863
G4 P500
G1 F1800 X19.300000190734863 Y20.0 Z9.400000190734863
G4 P500
G1 F1800 X10.0 Y20.0 Z9.400000190734863
G4 P500
G1 F1800 X10.0 Y19.300000190734863 Z9.400000190734863
G4 P500
G1 F1800 X10.0 Y10.0 Z9.400000190734863
G4 P500
; LAYER HEIGHT: 9.4
G1 F1800 X10.0 Y10.0 Z9.499999618530273
G4 P500
G1 F1800 X10.600000381469727 Y10.0 Z9.499999618530273
G4 P500
G1 F1800 X20.0 Y10.0 Z9.499999618530273
G4 P500
G1 F1800 X20.0 Y10.600000381469727 Z9.499999618530273
G4 P500
G1 F1800 X20.0 Y20.0 Z9.499999618530273
G4 P500
G1 F1800 X19.399999618530273 Y20.0 Z9.499999618530273
G4 P500
G1 F1800 X10.0 Y20.0 Z9.499999618530273
G4 P500
G1 F1800 X10.0 Y19.399999618530273 Z9.499999618530273
G4 P500
G1 F1800 X10.0 Y10.0 Z9.499999618530273
G4 P500
; LAYER HEIGHT: 9.5
G1 F1800 X10.0 Y10.0 Z9.6
G4 P500
G1 F1800 X10.5 Y10.0 Z9.6
G4 P500
G1 F1800 X20.0 Y10.0 Z9.6
G4 P500
G1 F1800 X20.0 Y10.5 Z9.6
G4 P500
G1 F1800 X20.0 Y20.0 Z9.6
G4 P500
G1 F1800 X19.5 Y20.0 Z9.6
G4 P500
G1 F1800 X10.0 Y20.0 Z9.6
G4 P500
G1 F1800 X10.0 Y19.5 Z9.6
G4 P500
G1 F1800 X10.0 Y10.0 Z9.6
G4 P500
; LAYER HEIGHT: 9.600000000000001
G1 F1800 X10.0 Y10.0 Z9.700000381469726
G4 P500
G1 F1800 X10.399999618530273 Y10.0 Z9.700000381469726
G4 P500
G1 F1800 X20.0 Y10.0 Z9.700000381469726
G4 P500
G1 F1800 X20.0 Y10.399999618530273 Z9.700000381469726
G4 P500
G1 F1800 X20.0 Y20.0 Z9.700000381469726
G4 P500
G1 F1800 X19.600000381469727 Y20.0 Z9.700000381469726
G4 P500
G1 F1800 X10.0 Y20.0 Z9.700000381469726
G4 P500
G1 F1800 X10.0 Y19.600000381469727 Z9.700000381469726
G4 P500
G1 F1800 X10.0 Y10.0 Z9.700000381469726
G4 P500
; LAYER HEIGHT: 9.700000000000001
G1 F1800 X10.0 Y10.0 Z9.799999809265136
G4 P500
G1 F1800 X10.300000190734863 Y10.0 Z9.799999809265136
G4 P500
G1 F1800 X20.0 Y10.0 Z9.799999809265136
G4 P500
G1 F1800 X20.0 Y10.300000190734863 Z9.799999809265136
G4 P500
G1 F1800 X20.0 Y20.0 Z9.799999809265136
G4 P500
G1 F1800 X19.699999809265137 Y20.0 Z9.799999809265136
G4 P500
G1 F1800 X10.0 Y20.0 Z9.799999809265136
G4 P500
G1 F1800 X10.0 Y19.699999809265137 Z9.799999809265136
G4 P500
G1 F1800 X10.0 Y10.0 Z9.799999809265136
G4 P500
; LAYER HEIGHT: 9.8
G1 F1800 X10.0 Y10.0 Z9.900000190734863
G4 P500
G1 F1800 X10.199999809265137 Y10.0 Z9.900000190734863
G4 P500
G1 F1800 X20.0 Y10.0 Z9.900000190734863
G4 P500
G1 F1800 X20.0 Y10.199999809265137 Z9.900000190734863
G4 P500
G1 F1800 X20.0 Y20.0 Z9.900000190734863
G4 P500
G1 F1800 X19.800000190734863 Y20.0 Z9.900000190734863
G4 P500
G1 F1800 X10.0 Y20.0 Z9.900000190734863
G4 P500
G1 F1800 X10.0 Y19.800000190734863 Z9.900000190734863
G4 P500
G1 F1800 X10.0 Y10.0 Z9.900000190734863
G4 P500
; LAYER HEIGHT: 9.9
G1 F1800 X10.0 Y10.0 Z9.999999618530273
G4 P500
G1 F1800 X10.100000381469727 Y10.0 Z9.999999618530273
G4 P500
G1 F1800 X20.0 Y10.0 Z9.999999618530273
G4 P500
G1 F1800 X20.0 Y10.100000381469727 Z9.999999618530273
G4 P500
G1 F1800 X20.0 Y20.0 Z9.999999618530273
G4 P500
G1 F1800 X19.899999618530273 Y20.0 Z9.999999618530273
G4 P500
G1 F1800 X10.0 Y20.0 Z9.999999618530273
G4 P500
G1 F1800 X10.0 Y19.899999618530273 Z9.999999618530273
G4 P500
G1 F1800 X10.0 Y10.0 Z9.999999618530273
G4 P500
; LAYER HEIGHT: 10.0
G1 F1800 X10.0 Y10.0 Z10.1
G4 P500
G1 F1800 X10.0 Y20.0 Z10.1
G4 P500
G1 F1800 X20.0 Y20.0 Z10.1
G4 P500
G1 F1800 X20.0 Y10.0 Z10.1
G4 P500
G1 F1800 X10.0 Y10.0 Z10.1
G4 P500
; LAYER HEIGHT: 10.100000000000001
; LAYER HEIGHT: 10.200000000000001
; LAYER HEIGHT: 10.3
; LAYER HEIGHT: 10.4
; LAYER HEIGHT: 10.5
; LAYER HEIGHT: 10.600000000000001
; LAYER HEIGHT: 10.700000000000001
; LAYER HEIGHT: 10.8
; LAYER HEIGHT: 10.9
; THANK GOD I'M DONE