;FLAVOR:Marlin
;TIME:236
;Filament used: 0.166481m
;Layer height: 0.3
;Generated with Cura_SteamEngine 3.6.0
M140 S60
M105
M190 S60
M104 S200
M105
M109 S200
M82 ;absolute extrusion mode
; Ender 3 Custom Start G-code
G28 ; Home all axes
G92 E0 ; Reset Extruder
G1 Z2.0 F3000 ; Move Z Axis up little to prevent scratching of Heat Bed
G1 X0.1 Y20 Z0.3 F5000.0 ; Move to start position
G1 X0.1 Y200.0 Z0.3 F1500.0 E15 ; Draw the first line
G1 X0.4 Y200.0 Z0.3 F5000.0 ; Move to side a little
G1 X0.4 Y20 Z0.3 F1500.0 E30 ; Draw the second line
G92 E0 ; Reset Extruder
G1 Z2.0 F3000 ; Move Z Axis up little to prevent scratching of Heat Bed
; End of custom start GCode
G92 E0
G1 F2400 E-5
;LAYER_COUNT:34
;LAYER:0
M107
M204 S5000
M205 X30 Y30
G0 F3600 X107.971 Y107.996 Z0.2
M204 S500
M205 X20 Y20
;TYPE:SKIRT
G1 F2400 E0
G1 F1800 X108.503 Y107.517 E0.02381
G1 X109.085 Y107.102 E0.04758
G1 X109.71 Y106.753 E0.07139
G1 X110.37 Y106.477 E0.09519
G1 X111.056 Y106.276 E0.11896
G1 X111.761 Y106.153 E0.14277
G1 X112.51 Y106.109 E0.16772
G1 X122.492 Y106.11 E0.49972
G1 X123.206 Y106.15 E0.52351
G1 X123.911 Y106.27 E0.54729
G1 X124.598 Y106.467 E0.57106
G1 X125.26 Y106.74 E0.59488
G1 X125.886 Y107.085 E0.61865
G1 X126.47 Y107.498 E0.64244
G1 X127.005 Y107.973 E0.66624
G1 X127.483 Y108.505 E0.69003
G1 X127.899 Y109.087 E0.71382
G1 X128.247 Y109.712 E0.73761
G1 X128.523 Y110.371 E0.76138
G1 X128.724 Y111.058 E0.78519
G1 X128.847 Y111.763 E0.80899
G1 X128.891 Y112.51 E0.83388
G1 X128.891 Y122.491 E1.16585
G1 X128.851 Y123.205 E1.18963
G1 X128.732 Y123.91 E1.21341
G1 X128.534 Y124.598 E1.23722
G1 X128.261 Y125.259 E1.26101
G1 X127.917 Y125.886 E1.2848
G1 X127.504 Y126.47 E1.30859
G1 X127.029 Y127.004 E1.33236
G1 X126.497 Y127.483 E1.35617
G1 X125.915 Y127.898 E1.37994
G1 X125.29 Y128.247 E1.40375
G1 X124.63 Y128.523 E1.42754
G1 X123.944 Y128.724 E1.45132
G1 X123.239 Y128.847 E1.47512
G1 X122.491 Y128.891 E1.50004
G1 X112.509 Y128.891 E1.83205
G1 X111.795 Y128.851 E1.85583
G1 X111.09 Y128.732 E1.87961
G1 X110.402 Y128.534 E1.90342
G1 X109.741 Y128.261 E1.92721
G1 X109.114 Y127.917 E1.951
G1 X108.53 Y127.504 E1.97479
G1 X107.996 Y127.029 E1.99856
G1 X107.517 Y126.497 E2.02237
G1 X107.102 Y125.915 E2.04614
G1 X106.753 Y125.29 E2.06995
G1 X106.477 Y124.63 E2.09374
G1 X106.276 Y123.944 E2.11752
G1 X106.153 Y123.239 E2.14132
G1 X106.109 Y122.491 E2.16624
G1 X106.109 Y112.509 E2.49825
G1 X106.149 Y111.795 E2.52203
G1 X106.268 Y111.09 E2.54581
G1 X106.466 Y110.402 E2.56962
G1 X106.739 Y109.741 E2.59341
G1 X107.083 Y109.114 E2.6172
G1 X107.496 Y108.53 E2.64099
G1 X107.971 Y107.996 E2.66476
M204 S5000
M205 X30 Y30
G0 F3600 X108.365 Y108.17
M204 S500
M205 X20 Y20
G1 F1800 X108.893 Y107.721 E2.68781
G1 X109.468 Y107.336 E2.71082
G1 X110.085 Y107.021 E2.73387
G1 X110.733 Y106.778 E2.75688
G1 X111.406 Y106.611 E2.77995
G1 X112.092 Y106.523 E2.80295
G1 X112.51 Y106.509 E2.81686
G1 X122.492 Y106.51 E3.14886
G1 X123.183 Y106.55 E3.17189
G1 X123.865 Y106.669 E3.19491
G1 X124.529 Y106.867 E3.21796
G1 X125.166 Y107.139 E3.24099
G1 X125.767 Y107.483 E3.26403
G1 X126.324 Y107.894 E3.28705
G1 X126.831 Y108.367 E3.31011
G1 X127.279 Y108.894 E3.33312
G1 X127.664 Y109.47 E3.35616
G1 X127.98 Y110.086 E3.37919
G1 X128.222 Y110.735 E3.40223
G1 X128.389 Y111.407 E3.42526
G1 X128.477 Y112.094 E3.44829
G1 X128.491 Y112.51 E3.46214
G1 X128.491 Y122.491 E3.79411
G1 X128.451 Y123.182 E3.81713
G1 X128.332 Y123.865 E3.84019
G1 X128.134 Y124.528 E3.8632
G1 X127.862 Y125.165 E3.88624
G1 X127.518 Y125.766 E3.90927
G1 X127.107 Y126.324 E3.93232
G1 X126.635 Y126.83 E3.95533
G1 X126.107 Y127.279 E3.97839
G1 X125.532 Y127.664 E4.0014
G1 X124.915 Y127.979 E4.02444
G1 X124.267 Y128.222 E4.04746
G1 X123.594 Y128.389 E4.07052
G1 X122.908 Y128.477 E4.09353
G1 X122.491 Y128.491 E4.10741
G1 X112.509 Y128.491 E4.43941
G1 X111.818 Y128.451 E4.46243
G1 X111.135 Y128.332 E4.48549
G1 X110.472 Y128.134 E4.5085
G1 X109.835 Y127.862 E4.53154
G1 X109.234 Y127.518 E4.55457
G1 X108.676 Y127.107 E4.57762
G1 X108.17 Y126.635 E4.60064
G1 X107.721 Y126.107 E4.62369
G1 X107.336 Y125.532 E4.64671
G1 X107.021 Y124.915 E4.66975
G1 X106.778 Y124.267 E4.69276
G1 X106.611 Y123.594 E4.71583
G1 X106.523 Y122.908 E4.73883
G1 X106.509 Y122.491 E4.75271
G1 X106.509 Y112.509 E5.08471
G1 X106.549 Y111.818 E5.10773
G1 X106.668 Y111.135 E5.13079
G1 X106.866 Y110.472 E5.1538
G1 X107.138 Y109.835 E5.17684
G1 X107.482 Y109.234 E5.19987
G1 X107.893 Y108.676 E5.22292
G1 X108.365 Y108.17 E5.24594
M204 S5000
M205 X30 Y30
G0 F3600 X108.758 Y108.351
M204 S500
M205 X20 Y20
G1 F1800 X109.28 Y107.933 E5.26818
G1 X109.849 Y107.581 E5.29044
G1 X110.456 Y107.299 E5.3127
G1 X111.092 Y107.091 E5.33495
G1 X111.748 Y106.961 E5.3572
G1 X112.51 Y106.909 E5.3826
G1 X122.492 Y106.91 E5.7146
G1 X123.159 Y106.95 E5.73683
G1 X123.818 Y107.069 E5.7591
G1 X124.457 Y107.266 E5.78134
G1 X125.068 Y107.538 E5.80358
G1 X125.643 Y107.881 E5.82585
G1 X126.172 Y108.29 E5.84809
G1 X126.649 Y108.759 E5.87034
G1 X127.067 Y109.282 E5.89261
G1 X127.419 Y109.851 E5.91486
G1 X127.701 Y110.457 E5.93709
G1 X127.909 Y111.093 E5.95935
G1 X128.039 Y111.75 E5.98163
G1 X128.091 Y112.51 E6.00696
G1 X128.091 Y122.491 E6.33893
G1 X128.051 Y123.159 E6.36119
G1 X127.932 Y123.817 E6.38343
G1 X127.735 Y124.457 E6.4057
G1 X127.463 Y125.068 E6.42795
G1 X127.12 Y125.642 E6.45019
G1 X126.711 Y126.172 E6.47245
G1 X126.242 Y126.649 E6.4947
G1 X125.72 Y127.067 E6.51694
G1 X125.151 Y127.419 E6.5392
G1 X124.544 Y127.701 E6.56146
G1 X123.908 Y127.909 E6.58372
G1 X123.252 Y128.039 E6.60596
G1 X122.491 Y128.091 E6.63133
G1 X112.509 Y128.091 E6.96333
G1 X111.841 Y128.051 E6.98559
G1 X111.183 Y127.932 E7.00783
G1 X110.543 Y127.735 E7.0301
G1 X109.932 Y127.463 E7.05235
G1 X109.358 Y127.12 E7.07459
G1 X108.828 Y126.711 E7.09685
G1 X108.351 Y126.242 E7.1191
G1 X107.933 Y125.72 E7.14134
G1 X107.581 Y125.151 E7.1636
G1 X107.299 Y124.544 E7.18586
G1 X107.091 Y123.908 E7.20811
G1 X106.961 Y123.252 E7.23036
G1 X106.909 Y122.491 E7.25573
G1 X106.909 Y112.509 E7.58773
G1 X106.949 Y111.841 E7.60999
G1 X107.068 Y111.183 E7.63223
G1 X107.265 Y110.543 E7.6545
G1 X107.537 Y109.932 E7.67675
G1 X107.88 Y109.358 E7.69899
G1 X108.289 Y108.828 E7.72125
G1 X108.758 Y108.351 E7.7435
M204 S5000
M205 X30 Y30
G0 F3600 X108.684 Y108.986
M204 S500
M205 X20 Y20
G1 F1800 X109.149 Y108.54 E7.76493
G1 X109.666 Y108.155 E7.78637
G1 X110.227 Y107.836 E7.80784
G1 X110.823 Y107.59 E7.82928
G1 X111.444 Y107.419 E7.8507
G1 X112.082 Y107.327 E7.87214
G1 X112.51 Y107.309 E7.88639
G1 X122.492 Y107.31 E8.21839
G1 X123.135 Y107.35 E8.23982
G1 X123.768 Y107.469 E8.26124
G1 X124.382 Y107.666 E8.28269
G1 X124.967 Y107.937 E8.30413
G1 X125.514 Y108.279 E8.32559
G1 X126.014 Y108.686 E8.34703
G1 X126.46 Y109.151 E8.36846
G1 X126.846 Y109.668 E8.38992
G1 X127.164 Y110.229 E8.41137
G1 X127.41 Y110.824 E8.43279
G1 X127.581 Y111.446 E8.45424
G1 X127.674 Y112.084 E8.47569
G1 X127.691 Y112.51 E8.48987
G1 X127.691 Y122.491 E8.82184
G1 X127.651 Y123.134 E8.84326
G1 X127.532 Y123.768 E8.86472
G1 X127.335 Y124.382 E8.88617
G1 X127.064 Y124.967 E8.90761
G1 X126.722 Y125.514 E8.92907
G1 X126.316 Y126.014 E8.95049
G1 X125.851 Y126.46 E8.97192
G1 X125.334 Y126.845 E8.99336
G1 X124.773 Y127.164 E9.01482
G1 X124.177 Y127.41 E9.03627
G1 X123.556 Y127.581 E9.05769
G1 X122.918 Y127.673 E9.07913
G1 X122.491 Y127.691 E9.09334
G1 X112.509 Y127.691 E9.42535
G1 X111.866 Y127.651 E9.44677
G1 X111.232 Y127.532 E9.46823
G1 X110.618 Y127.335 E9.48968
G1 X110.033 Y127.064 E9.51112
G1 X109.486 Y126.722 E9.53258
G1 X108.986 Y126.316 E9.554
G1 X108.54 Y125.851 E9.57543
G1 X108.155 Y125.334 E9.59687
G1 X107.836 Y124.773 E9.61833
G1 X107.59 Y124.177 E9.63978
G1 X107.419 Y123.556 E9.6612
G1 X107.327 Y122.918 E9.68264
G1 X107.309 Y122.491 E9.69686
G1 X107.309 Y112.509 E10.02886
G1 X107.349 Y111.866 E10.05029
G1 X107.468 Y111.232 E10.07174
G1 X107.665 Y110.618 E10.09319
G1 X107.936 Y110.033 E10.11463
G1 X108.278 Y109.486 E10.13609
G1 X108.684 Y108.986 E10.15751
M204 S5000
M205 X30 Y30
G1 F2400 E5.15751
;MESH:yes_box_bin.stl
G0 F3600 X111.835 Y113.114
G0 X113.114 Y113.114
G0 X121.83 Y121.83
G0 X121.9 Y121.9
M204 S500
M205 X20 Y20
;TYPE:WALL-INNER
G1 F2400 E10.15751
G1 F1800 X113.1 Y121.9 E10.4502
G1 X113.1 Y113.1 E10.74289
G1 X121.9 Y113.1 E11.03558
G1 X121.9 Y121.9 E11.32827
M204 S5000
M205 X30 Y30
G0 F3600 X122.3 Y122.3
M204 S500
M205 X20 Y20
;TYPE:WALL-OUTER
G1 F1800 X112.7 Y122.3 E11.64756
G1 X112.7 Y112.7 E11.96686
G1 X122.3 Y112.7 E12.28616
G1 X122.3 Y122.3 E12.60546
M204 S5000
M205 X30 Y30
G0 F3600 X122.1 Y122.3
G0 X121.83 Y121.83
G0 X121.51 Y121.51
M204 S500
M205 X20 Y20
;TYPE:SKIN
G1 F1800 X113.49 Y121.51 E12.8722
G1 X113.49 Y113.49 E13.13895
G1 X121.51 Y113.49 E13.4057
G1 X121.51 Y121.51 E13.67244
M204 S5000
M205 X30 Y30
G0 F3600 X121.329 Y113.975
M204 S500
M205 X20 Y20
G1 F1800 X121.024 Y113.67 E13.68679
M204 S5000
M205 X30 Y30
G0 F3600 X120.458 Y113.67
M204 S500
M205 X20 Y20
G1 F1800 X121.329 Y114.541 E13.72776
M204 S5000
M205 X30 Y30
G0 F3600 X121.329 Y115.107
M204 S500
M205 X20 Y20
G1 F1800 X119.892 Y113.67 E13.79535
M204 S5000
M205 X30 Y30
G0 F3600 X119.327 Y113.67
M204 S500
M205 X20 Y20
G1 F1800 X121.329 Y115.672 E13.88952
M204 S5000
M205 X30 Y30
G0 F3600 X121.329 Y116.238
M204 S500
M205 X20 Y20
G1 F1800 X118.761 Y113.67 E14.01031
M204 S5000
M205 X30 Y30
G0 F3600 X118.195 Y113.67
M204 S500
M205 X20 Y20
G1 F1800 X121.329 Y116.804 E14.15772
M204 S5000
M205 X30 Y30
G0 F3600 X121.329 Y117.369
M204 S500
M205 X20 Y20
G1 F1800 X117.63 Y113.67 E14.33171
M204 S5000
M205 X30 Y30
G0 F3600 X117.064 Y113.67
M204 S500
M205 X20 Y20
G1 F1800 X121.329 Y117.935 E14.53232
M204 S5000
M205 X30 Y30
G0 F3600 X121.329 Y118.501
M204 S500
M205 X20 Y20
G1 F1800 X116.498 Y113.67 E14.75956
M204 S5000
M205 X30 Y30
G0 F3600 X115.932 Y113.67
M204 S500
M205 X20 Y20
G1 F1800 X121.329 Y119.066 E15.01339
M204 S5000
M205 X30 Y30
G0 F3600 X121.329 Y119.632
M204 S500
M205 X20 Y20
G1 F1800 X115.367 Y113.67 E15.29383
M204 S5000
M205 X30 Y30
G0 F3600 X114.801 Y113.67
M204 S500
M205 X20 Y20
G1 F1800 X121.329 Y120.198 E15.60089
M204 S5000
M205 X30 Y30
G0 F3600 X121.329 Y120.763
M204 S500
M205 X20 Y20
G1 F1800 X114.235 Y113.67 E15.93454
M204 S5000
M205 X30 Y30
G0 F3600 X113.669 Y113.669
M204 S500
M205 X20 Y20
G1 F1800 X121.329 Y121.329 E16.29484
M204 S5000
M205 X30 Y30
G0 F3600 X120.763 Y121.329
M204 S500
M205 X20 Y20
G1 F1800 X113.669 Y114.235 E16.62852
M204 S5000
M205 X30 Y30
G0 F3600 X113.669 Y114.8
M204 S500
M205 X20 Y20
G1 F1800 X120.198 Y121.329 E16.93563
M204 S5000
M205 X30 Y30
G0 F3600 X119.632 Y121.329
M204 S500
M205 X20 Y20
G1 F1800 X113.669 Y115.366 E17.21611
M204 S5000
M205 X30 Y30
G0 F3600 X113.669 Y115.932
M204 S500
M205 X20 Y20
G1 F1800 X119.066 Y121.329 E17.46997
M204 S5000
M205 X30 Y30
G0 F3600 X118.501 Y121.329
M204 S500
M205 X20 Y20
G1 F1800 X113.669 Y116.497 E17.69725
M204 S5000
M205 X30 Y30
G0 F3600 X113.669 Y117.063
M204 S500
M205 X20 Y20
G1 F1800 X117.935 Y121.329 E17.89791
M204 S5000
M205 X30 Y30
G0 F3600 X117.369 Y121.329
M204 S500
M205 X20 Y20
G1 F1800 X113.669 Y117.629 E18.07195
M204 S5000
M205 X30 Y30
G0 F3600 X113.669 Y118.195
M204 S500
M205 X20 Y20
G1 F1800 X116.804 Y121.329 E18.21938
M204 S5000
M205 X30 Y30
G0 F3600 X116.238 Y121.329
M204 S500
M205 X20 Y20
G1 F1800 X113.669 Y118.76 E18.34022
M204 S5000
M205 X30 Y30
G0 F3600 X113.669 Y119.326
M204 S500
M205 X20 Y20
G1 F1800 X115.672 Y121.329 E18.43444
M204 S5000
M205 X30 Y30
G0 F3600 X115.107 Y121.329
M204 S500
M205 X20 Y20
G1 F1800 X113.669 Y119.892 E18.50205
M204 S5000
M205 X30 Y30
G0 F3600 X113.669 Y120.457
M204 S500
M205 X20 Y20
G1 F1800 X114.541 Y121.329 E18.54307
M204 S5000
M205 X30 Y30
G0 F3600 X113.975 Y121.329
M204 S500
M205 X20 Y20
G1 F1800 X113.669 Y121.023 E18.55746
M204 S5000
M205 X30 Y30
;MESH:NONMESH
G0 F3600 X121.83 Y121.83
G0 X121.9 Y121.9
;TIME_ELAPSED:29.149647
;LAYER:1
M140 S60
M106 S255
;MESH:yes_box_bin.stl
G0 F5400 X121.9 Y121.9 Z0.5
M204 S500
M205 X20 Y20
;TYPE:WALL-INNER
G1 F2227 X113.1 Y121.9 E18.9965
G1 X113.1 Y113.1 E19.43553
G1 X121.9 Y113.1 E19.87456
G1 X121.9 Y121.9 E20.3136
M204 S5000
M205 X30 Y30
G0 F5400 X122.3 Y122.3
M204 S500
M205 X20 Y20
;TYPE:WALL-OUTER
G1 F1484.7 X112.7 Y122.3 E20.79254
G1 X112.7 Y112.7 E21.27149
G1 X122.3 Y112.7 E21.75044
G1 X122.3 Y122.3 E22.22938
M204 S5000
M205 X30 Y30
G0 F5400 X122.1 Y122.3
G0 X121.83 Y121.83
G0 X121.51 Y121.51
M204 S500
M205 X20 Y20
;TYPE:SKIN
G1 F1484.7 X113.49 Y121.51 E22.6295
G1 X113.49 Y113.49 E23.02962
G1 X121.51 Y113.49 E23.42974
G1 X121.51 Y121.51 E23.82986
M204 S5000
M205 X30 Y30
G0 F5400 X120.783 Y121.329
M204 S500
M205 X20 Y20
G1 F1484.7 X121.329 Y120.783 E23.86838
M204 S5000
M205 X30 Y30
G0 F5400 X121.329 Y120.218
M204 S500
M205 X20 Y20
G1 F1484.7 X120.218 Y121.329 E23.94677
M204 S5000
M205 X30 Y30
G0 F5400 X119.652 Y121.329
M204 S500
M205 X20 Y20
G1 F1484.7 X121.329 Y119.652 E24.06509
M204 S5000
M205 X30 Y30
G0 F5400 X121.329 Y119.086
M204 S500
M205 X20 Y20
G1 F1484.7 X119.086 Y121.329 E24.22335
M204 S5000
M205 X30 Y30
G0 F5400 X118.52 Y121.329
M204 S500
M205 X20 Y20
G1 F1484.7 X121.329 Y118.52 E24.42154
M204 S5000
M205 X30 Y30
G0 F5400 X121.329 Y117.955
M204 S500
M205 X20 Y20
G1 F1484.7 X117.955 Y121.329 E24.65959
M204 S5000
M205 X30 Y30
G0 F5400 X117.389 Y121.329
M204 S500
M205 X20 Y20
G1 F1484.7 X121.329 Y117.389 E24.93758
M204 S5000
M205 X30 Y30
G0 F5400 X121.329 Y116.823
M204 S500
M205 X20 Y20
G1 F1484.7 X116.823 Y121.329 E25.2555
M204 S5000
M205 X30 Y30
G0 F5400 X116.258 Y121.329
M204 S500
M205 X20 Y20
G1 F1484.7 X121.329 Y116.258 E25.61329
M204 S5000
M205 X30 Y30
G0 F5400 X121.329 Y115.692
M204 S500
M205 X20 Y20
G1 F1484.7 X115.692 Y121.329 E26.01101
M204 S5000
M205 X30 Y30
G0 F5400 X115.126 Y121.329
M204 S500
M205 X20 Y20
G1 F1484.7 X121.329 Y115.126 E26.44866
M204 S5000
M205 X30 Y30
G0 F5400 X121.329 Y114.561
M204 S500
M205 X20 Y20
G1 F1484.7 X114.561 Y121.329 E26.92618
M204 S5000
M205 X30 Y30
G0 F5400 X113.995 Y121.329
M204 S500
M205 X20 Y20
G1 F1484.7 X121.329 Y113.995 E27.44364
M204 S5000
M205 X30 Y30
G0 F5400 X121.089 Y113.669
M204 S500
M205 X20 Y20
G1 F1484.7 X113.67 Y121.089 E27.96712
M204 S5000
M205 X30 Y30
G0 F5400 X113.67 Y120.523
M204 S500
M205 X20 Y20
G1 F1484.7 X120.524 Y113.669 E28.45071
M204 S5000
M205 X30 Y30
G0 F5400 X119.958 Y113.669
M204 S500
M205 X20 Y20
G1 F1484.7 X113.67 Y119.957 E28.89436
M204 S5000
M205 X30 Y30
G0 F5400 X113.67 Y119.392
M204 S500
M205 X20 Y20
G1 F1484.7 X119.392 Y113.669 E29.29811
M204 S5000
M205 X30 Y30
G0 F5400 X118.827 Y113.669
M204 S500
M205 X20 Y20
G1 F1484.7 X113.67 Y118.826 E29.66197
M204 S5000
M205 X30 Y30
G0 F5400 X113.67 Y118.26
M204 S500
M205 X20 Y20
G1 F1484.7 X118.261 Y113.669 E29.98589
M204 S5000
M205 X30 Y30
G0 F5400 X117.695 Y113.669
M204 S500
M205 X20 Y20
G1 F1484.7 X113.67 Y117.695 E30.26991
M204 S5000
M205 X30 Y30
G0 F5400 X113.67 Y117.129
M204 S500
M205 X20 Y20
G1 F1484.7 X117.13 Y113.669 E30.51403
M204 S5000
M205 X30 Y30
G0 F5400 X116.564 Y113.669
M204 S500
M205 X20 Y20
G1 F1484.7 X113.67 Y116.563 E30.71822
M204 S5000
M205 X30 Y30
G0 F5400 X113.67 Y115.998
M204 S500
M205 X20 Y20
G1 F1484.7 X115.998 Y113.669 E30.88251
M204 S5000
M205 X30 Y30
G0 F5400 X115.433 Y113.669
M204 S500
M205 X20 Y20
G1 F1484.7 X113.67 Y115.432 E31.0069
M204 S5000
M205 X30 Y30
G0 F5400 X113.67 Y114.866
M204 S500
M205 X20 Y20
G1 F1484.7 X114.867 Y113.669 E31.09135
M204 S5000
M205 X30 Y30
G0 F5400 X114.301 Y113.669
M204 S500
M205 X20 Y20
G1 F1484.7 X113.67 Y114.3 E31.13587
M204 S5000
M205 X30 Y30
G0 F5400 X113.67 Y113.735
M204 S500
M205 X20 Y20
G1 F1484.7 X113.736 Y113.669 E31.14053
M204 S5000
M205 X30 Y30
;MESH:NONMESH
G0 F5400 X121.83 Y121.83
G0 X121.9 Y121.9
;TIME_ELAPSED:40.181938
;LAYER:2
;MESH:yes_box_bin.stl
G0 F7200 X121.9 Y121.9 Z0.8
M204 S500
M205 X20 Y20
;TYPE:WALL-INNER
G1 F1200 X113.1 Y121.9 E31.57956
G1 X113.1 Y113.1 E32.0186
G1 X121.9 Y113.1 E32.45763
G1 X121.9 Y121.9 E32.89666
M204 S5000
M205 X30 Y30
G0 F7200 X122.3 Y122.3
M204 S500
M205 X20 Y20
;TYPE:WALL-OUTER
G1 F600 X112.7 Y122.3 E33.37561
G1 X112.7 Y112.7 E33.85455
G1 X122.3 Y112.7 E34.3335
