; Welcome to Noodle v1.6.8 
; Generated with Genuine Passion and a dash of Anger
; PRINT SETTINGS
; offsets: X:10.0 Y:10.0 Z0.1
G28 ; HOME ALL AXIS
; LAYER HEIGHT: 0
G1 F1800 X0.0 Y0.0 Z0.0 E0.0
G1 F1800 X0.0 Y10.0 Z0.0 E0.33
G1 F1800 X10.0 Y10.0 Z0.0 E0.66
G1 F1800 X10.0 Y0.0 Z0.0 E0.99
G1 F1800 X0.0 Y0.0 Z0.0 E1.32
; LAYER HEIGHT: 1
G1 F1800 X0.0 Y0.0 Z1.0 E1.32
G1 F1800 X0.0 Y1.0 Z1.0 E1.353
G1 F1800 X0.0 Y10.0 Z1.0 E1.65
G1 F1800 X1.0 Y10.0 Z1.0 E1.6829999999999998
G1 F1800 X10.0 Y10.0 Z1.0 E1.98
G1 F1800 X10.0 Y9.0 Z1.0 E2.013
G1 F1800 X10.0 Y0.0 Z1.0 E2.31
G1 F1800 X9.0 Y0.0 Z1.0 E2.343
G1 F1800 X0.0 Y0.0 Z1.0 E2.64
; LAYER HEIGHT: 2
G1 F1800 X0.0 Y0.0 Z2.0 E2.64
G1 F1800 X0.0 Y2.0 Z2.0 E2.706
G1 F1800 X0.0 Y10.0 Z2.0 E2.9699999999999998
G1 F1800 X2.0 Y10.0 Z2.0 E3.0359999999999996
G1 F1800 X10.0 Y10.0 Z2.0 E3.3
G1 F1800 X10.0 Y8.0 Z2.0 E3.3659999999999997
G1 F1800 X10.0 Y0.0 Z2.0 E3.63
G1 F1800 X8.0 Y0.0 Z2.0 E3.6959999999999997
G1 F1800 X0.0 Y0.0 Z2.0 E3.96
; LAYER HEIGHT: 3
G1 F1800 X0.0 Y0.0 Z3.0 E3.96
G1 F1800 X0.0 Y3.0 Z3.0 E4.059
G1 F1800 X0.0 Y10.0 Z3.0 E4.29
G1 F1800 X3.0 Y10.0 Z3.0 E4.389
G1 F1800 X10.0 Y10.0 Z3.0 E4.62
G1 F1800 X10.0 Y7.0 Z3.0 E4.719
G1 F1800 X10.0 Y0.0 Z3.0 E4.95
G1 F1800 X7.0 Y0.0 Z3.0 E5.049
G1 F1800 X0.0 Y0.0 Z3.0 E5.28
; LAYER HEIGHT: 4
G1 F1800 X0.0 Y0.0 Z4.0 E5.28
G1 F1800 X0.0 Y4.0 Z4.0 E5.412
G1 F1800 X0.0 Y10.0 Z4.0 E5.61
G1 F1800 X4.0 Y10.0 Z4.0 E5.742
G1 F1800 X10.0 Y10.0 Z4.0 E5.94
G1 F1800 X10.0 Y6.0 Z4.0 E6.072
G1 F1800 X10.0 Y0.0 Z4.0 E6.2700000000000005
G1 F1800 X6.0 Y0.0 Z4.0 E6.402
G1 F1800 X0.0 Y0.0 Z4.0 E6.6000000000000005
; LAYER HEIGHT: 5
G1 F1800 X0.0 Y0.0 Z5.0 E6.6000000000000005
G1 F1800 X0.0 Y5.0 Z5.0 E6.765000000000001
G1 F1800 X0.0 Y10.0 Z5.0 E6.930000000000001
G1 F1800 X5.0 Y10.0 Z5.0 E7.095000000000001
G1 F1800 X10.0 Y10.0 Z5.0 E7.260000000000001
G1 F1800 X10.0 Y5.0 Z5.0 E7.425000000000001
G1 F1800 X10.0 Y0.0 Z5.0 E7.590000000000001
G1 F1800 X5.0 Y0.0 Z5.0 E7.755000000000001
G1 F1800 X0.0 Y0.0 Z5.0 E7.920000000000001
; LAYER HEIGHT: 6
G1 F1800 X0.0 Y0.0 Z6.0 E7.920000000000001
G1 F1800 X4.0 Y0.0 Z6.0 E8.052000000000001
G1 F1800 X10.0 Y0.0 Z6.0 E8.250000000000002
G1 F1800 X10.0 Y4.0 Z6.0 E8.382000000000001
G1 F1800 X10.0 Y10.0 Z6.0 E8.580000000000002
G1 F1800 X6.0 Y10.0 Z6.0 E8.712000000000002
G1 F1800 X0.0 Y10.0 Z6.0 E8.910000000000002
G1 F1800 X0.0 Y6.0 Z6.0 E9.042000000000002
G1 F1800 X0.0 Y0.0 Z6.0 E9.240000000000002
; LAYER HEIGHT: 7
G1 F1800 X0.0 Y0.0 Z7.0 E9.240000000000002
G1 F1800 X3.0 Y0.0 Z7.0 E9.339000000000002
G1 F1800 X10.0 Y0.0 Z7.0 E9.570000000000002
G1 F1800 X10.0 Y3.0 Z7.0 E9.669000000000002
G1 F1800 X10.0 Y10.0 Z7.0 E9.900000000000002
G1 F1800 X7.0 Y10.0 Z7.0 E9.999000000000002
G1 F1800 X0.0 Y10.0 Z7.0 E10.230000000000002
G1 F1800 X0.0 Y7.0 Z7.0 E10.329000000000002
G1 F1800 X0.0 Y0.0 Z7.0 E10.560000000000002
; LAYER HEIGHT: 8
G1 F1800 X0.0 Y0.0 Z8.0 E10.560000000000002
G1 F1800 X2.0 Y0.0 Z8.0 E10.626000000000003
G1 F1800 X10.0 Y0.0 Z8.0 E10.890000000000002
G1 F1800 X10.0 Y2.0 Z8.0 E10.956000000000003
G1 F1800 X10.0 Y10.0 Z8.0 E11.220000000000002
G1 F1800 X8.0 Y10.0 Z8.0 E11.286000000000003
G1 F1800 X0.0 Y10.0 Z8.0 E11.550000000000002
G1 F1800 X0.0 Y8.0 Z8.0 E11.616000000000003
G1 F1800 X0.0 Y0.0 Z8.0 E11.880000000000003
; LAYER HEIGHT: 9
G1 F1800 X0.0 Y0.0 Z9.0 E11.880000000000003
G1 F1800 X1.0 Y0.0 Z9.0 E11.913000000000002
G1 F1800 X10.0 Y0.0 Z9.0 E12.210000000000003
G1 F1800 X10.0 Y1.0 Z9.0 E12.243000000000002
G1 F1800 X10.0 Y10.0 Z9.0 E12.540000000000003
G1 F1800 X9.0 Y10.0 Z9.0 E12.573000000000002
G1 F1800 X0.0 Y10.0 Z9.0 E12.870000000000003
G1 F1800 X0.0 Y9.0 Z9.0 E12.903000000000002
G1 F1800 X0.0 Y0.0 Z9.0 E13.200000000000003
; LAYER HEIGHT: 10
G1 F1800 X0.0 Y0.0 Z10.0 E13.200000000000003
G1 F1800 X0.0 Y10.0 Z10.0 E13.530000000000003
G1 F1800 X10.0 Y10.0 Z10.0 E13.860000000000003
G1 F1800 X10.0 Y0.0 Z10.0 E14.190000000000003
G1 F1800 X0.0 Y0.0 Z10.0 E14.520000000000003
; LAYER HEIGHT: 11
; LAYER HEIGHT: 12
; LAYER HEIGHT: 13
; LAYER HEIGHT: 14
; LAYER HEIGHT: 15
; LAYER HEIGHT: 16
; LAYER HEIGHT: 17
; LAYER HEIGHT: 18
; LAYER HEIGHT: 19
; LAYER HEIGHT: 20
; LAYER HEIGHT: 21
; LAYER HEIGHT: 22
; LAYER HEIGHT: 23
; LAYER HEIGHT: 24
; LAYER HEIGHT: 25
; LAYER HEIGHT: 26
; LAYER HEIGHT: 27
; LAYER HEIGHT: 28
; LAYER HEIGHT: 29
; THANK GOD I'M DONE