; Welcome to Noodle v1.6.8 
; Generated with Genuine Passion and a dash of Anger
; PRINT SETTINGS
; offsets: X:10.0 Y:10.0 Z0.1
G28 ; HOME ALL AXIS
; LAYER HEIGHT: 0
G1 F1800 X10.0 Y10.0 Z0.1
G4 P500
G1 F1800 X10.0 Y20.0 Z0.1
G4 P500
G1 F1800 X20.0 Y20.0 Z0.1
G4 P500
G1 F1800 X20.0 Y10.0 Z0.1
G4 P500
G1 F1800 X10.0 Y10.0 Z0.1
G4 P500
; LAYER HEIGHT: 1
G1 F1800 X10.0 Y10.0 Z1.1
G4 P500
G1 F1800 X10.0 Y11.0 Z1.1
G4 P500
G1 F1800 X10.0 Y20.0 Z1.1
G4 P500
G1 F1800 X11.0 Y20.0 Z1.1
G4 P500
G1 F1800 X20.0 Y20.0 Z1.1
G4 P500
G1 F1800 X20.0 Y19.0 Z1.1
G4 P500
G1 F1800 X20.0 Y10.0 Z1.1
G4 P500
G1 F1800 X19.0 Y10.0 Z1.1
G4 P500
G1 F1800 X10.0 Y10.0 Z1.1
G4 P500
; LAYER HEIGHT: 2
G1 F1800 X10.0 Y10.0 Z2.1
G4 P500
G1 F1800 X10.0 Y12.0 Z2.1
G4 P500
G1 F1800 X10.0 Y20.0 Z2.1
G4 P500
G1 F1800 X12.0 Y20.0 Z2.1
G4 P500
G1 F1800 X20.0 Y20.0 Z2.1
G4 P500
G1 F1800 X20.0 Y18.0 Z2.1
G4 P500
G1 F1800 X20.0 Y10.0 Z2.1
G4 P500
G1 F1800 X18.0 Y10.0 Z2.1
G4 P500
G1 F1800 X10.0 Y10.0 Z2.1
G4 P500
; LAYER HEIGHT: 3
G1 F1800 X10.0 Y10.0 Z3.1
G4 P500
G1 F1800 X10.0 Y13.0 Z3.1
G4 P500
G1 F1800 X10.0 Y20.0 Z3.1
G4 P500
G1 F1800 X13.0 Y20.0 Z3.1
G4 P500
G1 F1800 X20.0 Y20.0 Z3.1
G4 P500
G1 F1800 X20.0 Y17.0 Z3.1
G4 P500
G1 F1800 X20.0 Y10.0 Z3.1
G4 P500
G1 F1800 X17.0 Y10.0 Z3.1
G4 P500
G1 F1800 X10.0 Y10.0 Z3.1
G4 P500
; LAYER HEIGHT: 4
G1 F1800 X10.0 Y10.0 Z4.1
G4 P500
G1 F1800 X10.0 Y14.0 Z4.1
G4 P500
G1 F1800 X10.0 Y20.0 Z4.1
G4 P500
G1 F1800 X14.0 Y20.0 Z4.1
G4 P500
G1 F1800 X20.0 Y20.0 Z4.1
G4 P500
G1 F1800 X20.0 Y16.0 Z4.1
G4 P500
G1 F1800 X20.0 Y10.0 Z4.1
G4 P500
G1 F1800 X16.0 Y10.0 Z4.1
G4 P500
G1 F1800 X10.0 Y10.0 Z4.1
G4 P500
; LAYER HEIGHT: 5
G1 F1800 X10.0 Y10.0 Z5.1
G4 P500
G1 F1800 X10.0 Y15.0 Z5.1
G4 P500
G1 F1800 X10.0 Y20.0 Z5.1
G4 P500
G1 F1800 X15.0 Y20.0 Z5.1
G4 P500
G1 F1800 X20.0 Y20.0 Z5.1
G4 P500
G1 F1800 X20.0 Y15.0 Z5.1
G4 P500
G1 F1800 X20.0 Y10.0 Z5.1
G4 P500
G1 F1800 X15.0 Y10.0 Z5.1
G4 P500
G1 F1800 X10.0 Y10.0 Z5.1
G4 P500
; LAYER HEIGHT: 6
G1 F1800 X10.0 Y10.0 Z6.1
G4 P500
G1 F1800 X14.0 Y10.0 Z6.1
G4 P500
G1 F1800 X20.0 Y10.0 Z6.1
G4 P500
G1 F1800 X20.0 Y14.0 Z6.1
G4 P500
G1 F1800 X20.0 Y20.0 Z6.1
G4 P500
G1 F1800 X16.0 Y20.0 Z6.1
G4 P500
G1 F1800 X10.0 Y20.0 Z6.1
G4 P500
G1 F1800 X10.0 Y16.0 Z6.1
G4 P500
G1 F1800 X10.0 Y10.0 Z6.1
G4 P500
; LAYER HEIGHT: 7
G1 F1800 X10.0 Y10.0 Z7.1
G4 P500
G1 F1800 X13.0 Y10.0 Z7.1
G4 P500
G1 F1800 X20.0 Y10.0 Z7.1
G4 P500
G1 F1800 X20.0 Y13.0 Z7.1
G4 P500
G1 F1800 X20.0 Y20.0 Z7.1
G4 P500
G1 F1800 X17.0 Y20.0 Z7.1
G4 P500
G1 F1800 X10.0 Y20.0 Z7.1
G4 P500
G1 F1800 X10.0 Y17.0 Z7.1
G4 P500
G1 F1800 X10.0 Y10.0 Z7.1
G4 P500
; LAYER HEIGHT: 8
G1 F1800 X10.0 Y10.0 Z8.1
G4 P500
G1 F1800 X12.0 Y10.0 Z8.1
G4 P500
G1 F1800 X20.0 Y10.0 Z8.1
G4 P500
G1 F1800 X20.0 Y12.0 Z8.1
G4 P500
G1 F1800 X20.0 Y20.0 Z8.1
G4 P500
G1 F1800 X18.0 Y20.0 Z8.1
G4 P500
G1 F1800 X10.0 Y20.0 Z8.1
G4 P500
G1 F1800 X10.0 Y18.0 Z8.1
G4 P500
G1 F1800 X10.0 Y10.0 Z8.1
G4 P500
; LAYER HEIGHT: 9
G1 F1800 X10.0 Y10.0 Z9.1
G4 P500
G1 F1800 X11.0 Y10.0 Z9.1
G4 P500
G1 F1800 X20.0 Y10.0 Z9.1
G4 P500
G1 F1800 X20.0 Y11.0 Z9.1
G4 P500
G1 F1800 X20.0 Y20.0 Z9.1
G4 P500
G1 F1800 X19.0 Y20.0 Z9.1
G4 P500
G1 F1800 X10.0 Y20.0 Z9.1
G4 P500
G1 F1800 X10.0 Y19.0 Z9.1
G4 P500
G1 F1800 X10.0 Y10.0 Z9.1
G4 P500
; LAYER HEIGHT: 10
G1 F1800 X10.0 Y10.0 Z10.1
G4 P500
G1 F1800 X10.0 Y20.0 Z10.1
G4 P500
G1 F1800 X20.0 Y20.0 Z10.1
G4 P500
G1 F1800 X20.0 Y10.0 Z10.1
G4 P500
G1 F1800 X10.0 Y10.0 Z10.1
G4 P500
; LAYER HEIGHT: 11
; LAYER HEIGHT: 12
; LAYER HEIGHT: 13
; LAYER HEIGHT: 14
; LAYER HEIGHT: 15
; LAYER HEIGHT: 16
; LAYER HEIGHT: 17
; LAYER HEIGHT: 18
; LAYER HEIGHT: 19
; LAYER HEIGHT: 20
; LAYER HEIGHT: 21
; LAYER HEIGHT: 22
; LAYER HEIGHT: 23
; LAYER HEIGHT: 24
; LAYER HEIGHT: 25
; LAYER HEIGHT: 26
; LAYER HEIGHT: 27
; LAYER HEIGHT: 28
; LAYER HEIGHT: 29
; THANK GOD I'M DONE